; generated by PrusaSlicer 2.6.0+win64 on 2025-10-26 at 11:51:56 UTC
; Postprocessed by [ArcWelder](https://github.com/FormerLurker/ArcWelderLib)
; Copyright(C) 2021 - Brad Hochgesang
; Version: 1.2.0, Branch: HEAD, BuildDate: 2021-11-21T20:25:43Z
; resolution=0.05mm
; path_tolerance=5.0%
; max_radius=9999.00mm
; default_xyz_precision=3
; default_e_precision=5
; extrusion_rate_variance_percent=5.0%














; 

; external perimeters extrusion width = 0.42mm
; perimeters extrusion width = 0.45mm
; infill extrusion width = 0.45mm
; solid infill extrusion width = 0.50mm
; top infill extrusion width = 0.42mm
; support material extrusion width = 0.42mm
; first layer extrusion width = 0.56mm

M73 P0 R161
M201 X2500 Y2500 Z200 E2500 ; sets maximum accelerations, mm/sec^2
M203 X200 Y200 Z40 E100 ; sets maximum feedrates, mm / sec
M204 P2000 R1200 T2000 ; sets acceleration (P, T) and retract acceleration (R), mm/sec^2
M205 X8.00 Y8.00 Z2.00 E10.00 ; sets the jerk limits, mm/sec
M205 S0 T0 ; sets the minimum extruding and travel feed rate, mm/sec
;TYPE:Custom
M17 ; enable steppers
M862.3 P "MK4" ; printer model check
M862.1 P0.4 ; nozzle diameter check
M115 U5.0.1+12089

M555 X58.3743 Y-0.444215 W133.251 H206.888

G90 ; use absolute coordinates
M83 ; extruder relative mode

M140 S55 ; set bed temp

M104 S170 ; set extruder temp for bed leveling
M109 R170 ; wait for temp


M84 E ; turn off E motor

G28 ; home all without mesh bed level

G1 X42 Y-4 Z5 F4800

M302 S160 ; lower cold extrusion limit to 160C


G1 E-2 F2400 ; retraction


M84 E ; turn off E motor

G29 P9 X10 Y-4 W32 H4

M106 S100

G0 Z40 F10000

M190 S55 ; wait for bed temp

M107


; MBL

M84 E ; turn off E motor
G29 P1 ; invalidate mbl & probe print area
G29 P1 X0 Y0 W50 H20 C ; probe near purge place
G29 P3.2 ; interpolate mbl probes
G29 P3.13 ; extrapolate mbl outside probe area
G29 A ; activate mbl

; prepare for purge
M104 S205
G0 X0 Y-4 Z15 F4800 ; move away and ready for the purge
M109 S205

G92 E0
M569 S0 E ; set spreadcycle mode for extruder


; Extrude purge line

G92 E0 ; reset extruder position
M73 P0 R160
G1 E2 F2400 ; deretraction after the initial one before nozzle cleaning
G0 E7 X15 Z0.2 F500 ; purge
G0 X25 E4 F500 ; purge
G0 X35 E4 F650 ; purge
G0 X45 E4 F800 ; purge
G0 X48 Z0.05 F8000 ; wipe, move close to the bed
G0 X51 Z0.2 F8000 ; wipe, move quickly away from the bed

G92 E0
M221 S100 ; set flow to 100%
G21 ; set units to millimeters
G90 ; use absolute coordinates
M83 ; use relative distances for extrusion
M900 K0.04 ; Filament gcode



M142 S40 ; set heatbreak target temp
M107
;LAYER_CHANGE
;Z:0.28
;HEIGHT:0.28
;BEFORE_LAYER_CHANGE
G92 E0.0
;0.28


G1 E-.8 F2100
G1 Z.2 F7200
G1 Z.28
;AFTER_LAYER_CHANGE
;0.28
G1 Z.48
G1 X58.625 Y6.427
G1 Z.28
G1 E.8 F1500
;TYPE:Skirt/Brim
;WIDTH:0.56
G1 F3000
G3 X59.289 Y4.846 I2.637 J0.178 E0.10132
G1 X59.863 Y4.309 E.04574
G3 X61.246 Y3.806 I1.608 J2.269 E0.08652
G1 X188.81 Y3.811 E7.42358
G3 X191.375 Y6.426 I-0.346 J2.905 E0.23027
G1 X191.375 Y203.573 E11.47296
G3 X190.711 Y205.154 I-2.637 J-0.178 E0.10132
G1 X190.137 Y205.691 E.04574
G3 X188.754 Y206.194 I-1.618 J-2.295 E0.08651
G1 X61.246 Y206.194 E7.42032
G3 X59.665 Y205.530 I0.186 J-2.657 E0.10131
G1 X59.127 Y204.956 E.04578
G3 X58.625 Y203.573 I2.288 J-1.613 E0.08649
G1 X58.625 Y6.487 E11.46941
G1 X59.125 Y6.487 F7200
G1 F3000
G3 X61.270 Y4.306 I2.407 J0.222 E0.19279
G1 X188.782 Y4.311 E7.42055
G3 X190.875 Y6.451 I-0.320 J2.407 E0.18770
G1 X190.875 Y203.548 E11.47005
G3 X188.730 Y205.694 I-2.412 J-0.265 E0.19079
G1 X61.271 Y205.694 E7.41747
G3 X59.125 Y203.548 I0.265 J-2.411 E0.19086
G1 X59.125 Y6.547 E11.46446
G1 X59.625 Y6.547 F7200
G1 F3000
G3 X61.295 Y4.806 I1.887 J0.139 E0.15211
G1 X188.755 Y4.811 E7.41753
G3 X190.375 Y6.476 I-0.295 J1.907 E0.14510
G1 X190.375 Y203.523 E11.46714
G3 X188.705 Y205.194 I-1.891 J-0.220 E0.14810
G1 X61.295 Y205.194 E7.41462
G3 X59.625 Y203.524 I0.223 J-1.893 E0.14800
G1 X59.625 Y6.607 E11.45957
G1 X60.125 Y6.607 F7200
G1 F3000
G3 X61.319 Y5.306 I1.390 J0.077 E0.11140
G1 X188.726 Y5.311 E7.41444
G3 X189.875 Y6.501 I-0.267 J1.408 E0.10260
G1 X189.875 Y203.499 E11.46429
G3 X188.681 Y204.694 I-1.398 J-0.203 E0.10523
G1 X61.319 Y204.694 E7.41182
G3 X60.125 Y203.499 I0.203 J-1.397 E0.10525
G1 X60.125 Y6.667 E11.45463
G1 X60.624 Y6.667 F7200
G1 F3000
G3 X61.344 Y5.806 I0.879 J0.003 E0.07053
G1 X188.656 Y5.806 E7.40891
G3 X189.271 Y6.248 I-0.196 J0.922 E0.04502
M73 P0 R159
G1 X189.376 Y6.525 E.01724
G1 X189.376 Y203.475 E11.46149
G3 X188.656 Y204.194 I-0.910 J-0.191 E0.06229
G1 X61.344 Y204.194 E7.40891
G3 X60.624 Y203.475 I0.192 J-0.913 E0.06226
G1 X60.624 Y6.727 E11.44974
G1 X61.124 Y6.727 F7200
G1 F3000
G3 X61.418 Y6.306 I0.382 J-0.047 E0.03247
G1 X188.582 Y6.306 E7.4003
G3 X188.876 Y6.600 I-0.115 J0.409 E0.02508
G1 X188.876 Y203.4 E11.45276
G3 X188.582 Y203.694 I-0.409 J-0.115 E0.02508
G1 X61.418 Y203.694 E7.4003
G3 X61.124 Y203.400 I0.115 J-0.409 E0.02508
G1 X61.124 Y6.787 E11.44188
G1 E-.64 F2100
;WIPE_START
G1 F5760
G3 X61.286 Y6.384 I0.346 J-0.095 E-0.16000
;WIPE_END
G1 Z.48 F7200
G1 X83.607 Y9.166
G1 Z.28
G1 E.8 F1500
;TYPE:Support material
G1 F3000
G3 X82.876 Y9.099 I-0.692 J3.533 E1.27402
G1 X83.532 Y9.159 E.03834
G1 X85.563 Y14.765 F7200
G1 F3000
G1 X85.563 Y11.021 E.21788
G1 X85.525 Y10.95 E.00469
G2 X85.007 Y10.369 I-1.742 J1.031 E0.04544
G1 X85.007 Y15.037 E.27165
G3 X84.452 Y15.435 I-1.276 J-1.193 E0.03992
G1 X84.452 Y9.972 E.31792
G2 X83.896 Y9.724 I-0.888 J1.244 E0.03559
G1 X83.896 Y15.683 E.34678
G3 X83.341 Y15.815 I-0.606 J-1.315 E0.03334
G1 X83.341 Y9.593 E.36209
G2 X82.785 Y9.560 I-0.365 J1.453 E0.03249
G1 X82.785 Y15.847 E.36587
G1 X82.23 Y15.781 E.03253
G1 X82.23 Y9.626 E.35819
G1 X81.674 Y9.799 E.03389
G1 X81.674 Y15.607 E.338
G1 X81.119 Y15.302 E.03685
G1 X81.119 Y10.104 E.3025
G2 X80.563 Y10.603 I0.994 J1.667 E0.04362
G1 X80.563 Y14.804 E.24448
G3 X80.008 Y13.950 I1.873 J-1.824 E0.05956
G1 X80.008 Y10.979 E.1729
G1 E-.64 F2100
;WIPE_START
G1 F5760
G1 X80.008 Y11.441 E-.16
;WIPE_END
G1 Z.48 F7200
G1 X183.241 Y9.166
G1 Z.28
G1 E.8 F1500
G1 F3000
G3 X182.510 Y9.099 I-0.692 J3.533 E1.27402
G1 X183.166 Y9.159 E.03834
G1 X185.545 Y14.211 F7200
G1 F3000
G1 X185.545 Y11.807 E.1399
G2 X184.989 Y10.744 I-2.223 J0.486 E0.07047
G1 X184.989 Y14.663 E.22807
G3 X184.434 Y15.207 I-1.635 J-1.113 E0.04545
G1 X184.434 Y10.199 E.29144
G2 X183.878 Y9.861 I-1.142 J1.251 E0.03801
G1 X183.878 Y15.546 E.33084
G3 X183.323 Y15.745 I-0.778 J-1.296 E0.03443
G1 X183.323 Y9.661 E.35406
G2 X182.768 Y9.574 I-0.492 J1.325 E0.03283
G1 X182.768 Y15.835 E.36436
G3 X182.212 Y15.826 I-0.255 J-1.395 E0.03252
G1 X182.212 Y9.58 E.36349
G2 X181.657 Y9.689 I-0.003 J1.450 E0.03308
G1 X181.657 Y15.718 E.35086
G3 X181.101 Y15.497 I0.282 J-1.521 E0.03498
G1 X181.101 Y9.91 E.32514
G2 X180.546 Y10.274 I0.644 J1.587 E0.03880
G1 X180.546 Y15.132 E.28271
G3 X179.990 Y14.551 I1.195 J-1.700 E0.04701
G1 X179.99 Y10.855 E.21509
G1 X179.912 Y10.95 E.00715
G2 X179.441 Y12.088 I2.653 J1.764 E0.07202
G1 X179.435 Y14.04 E.1136
G1 E-.64 F2100
;WIPE_START
G1 F5760
G1 X179.436 Y13.578 E-.16
;WIPE_END
G1 Z.48 F7200
G1 X183.241 Y193.311
G1 Z.28
G1 E.8 F1500
G1 F3000
G3 X182.510 Y193.244 I-0.692 J3.533 E1.27401
G1 X183.166 Y193.304 E.03834
G1 X185.545 Y198.356 F7200
G1 F3000
G1 X185.545 Y195.952 E.1399
G2 X184.989 Y194.889 I-2.223 J0.486 E0.07047
G1 X184.989 Y198.808 E.22807
G3 X184.434 Y199.352 I-1.661 J-1.140 E0.04543
G1 X184.434 Y194.344 E.29144
G2 X183.878 Y194.006 I-1.142 J1.251 E0.03801
G1 X183.878 Y199.691 E.33084
G3 X183.323 Y199.890 I-0.778 J-1.296 E0.03443
M73 P1 R159
G1 X183.323 Y193.806 E.35406
G2 X182.768 Y193.719 I-0.492 J1.325 E0.03283
G1 X182.768 Y199.98 E.36436
G3 X182.212 Y199.971 I-0.255 J-1.395 E0.03252
G1 X182.212 Y193.725 E.36349
G2 X181.657 Y193.834 I-0.003 J1.450 E0.03308
G1 X181.657 Y199.863 E.35086
G3 X181.101 Y199.642 I0.282 J-1.521 E0.03498
G1 X181.101 Y194.055 E.32514
G2 X180.546 Y194.420 I0.634 J1.569 E0.03884
G1 X180.546 Y199.277 E.28265
G3 X179.990 Y198.696 I1.195 J-1.700 E0.04701
G1 X179.99 Y195 E.21509
G1 X179.912 Y195.095 E.00715
G2 X179.441 Y196.233 I2.653 J1.764 E0.07202
G1 X179.435 Y198.185 E.1136
G1 E-.64 F2100
;WIPE_START
G1 F5760
G1 X179.436 Y197.723 E-.16
;WIPE_END
G1 Z.48 F7200
G1 X83.607 Y193.311
G1 Z.28
G1 E.8 F1500
G1 F3000
G3 X82.876 Y193.244 I-0.692 J3.533 E1.27401
G1 X83.532 Y193.304 E.03834
G1 X85.563 Y198.91 F7200
G1 F3000
G1 X85.563 Y195.166 E.21788
G1 X85.525 Y195.095 E.00469
G2 X85.007 Y194.514 I-1.742 J1.031 E0.04544
G1 X85.007 Y199.182 E.27165
G3 X84.452 Y199.580 I-1.276 J-1.193 E0.03992
G1 X84.452 Y194.117 E.31792
G2 X83.896 Y193.869 I-0.888 J1.244 E0.03559
G1 X83.896 Y199.828 E.34678
G3 X83.341 Y199.960 I-0.606 J-1.315 E0.03334
G1 X83.341 Y193.738 E.36209
G2 X82.785 Y193.705 I-0.365 J1.453 E0.03249
G1 X82.785 Y199.992 E.36587
G1 X82.23 Y199.926 E.03253
G1 X82.23 Y193.771 E.35819
G1 X81.674 Y193.944 E.03389
G1 X81.674 Y199.752 E.338
G1 X81.119 Y199.447 E.03685
G1 X81.119 Y194.249 E.3025
G2 X80.563 Y194.748 I0.994 J1.667 E0.04362
G1 X80.563 Y198.949 E.24448
G3 X80.008 Y198.095 I1.873 J-1.824 E0.05956
G1 X80.008 Y195.124 E.1729
G1 E-.64 F2100
;WIPE_START
G1 F5760
G1 X80.008 Y195.586 E-.16
;WIPE_END
G1 Z.48 F7200
G1 X188.186 Y6.996
G1 Z.28
G1 E.8 F1500
;TYPE:External perimeter
G1 F3000
G1 X188.186 Y203.004 E11.40667
G1 X61.814 Y203.004 E7.35421
G1 X61.814 Y6.996 E11.40667
G1 X188.126 Y6.996 E7.35072
G1 X188.11 Y7.389 F7200
G1 E-.64 F2100
;WIPE_START
G1 F5760
G1 X188.126 Y7.458 E-.16
;WIPE_END
G1 Z.48 F7200
G1 X178.488 Y14.38
G1 Z.28
G1 E.8 F1500
G1 F3000
G3 X178.893 Y15.137 I4.041 J-1.675 E1.54925
G1 X178.517 Y14.433 E.04645
G1 X178.092 Y14.327 F7200
G1 X178.044 Y14.609
;TYPE:Perimeter
G1 F3000
G2 X187.401 Y12.888 I4.489 J-1.893 E0.76668
G1 X187.686 Y12.902 E.01661
G1 X187.686 Y196.65 E10.6932
G1 X187.401 Y196.664 E.01661
G1 X187.325 Y195.896 E.04491
G2 X182.506 Y191.968 I-4.784 J0.949 E0.39169
M73 P1 R158
G2 X187.401 Y197.033 I0.023 J4.875 E1.32450
G1 X187.686 Y197.047 E.01661
G1 X187.686 Y202.504 E.31757
G1 X62.314 Y202.504 E7.29602
G1 X62.314 Y7.496 E11.34848
G1 X187.686 Y7.496 E7.29602
G1 X187.686 Y12.505 E.2915
G1 X187.401 Y12.519 E.01661
G1 X187.325 Y11.751 E.04491
G2 X178.019 Y14.555 I-4.788 J0.954 E0.94603
G1 E-.64 F2100
;WIPE_START
G1 F5760
G1 X178.235 Y14.963 E-.16
;WIPE_END
G1 Z.48 F7200
G1 X77.611 Y13.669
G1 Z.28
G1 E.8 F1500
G1 F3000
G1 X77.62 Y13.754 E.00497
G1 X77.926 Y14.764 E.06142
G1 X78.424 Y15.695 E.06144
G1 X79.093 Y16.511 E.06141
G1 X79.91 Y17.181 E.06149
G1 X80.841 Y17.679 E.06144
G1 X81.851 Y17.985 E.06142
G1 X82.902 Y18.089 E.06146
G1 X83.952 Y17.985 E.0614
G1 X84.962 Y17.679 E.06142
G1 X85.894 Y17.181 E.06149
G1 X86.71 Y16.511 E.06144
G1 X87.379 Y15.695 E.06141
G1 X87.877 Y14.764 E.06144
G1 X88.184 Y13.754 E.06143
G1 X88.287 Y12.703 E.06146
G1 X88.184 Y11.653 E.0614
G1 X87.877 Y10.642 E.06149
G1 X87.379 Y9.711 E.06144
G1 X86.71 Y8.895 E.06141
G1 X85.614 Y7.996 E.08249
G1 X179.824 Y7.996 E5.48254
G1 X178.727 Y8.895 E.08254
G1 X178.058 Y9.711 E.06141
G1 X177.56 Y10.642 E.06144
G1 X177.254 Y11.653 E.06147
G1 X177.15 Y12.703 E.0614
G1 X177.254 Y13.754 E.06146
G1 X177.56 Y14.764 E.06142
G1 X178.058 Y15.695 E.06144
G1 X178.727 Y16.511 E.06141
G1 X179.544 Y17.181 E.06149
G1 X180.475 Y17.679 E.06144
G1 X181.485 Y17.985 E.06142
G1 X182.536 Y18.089 E.06146
G1 X183.586 Y17.985 E.0614
G1 X184.597 Y17.679 E.06147
G1 X185.528 Y17.181 E.06144
G1 X186.344 Y16.511 E.06144
G1 X187.186 Y15.485 E.07724
G1 X187.186 Y194.066 E10.39251
G1 X186.344 Y193.04 E.07724
G1 X185.528 Y192.37 E.06144
G1 X184.596 Y191.873 E.06147
G1 X183.582 Y191.565 E.06167
G1 X182.505 Y191.466 E.06294
G1 X181.485 Y191.566 E.05964
G1 X180.475 Y191.873 E.06143
G1 X179.544 Y192.37 E.06142
G1 X178.727 Y193.04 E.06149
G1 X178.058 Y193.856 E.06141
G1 X177.56 Y194.787 E.06144
G1 X177.254 Y195.798 E.06147
G1 X177.15 Y196.848 E.0614
G1 X177.254 Y197.899 E.06146
G1 X177.56 Y198.909 E.06142
G1 X178.058 Y199.84 E.06144
G1 X178.727 Y200.656 E.06141
G1 X179.544 Y201.326 E.06149
G1 X180.388 Y201.777 E.05569
G1 X180.331 Y202.004 E.01362
G1 X85.106 Y202.004 E5.54161
G1 X85.049 Y201.777 E.01362
G1 X85.894 Y201.326 E.05574
G1 X86.71 Y200.656 E.06144
G1 X87.379 Y199.84 E.06141
G1 X87.877 Y198.909 E.06144
G1 X88.184 Y197.899 E.06143
G1 X88.287 Y196.848 E.06146
G1 X88.184 Y195.798 E.0614
G1 X87.877 Y194.787 E.06149
G1 X87.379 Y193.856 E.06144
G1 X86.71 Y193.04 E.06141
G1 X85.894 Y192.37 E.06144
G1 X84.962 Y191.873 E.06147
G1 X83.948 Y191.565 E.06167
G1 X82.871 Y191.466 E.06294
G1 X81.851 Y191.566 E.05964
G1 X80.841 Y191.873 E.06143
G1 X79.91 Y192.37 E.06142
G1 X79.093 Y193.04 E.06149
G1 X78.424 Y193.856 E.06141
G1 X77.926 Y194.787 E.06144
G1 X77.62 Y195.798 E.06147
G1 X77.516 Y196.848 E.0614
G1 X77.62 Y197.899 E.06146
G1 X77.926 Y198.909 E.06142
G1 X78.424 Y199.84 E.06144
G1 X79.093 Y200.656 E.06141
G1 X79.91 Y201.326 E.06149
G1 X80.754 Y201.777 E.05569
G1 X80.697 Y202.004 E.01362
G1 X62.814 Y202.004 E1.0407
G1 X62.814 Y7.996 E11.29028
G1 X80.19 Y7.996 E1.0112
G1 X79.093 Y8.895 E.08254
G1 X78.424 Y9.711 E.06141
G1 X77.926 Y10.642 E.06144
G1 X77.62 Y11.653 E.06147
G1 X77.516 Y12.703 E.0614
G1 X77.605 Y13.61 E.05304
G1 E-.64 F2100
;WIPE_START
G1 F5760
G2 X77.712 Y14.058 I1.218 J-0.054 E-0.16000
;WIPE_END
G1 Z.48 F7200
G1 X140.641 Y72.93
G1 Z.28
G1 E.8 F1500
;TYPE:External perimeter
G1 F3000
G1 X128.473 Y72.93 E.70812
G1 X128.473 Y47.539 E1.47763
G1 X140.641 Y47.539 E.70812
G1 X140.641 Y72.87 E1.47414
G1 X140.701 Y73.325 F7200
G1 X141.141 Y73.43
;TYPE:Perimeter
G1 F3000
G1 X127.973 Y73.43 E.76631
G1 X127.973 Y47.039 E1.53582
G1 X141.141 Y47.039 E.76631
G1 X141.141 Y73.37 E1.53233
G1 X141.641 Y73.93 F7200
G1 F3000
G1 X127.473 Y73.93 E.82451
G1 X127.473 Y46.54 E1.59396
G1 X141.641 Y46.54 E.82451
G1 X141.641 Y73.87 E1.59047
G1 E-.64 F2100
;WIPE_START
G1 F5760
G1 X141.179 Y73.872 E-.16
;WIPE_END
G1 Z.48 F7200
G1 X174.865 Y156.841
G1 Z.28
G1 E.8 F1500
;TYPE:External perimeter
G1 F3000
G1 X174.865 Y143.791 E.75944
G1 X183.365 Y143.791 E.49466
G1 X183.365 Y156.841 E.75944
G1 X174.925 Y156.841 E.49117
G1 X174.487 Y156.971 F7200
G1 X174.365 Y157.341
;TYPE:Perimeter
G1 F3000
G1 X174.365 Y143.291 E.81764
G1 X183.865 Y143.291 E.55285
G1 X183.865 Y157.341 E.81764
G1 X174.425 Y157.341 E.54936
G1 X173.865 Y157.841 F7200
G1 F3000
G1 X173.865 Y142.791 E.87583
G1 X184.365 Y142.791 E.61105
G1 X184.365 Y157.841 E.87583
G1 X173.925 Y157.841 E.60756
G1 E-.64 F2100
;WIPE_START
G1 F5760
G1 X173.923 Y157.379 E-.16
;WIPE_END
G1 Z.48 F7200
G1 X140.641 Y183.177
G1 Z.28
G1 E.8 F1500
;TYPE:External perimeter
G1 F3000
G1 X128.473 Y183.177 E.70812
G1 X128.473 Y157.787 E1.47757
G1 X140.641 Y157.787 E.70812
G1 X140.641 Y183.117 E1.47408
G1 X140.701 Y183.573 F7200
G1 X141.141 Y183.677
;TYPE:Perimeter
G1 F3000
G1 X127.973 Y183.677 E.76631
G1 X127.973 Y157.287 E1.53576
G1 X141.141 Y157.287 E.76631
G1 X141.141 Y183.617 E1.53227
G1 X141.641 Y184.177 F7200
G1 F3000
G1 X127.473 Y184.177 E.82451
G1 X127.473 Y156.787 E1.59396
G1 X141.641 Y156.787 E.82451
G1 X141.641 Y184.117 E1.59047
G1 E-.64 F2100
;WIPE_START
G1 F5760
G1 X141.179 Y184.119 E-.16
;WIPE_END
G1 Z.48 F7200
G1 X140.641 Y102.663
G1 Z.28
G1 E.8 F1500
;TYPE:External perimeter
G1 F3000
G1 X140.641 Y128.054 E1.47763
G1 X128.473 Y128.054 E.70812
G1 X128.473 Y102.663 E1.47763
G1 X140.581 Y102.663 E.70462
G1 X141.013 Y102.517 F7200
G1 X141.141 Y102.163
;TYPE:Perimeter
G1 F3000
G1 X141.141 Y128.553 E1.53576
G1 X127.973 Y128.553 E.76631
G1 X127.973 Y102.163 E1.53576
G1 X141.081 Y102.163 E.76282
G1 X141.641 Y101.663 F7200
G1 F3000
G1 X141.641 Y129.053 E1.59396
G1 X127.473 Y129.053 E.82451
G1 X127.473 Y101.663 E1.59396
G1 X141.581 Y101.663 E.82101
G1 E-.64 F2100
;WIPE_START
G1 F5760
G1 X141.582 Y102.125 E-.16
;WIPE_END
G1 Z.48 F7200
G1 X78.605 Y13.558
G1 Z.28
G1 E.8 F1500
;TYPE:External perimeter
G1 F3000
G3 X78.854 Y14.380 I4.297 J-0.853 E1.54923
G1 X78.622 Y13.615 E.04652
G1 X78.226 Y13.429 F7200
G1 X78.125 Y13.697
;TYPE:Perimeter
G1 F3000
G1 X78.018 Y12.703 E.05818
G3 X78.390 Y14.572 I4.877 J0.001 E1.67124
