; generated by PrusaSlicer 2.6.0+win64 on 2025-10-27 at 19:54:31 UTC
; Postprocessed by [ArcWelder](https://github.com/FormerLurker/ArcWelderLib)
; Copyright(C) 2021 - Brad Hochgesang
; Version: 1.2.0, Branch: HEAD, BuildDate: 2021-11-21T20:25:43Z
; resolution=0.05mm
; path_tolerance=5.0%
; max_radius=9999.00mm
; default_xyz_precision=3
; default_e_precision=5
; extrusion_rate_variance_percent=5.0%














; 

; external perimeters extrusion width = 0.42mm
; perimeters extrusion width = 0.45mm
; infill extrusion width = 0.45mm
; solid infill extrusion width = 0.50mm
; top infill extrusion width = 0.42mm
; support material extrusion width = 0.42mm
; first layer extrusion width = 0.56mm

; external perimeters extrusion width = 0.42mm
; perimeters extrusion width = 0.45mm
; infill extrusion width = 0.45mm
; solid infill extrusion width = 0.50mm
; top infill extrusion width = 0.42mm
; support material extrusion width = 0.42mm
; first layer extrusion width = 0.56mm

M73 P0 R20
M201 X2500 Y2500 Z200 E2500 ; sets maximum accelerations, mm/sec^2
M203 X200 Y200 Z40 E100 ; sets maximum feedrates, mm / sec
M204 P2000 R1200 T2000 ; sets acceleration (P, T) and retract acceleration (R), mm/sec^2
M205 X8.00 Y8.00 Z2.00 E10.00 ; sets the jerk limits, mm/sec
M205 S0 T0 ; sets the minimum extruding and travel feed rate, mm/sec
;TYPE:Custom
M17 ; enable steppers
M862.3 P "MK4" ; printer model check
M862.1 P0.4 ; nozzle diameter check
M115 U5.0.1+12089

M555 X98.9953 Y40.03 W52.0093 H94.347

G90 ; use absolute coordinates
M83 ; extruder relative mode

M140 S55 ; set bed temp

M104 S170 ; set extruder temp for bed leveling
M109 R170 ; wait for temp


M84 E ; turn off E motor

G28 ; home all without mesh bed level

G1 X42 Y-4 Z5 F4800

M302 S160 ; lower cold extrusion limit to 160C


G1 E-2 F2400 ; retraction


M84 E ; turn off E motor

G29 P9 X10 Y-4 W32 H4

M106 S100

G0 Z40 F10000

M190 S55 ; wait for bed temp

M107


; MBL

M84 E ; turn off E motor
G29 P1 ; invalidate mbl & probe print area
G29 P1 X0 Y0 W50 H20 C ; probe near purge place
G29 P3.2 ; interpolate mbl probes
G29 P3.13 ; extrapolate mbl outside probe area
G29 A ; activate mbl

; prepare for purge
M104 S205
G0 X0 Y-4 Z15 F4800 ; move away and ready for the purge
M109 S205

G92 E0
M569 S0 E ; set spreadcycle mode for extruder


; Extrude purge line

G92 E0 ; reset extruder position
G1 E2 F2400 ; deretraction after the initial one before nozzle cleaning
G0 E7 X15 Z0.2 F500 ; purge
G0 X25 E4 F500 ; purge
G0 X35 E4 F650 ; purge
G0 X45 E4 F800 ; purge
G0 X48 Z0.05 F8000 ; wipe, move close to the bed
G0 X51 Z0.2 F8000 ; wipe, move quickly away from the bed

G92 E0
M221 S100 ; set flow to 100%
G21 ; set units to millimeters
G90 ; use absolute coordinates
M83 ; use relative distances for extrusion
M900 K0.04 ; Filament gcode



M142 S40 ; set heatbreak target temp
M107
;LAYER_CHANGE
;Z:0.28
;HEIGHT:0.28
;BEFORE_LAYER_CHANGE
G92 E0.0
;0.28


G1 E-.8 F2100
G1 Z.2 F7200
G1 Z.28
;AFTER_LAYER_CHANGE
;0.28
G1 Z.48
G1 X100.971 Y78.215
M73 P0 R19
G1 Z.28
G1 E.8 F1500
;TYPE:Skirt/Brim
;WIDTH:0.56
G1 F3000
G1 X101.347 Y77.784 E.03329
G1 X102.03 Y77.304 E.04858
G1 X105.073 Y76.007 E.1925
G3 X106.853 Y76.010 I0.885 J2.764 E0.10510
G1 X110.014 Y77.374 E.20035
G3 X111.222 Y78.691 I-1.434 J2.528 E0.10551
G1 X111.611 Y79.691 E.06244
G1 X119.626 Y79.691 E.46643
G1 X120.054 Y78.61 E.06766
G3 X121.313 Y77.325 I2.599 J1.287 E0.10624
G1 X124.298 Y76.038 E.18917
G3 X126.266 Y76.042 I0.978 J2.761 E0.11654
G1 X129.194 Y77.3 E.18546
G3 X130.464 Y78.542 I-1.294 J2.593 E0.10488
G1 X130.927 Y79.691 E.07209
G1 X138.397 Y79.691 E.43472
G1 X138.849 Y78.564 E.07066
G3 X140.122 Y77.304 I2.591 J1.344 E0.10577
G1 X143.062 Y76.041 E.18621
G3 X145.030 Y76.039 I0.987 J2.759 E0.11654
G1 X147.975 Y77.304 E.18653
G3 X149.312 Y78.693 I-1.332 J2.620 E0.11406
G1 X150.621 Y82.063 E.21039
G1 X150.755 Y82.98 E.05393
G1 X150.633 Y83.808 E.04871
G1 X149.298 Y87.238 E.21419
G3 X147.423 Y88.829 I-2.775 J-1.370 E0.14704
G1 X147.423 Y99.349 E.61221
G3 X149.298 Y100.940 I-0.900 J2.961 E0.14707
G1 X150.621 Y104.338 E.21221
G1 X150.755 Y105.255 E.05393
G1 X150.633 Y106.083 E.04871
G1 X149.298 Y109.513 E.21419
G3 X147.423 Y111.104 I-2.783 J-1.380 E0.14703
G1 X147.423 Y121.167 E.58562
G3 X149.255 Y122.677 I-0.872 J2.924 E0.14160
G1 X150.643 Y126.245 E.2228
G1 X150.753 Y126.975 E.04296
G1 X150.636 Y127.899 E.0542
G1 X149.307 Y131.318 E.21347
G1 X148.889 Y131.972 E.04517
G3 X147.966 Y132.700 I-2.225 J-1.872 E0.06876
G1 X145.026 Y133.963 E.18621
G3 X143.187 Y134.001 I-0.977 J-2.770 E0.10866
G1 X140.086 Y132.678 E.1962
G1 X139.588 Y132.349 E.03473
M73 P1 R19
G3 X138.825 Y131.391 I1.827 J-2.238 E0.07168
G1 X138.428 Y130.391 E.06261
G1 X130.895 Y130.391 E.43838
G1 X130.498 Y131.396 E.06288
G3 X129.238 Y132.678 I-2.613 J-1.308 E0.10614
G1 X126.254 Y133.964 E.18909
G1 X125.476 Y134.124 E.04622
G3 X124.287 Y133.958 I-0.199 J-2.914 E0.07024
G1 X121.36 Y132.701 E.18538
G3 X120.090 Y131.459 I1.294 J-2.593 E0.10487
G1 X119.659 Y130.391 E.06702
G1 X111.572 Y130.391 E.47062
G3 X110.931 Y131.797 I-4.715 J-1.300 E0.09019
G3 X110.008 Y132.626 I-2.369 J-1.710 E0.07261
G1 X106.846 Y133.99 E.2004
G3 X105.720 Y134.122 I-0.892 J-2.737 E0.06630
G1 X104.971 Y133.962 E.04457
G1 X102.028 Y132.698 E.1864
G3 X100.688 Y131.308 I1.334 J-2.627 E0.11424
G1 X99.329 Y127.75 E.22165
G1 X99.253 Y126.808 E.055
G1 X99.361 Y126.226 E.03445
G1 X100.745 Y122.677 E.22168
G3 X101.922 Y121.459 I2.587 J1.322 E0.09986
G1 X102.768 Y121.088 E.05376
G1 X102.768 Y111.187 E.57619
G1 X101.873 Y110.789 E.057
G3 X100.702 Y109.513 I1.453 J-2.509 E0.10215
G1 X99.366 Y106.08 E.21438
G1 X99.248 Y105.095 E.05773
G1 X99.381 Y104.334 E.04496
G1 X100.687 Y100.971 E.20995
G3 X101.827 Y99.691 I2.654 J1.216 E0.10109
G1 X102.768 Y99.264 E.06014
G1 X102.768 Y88.909 E.60261
G1 X101.929 Y88.541 E.05332
G3 X100.751 Y87.323 I1.402 J-2.535 E0.09990
G1 X99.369 Y83.798 E.22034
G1 X99.26 Y82.71 E.06363
G1 X99.391 Y82.047 E.03933
G1 X100.694 Y78.694 E.20934
G1 X100.941 Y78.267 E.02871
G1 X101.372 Y78.519 F7200
G1 F3000
G3 X102.250 Y77.754 I1.949 J1.350 E0.06828
G1 X105.244 Y76.478 E.1894
G3 X106.678 Y76.479 I0.715 J2.274 E0.08460
G1 X109.749 Y77.799 E.19453
G3 X110.764 Y78.892 I-1.180 J2.113 E0.08808
G1 X111.269 Y80.191 E.08111
G1 X119.968 Y80.191 E.50624
G1 X120.492 Y78.852 E.08368
G3 X121.533 Y77.774 I2.176 J1.060 E0.08851
G1 X124.474 Y76.506 E.18638
G3 X126.089 Y76.510 I0.802 J2.289 E0.09560
G1 X128.98 Y77.752 E.18311
G3 X130.034 Y78.798 I-1.088 J2.150 E0.08768
G1 X130.587 Y80.191 E.08722
G1 X138.738 Y80.191 E.47435
G1 X139.283 Y78.813 E.08624
G3 X140.339 Y77.755 I2.163 J1.103 E0.08827
G1 X143.238 Y76.509 E.18363
G3 X144.853 Y76.507 I0.810 J2.299 E0.09560
G1 X147.755 Y77.754 E.18381
G3 X148.853 Y78.893 I-1.106 J2.164 E0.09358
G1 X150.145 Y82.219 E.20765
G1 X150.255 Y82.948 E.0429
G1 X150.156 Y83.656 E.0416
G1 X148.854 Y87.008 E.20927
G3 X147.897 Y88.069 I-2.192 J-1.015 E0.08428
G1 X146.923 Y88.505 E.0621
G1 X146.923 Y99.673 E.64992
G1 X147.897 Y100.108 E.06208
G3 X148.854 Y101.170 I-1.225 J2.066 E0.08431
G1 X150.145 Y104.493 E.20746
G1 X150.255 Y105.223 E.04296
G1 X150.156 Y105.93 E.04155
G1 X148.854 Y109.283 E.20932
G3 X147.897 Y110.344 I-2.192 J-1.015 E0.08428
G1 X146.923 Y110.78 E.0621
G1 X146.923 Y121.496 E.62362
G1 X147.805 Y121.879 E.05596
G3 X148.818 Y122.920 I-1.140 J2.123 E0.08571
G1 X150.168 Y126.4 E.21722
G1 X150.253 Y126.951 E.03244
G1 X150.158 Y127.748 E.04671
G1 X148.851 Y131.113 E.21008
G3 X147.750 Y132.249 I-2.192 J-1.023 E0.09357
G1 X144.851 Y133.494 E.18361
G3 X143.358 Y133.530 I-0.802 J-2.284 E0.08818
G1 X140.305 Y132.228 E.19315
G3 X139.263 Y131.149 I1.122 J-2.126 E0.08861
G1 X138.77 Y129.891 E.07863
G1 X130.555 Y129.891 E.47807
G1 X130.042 Y131.188 E.08117
G3 X128.985 Y132.246 I-2.157 J-1.098 E0.08832
G1 X126.081 Y133.494 E.18394
G3 X124.466 Y133.491 I-0.803 J-2.285 E0.09559
G1 X121.575 Y132.249 E.18311
G3 X120.520 Y131.203 I1.084 J-2.148 E0.08773
G1 X119.999 Y129.891 E.08215
G1 X111.23 Y129.891 E.51031
G1 X110.757 Y131.108 E.07598
G3 X109.742 Y132.201 I-2.185 J-1.011 E0.08810
G1 X106.672 Y133.521 E.19447
G3 X105.146 Y133.493 I-0.721 J-2.308 E0.09019
G1 X102.244 Y132.246 E.18381
G3 X101.147 Y131.106 I1.099 J-2.156 E0.09360
G1 X99.809 Y127.605 E.21811
G1 X99.751 Y126.864 E.04325
G1 X99.836 Y126.383 E.02843
G1 X101.182 Y122.92 E.21622
G3 X102.148 Y121.906 I2.149 J1.080 E0.08257
G1 X103.268 Y121.415 E.07117
G1 X103.268 Y110.862 E.61413
G1 X102.103 Y110.344 E.0742
G3 X101.146 Y109.283 I1.219 J-2.062 E0.08428
G1 X99.843 Y105.928 E.20945
G1 X99.747 Y105.141 E.04614
G1 X99.856 Y104.491 E.03835
G1 X101.146 Y101.17 E.20733
G3 X102.103 Y100.108 I2.203 J1.023 E0.08431
G1 X103.268 Y99.591 E.07417
G1 X103.268 Y88.582 E.64067
G1 X102.154 Y88.094 E.07078
G3 X101.189 Y87.080 I1.162 J-2.072 E0.08254
G1 X99.847 Y83.647 E.21451
G1 X99.758 Y82.767 E.05147
G1 X99.866 Y82.206 E.03325
G1 X101.153 Y78.894 E.20678
G1 X101.342 Y78.571 E.02178
G1 X101.771 Y78.826 F7200
G1 F3000
G3 X102.470 Y78.203 I1.535 J1.019 E0.05494
G1 X105.372 Y76.961 E.1837
G3 X106.550 Y76.963 I0.586 J1.813 E0.06955
G1 X109.487 Y78.225 E.18603
G3 X110.306 Y79.094 I-0.915 J1.683 E0.07053
G1 X110.926 Y80.691 E.0997
G1 X120.309 Y80.691 E.54604
G1 X120.949 Y79.057 E.10212
G3 X121.787 Y78.205 I1.721 J0.855 E0.07059
G1 X124.648 Y76.976 E.18121
G3 X125.911 Y76.978 I0.629 J1.801 E0.07475
G1 X128.764 Y78.204 E.18071
G3 X129.602 Y79.050 I-0.870 J1.700 E0.07034
G1 X130.245 Y80.691 E.10257
G1 X139.08 Y80.691 E.51415
G1 X139.719 Y79.057 E.1021
G3 X140.558 Y78.205 I1.726 J0.860 E0.07063
G1 X143.414 Y76.978 E.18089
G3 X144.677 Y76.976 I0.634 J1.803 E0.07475
G1 X147.536 Y78.204 E.18108
G3 X148.395 Y79.094 I-0.884 J1.712 E0.07313
G1 X149.67 Y82.375 E.20485
G3 X149.679 Y83.504 I-1.954 J0.580 E0.06636
G1 X148.395 Y86.808 E.20629
G3 X147.625 Y87.649 I-1.734 J-0.814 E0.06728
G1 X146.423 Y88.177 E.0764
G1 X146.423 Y100 E.68804
G1 X147.625 Y100.529 E.07642
G3 X148.395 Y101.369 I-0.944 J1.638 E0.06723
G1 X149.67 Y104.65 E.20485
G3 X149.679 Y105.778 I-1.951 J0.580 E0.06630
G1 X148.395 Y109.083 E.20634
G3 X147.625 Y109.924 I-1.734 J-0.814 E0.06728
G1 X146.423 Y110.452 E.0764
G1 X146.423 Y121.824 E.66179
G1 X147.582 Y122.327 E.07353
G3 X148.378 Y123.159 I-0.899 J1.657 E0.06795
G1 X149.68 Y126.511 E.20927
G1 X149.752 Y126.935 E.02503
G1 X149.68 Y127.599 E.03887
G1 X148.394 Y130.908 E.2066
G3 X147.533 Y131.798 I-1.719 J-0.801 E0.07324
G1 X144.677 Y133.025 E.18089
G3 X143.526 Y133.059 I-0.630 J-1.829 E0.06792
G1 X140.559 Y131.797 E.18763
G3 X139.719 Y130.944 I0.872 J-1.699 E0.07071
G1 X139.111 Y129.391 E.09706
G1 X130.214 Y129.391 E.51776
G1 X129.606 Y130.943 E.097
G3 X128.767 Y131.796 I-1.724 J-0.857 E0.07067
G1 X125.908 Y133.024 E.18108
G3 X124.643 Y133.023 I-0.631 J-1.804 E0.07486
G1 X121.79 Y131.797 E.18071
G3 X120.953 Y130.951 I0.872 J-1.700 E0.07030
G1 X120.341 Y129.391 E.09752
G1 X110.888 Y129.391 E.55012
G1 X110.299 Y130.906 E.09459
G3 X109.480 Y131.775 I-1.734 J-0.814 E0.07055
G1 X106.544 Y133.037 E.18598
G3 X105.322 Y133.025 I-0.593 J-1.834 E0.07223
G1 X102.462 Y131.796 E.18115
G3 X101.605 Y130.905 I0.879 J-1.703 E0.07310
G1 X100.304 Y127.53 E.2105
G1 X100.252 Y126.861 E.03905
G1 X100.322 Y126.503 E.02123
G1 X101.622 Y123.159 E.20879
G3 X102.375 Y122.352 I1.701 J0.833 E0.06507
G1 X103.768 Y121.742 E.0885
G1 X103.768 Y110.534 E.65225
G1 X102.375 Y109.924 E.0885
G3 X101.605 Y109.083 I0.939 J-1.632 E0.06728
G1 X100.321 Y105.778 E.20634
G1 X100.248 Y105.123 E.03835
G1 X100.331 Y104.65 E.02795
G1 X101.605 Y101.369 E.20483
G3 X102.375 Y100.529 I1.723 J0.806 E0.06723
G1 X103.768 Y99.918 E.08852
G1 X103.768 Y88.256 E.67867
G1 X102.381 Y87.648 E.08813
G3 X101.628 Y86.841 I0.941 J-1.633 E0.06507
G1 X100.326 Y83.5 E.20867
G1 X100.259 Y82.761 E.04318
G1 X100.339 Y82.369 E.02328
G1 X101.611 Y79.095 E.2044
G1 X101.74 Y78.877 E.01474
M73 P2 R19
G1 X102.167 Y79.129 F7200
G1 F3000
G3 X102.690 Y78.653 I1.160 J0.749 E0.04150
G1 X105.504 Y77.444 E.17824
G3 X106.415 Y77.445 I0.454 J1.336 E0.05387
G1 X109.229 Y78.654 E.17824
G3 X109.848 Y79.296 I-0.646 J1.242 E0.05272
G1 X110.584 Y81.191 E.11831
G1 X120.652 Y81.191 E.58591
G1 X121.387 Y79.297 E.11823
G3 X122.007 Y78.655 I1.276 J0.612 E0.05275
G1 X124.821 Y77.446 E.17824
G3 X125.732 Y77.445 I0.457 J1.312 E0.05386
G1 X128.547 Y78.655 E.17831
G3 X129.167 Y79.297 I-0.658 J1.256 E0.05275
G1 X129.903 Y81.191 E.11825
G1 X139.422 Y81.191 E.55396
G1 X140.158 Y79.297 E.11825
G3 X140.777 Y78.655 I1.282 J0.616 E0.05270
G1 X143.591 Y77.446 E.17824
G3 X144.502 Y77.445 I0.457 J1.346 E0.05387
G1 X147.318 Y78.655 E.17836
G3 X147.937 Y79.297 I-0.646 J1.242 E0.05272
G1 X149.194 Y82.533 E.20203
G3 X149.201 Y83.354 I-1.433 J0.423 E0.04824
G1 X147.937 Y86.608 E.20315
G3 X147.358 Y87.226 I-1.284 J-0.623 E0.04995
G1 X145.923 Y87.848 E.09102
G1 X145.923 Y100.329 E.72633
G1 X147.358 Y100.952 E.09104
G3 X147.937 Y101.570 I-0.687 J1.224 E0.04995
G1 X149.194 Y104.807 E.20208
G3 X149.201 Y105.629 I-1.437 J0.423 E0.04830
G1 X147.937 Y108.882 E.2031
G3 X147.358 Y109.501 I-1.282 J-0.619 E0.05000
G1 X145.923 Y110.123 E.09102
G1 X145.923 Y122.153 E.70009
G1 X147.358 Y122.775 E.09102
G3 X147.937 Y123.393 I-0.687 J1.224 E0.04995
G1 X149.194 Y126.63 E.20208
G3 X149.201 Y127.452 I-1.402 J0.423 E0.04829
G1 X147.937 Y130.704 E.20304
G3 X147.318 Y131.346 I-1.250 J-0.585 E0.05271
G1 X144.504 Y132.555 E.17824
G3 X143.693 Y132.586 I-0.457 J-1.330 E0.04782
G1 X140.778 Y131.346 E.18435
G3 X140.158 Y130.704 I0.655 J-1.253 E0.05275
G1 X139.454 Y128.891 E.11318
G1 X129.871 Y128.891 E.55768
G1 X129.167 Y130.703 E.11313
G3 X128.547 Y131.346 I-1.274 J-0.608 E0.05280
G1 X125.734 Y132.555 E.17818
G3 X124.822 Y132.556 I-0.457 J-1.338 E0.05391
G1 X122.007 Y131.346 E.17831
G3 X121.388 Y130.704 I0.662 J-1.258 E0.05270
G1 X120.683 Y128.891 E.1132
G1 X110.546 Y128.891 E.58992
G1 X109.842 Y130.704 E.11318
G3 X109.223 Y131.346 I-1.282 J-0.616 E0.05270
G1 X106.409 Y132.555 E.17824
G3 X105.498 Y132.556 I-0.457 J-1.346 E0.05387
G1 X102.682 Y131.346 E.17836
G3 X102.063 Y130.704 I0.646 J-1.242 E0.05272
G1 X100.8 Y127.454 E.20291
G1 X100.754 Y126.862 E.03456
G1 X100.805 Y126.633 E.01365
G1 X102.063 Y123.393 E.20227
G3 X102.642 Y122.775 I1.284 J0.623 E0.04995
G1 X104.268 Y122.071 E.10311
G1 X104.268 Y110.205 E.69054
G1 X102.642 Y109.501 E.10311
G3 X102.063 Y108.882 I0.682 J-1.218 E0.05000
G1 X100.8 Y105.631 E.20297
G3 X100.805 Y104.810 I1.396 J-0.402 E0.04824
G1 X102.063 Y101.57 E.20227
G3 X102.642 Y100.952 I1.284 J0.623 E0.04995
G1 X104.268 Y100.247 E.10314
G1 X104.268 Y87.927 E.71696
G1 X102.649 Y87.225 E.10269
G3 X102.070 Y86.607 I0.672 J-1.210 E0.04997
G1 X100.806 Y83.355 E.20304
G1 X100.76 Y82.763 E.03456
G1 X100.811 Y82.534 E.01365
G1 X102.07 Y79.294 E.20229
G1 X102.137 Y79.18 E.0077
G1 X102.563 Y79.438 F7200
G1 F3000
G3 X102.910 Y79.102 I0.780 J0.459 E0.02842
G1 X105.676 Y77.914 E.17519
G3 X106.238 Y77.913 I0.283 J0.861 E0.03317
G1 X109.007 Y79.102 E.17537
G3 X109.390 Y79.497 I-0.426 J0.796 E0.03245
G1 X110.242 Y81.691 E.13697
G1 X120.994 Y81.691 E.62571
G1 X121.846 Y79.498 E.13691
G3 X122.229 Y79.103 I0.823 J0.415 E0.03246
G1 X124.995 Y77.915 E.17519
G3 X125.556 Y77.914 I0.282 J0.856 E0.03311
G1 X128.329 Y79.105 E.17563
G3 X128.710 Y79.501 I-0.447 J0.811 E0.03242
G1 X129.56 Y81.691 E.13671
G1 X139.764 Y81.691 E.59382
G1 X140.616 Y79.498 E.13691
G3 X140.999 Y79.103 I0.835 J0.426 E0.03244
G1 X143.768 Y77.914 E.17537
G3 X144.330 Y77.915 I0.279 J0.885 E0.03317
G1 X147.096 Y79.103 E.17519
G3 X147.479 Y79.498 I-0.426 J0.796 E0.03245
G1 X148.72 Y82.691 E.19936
G3 X148.722 Y83.207 I-0.956 J0.262 E0.03028
G1 X147.479 Y86.405 E.19967
G3 X147.096 Y86.800 I-0.835 J-0.426 E0.03245
G1 X145.423 Y87.518 E.10595
G1 X145.423 Y100.659 E.76474
G1 X147.096 Y101.378 E.10597
G3 X147.479 Y101.773 I-0.415 J0.785 E0.03247
G1 X148.72 Y104.966 E.19936
G3 X148.722 Y105.481 I-0.953 J0.261 E0.03022
G1 X147.479 Y108.68 E.19973
G3 X147.096 Y109.074 I-0.824 J-0.418 E0.03242
G1 X145.423 Y109.793 E.10597
G1 X145.423 Y122.482 E.73844
G1 X147.096 Y123.201 E.10597
