; generated by PrusaSlicer 2.6.0+win64 on 2026-03-02 at 21:28:09 UTC
; Postprocessed by [ArcWelder](https://github.com/FormerLurker/ArcWelderLib)
; Copyright(C) 2021 - Brad Hochgesang
; Version: 1.2.0, Branch: HEAD, BuildDate: 2021-11-21T20:25:43Z
; resolution=0.05mm
; path_tolerance=5.0%
; max_radius=9999.00mm
; default_xyz_precision=3
; default_e_precision=5
; extrusion_rate_variance_percent=5.0%














; 

; external perimeters extrusion width = 0.42mm
; perimeters extrusion width = 0.45mm
; infill extrusion width = 0.45mm
; solid infill extrusion width = 0.50mm
; top infill extrusion width = 0.42mm
; support material extrusion width = 0.42mm
; first layer extrusion width = 0.56mm

M73 P0 R9
M201 X2500 Y2500 Z200 E2500 ; sets maximum accelerations, mm/sec^2
M203 X200 Y200 Z40 E100 ; sets maximum feedrates, mm / sec
M204 P2000 R1200 T2000 ; sets acceleration (P, T) and retract acceleration (R), mm/sec^2
M205 X8.00 Y8.00 Z2.00 E10.00 ; sets the jerk limits, mm/sec
M205 S0 T0 ; sets the minimum extruding and travel feed rate, mm/sec
;TYPE:Custom
M17 ; enable steppers
M862.3 P "MK4" ; printer model check
M862.1 P0.4 ; nozzle diameter check
M115 U5.0.1+12089

M555 X87.5085 Y58.1601 W74.983 H89.6798

G90 ; use absolute coordinates
M83 ; extruder relative mode

M140 S55 ; set bed temp

M104 S170 ; set extruder temp for bed leveling
M109 R170 ; wait for temp


M84 E ; turn off E motor

G28 ; home all without mesh bed level

G1 X42 Y-4 Z5 F4800

M302 S160 ; lower cold extrusion limit to 160C


G1 E-2 F2400 ; retraction


M84 E ; turn off E motor

G29 P9 X10 Y-4 W32 H4

M106 S100

G0 Z40 F10000

M190 S55 ; wait for bed temp

M107


; MBL

M84 E ; turn off E motor
G29 P1 ; invalidate mbl & probe print area
G29 P1 X0 Y0 W50 H20 C ; probe near purge place
G29 P3.2 ; interpolate mbl probes
G29 P3.13 ; extrapolate mbl outside probe area
G29 A ; activate mbl

; prepare for purge
M104 S205
G0 X0 Y-4 Z15 F4800 ; move away and ready for the purge
M109 S205

G92 E0
M569 S0 E ; set spreadcycle mode for extruder


; Extrude purge line

G92 E0 ; reset extruder position
G1 E2 F2400 ; deretraction after the initial one before nozzle cleaning
G0 E7 X15 Z0.2 F500 ; purge
G0 X25 E4 F500 ; purge
G0 X35 E4 F650 ; purge
G0 X45 E4 F800 ; purge
G0 X48 Z0.05 F8000 ; wipe, move close to the bed
G0 X51 Z0.2 F8000 ; wipe, move quickly away from the bed

G92 E0
M221 S100 ; set flow to 100%
G21 ; set units to millimeters
G90 ; use absolute coordinates
M83 ; use relative distances for extrusion
M900 K0.04 ; Filament gcode



M142 S40 ; set heatbreak target temp
M107
;LAYER_CHANGE
;Z:0.28
;HEIGHT:0.28
;BEFORE_LAYER_CHANGE
G92 E0.0
;0.28


G1 E-.8 F2100
G1 Z.2 F7200
G1 Z.28
;AFTER_LAYER_CHANGE
;0.28
G1 Z.48
G1 X88.406 Y63.467
M73 P1 R9
G1 Z.28
G1 E.8 F1500
;TYPE:Skirt/Brim
;WIDTH:0.56
G1 F3000
G3 X90.379 Y62.411 I2.217 J1.772 E0.13359
G1 X159.676 Y62.415 E4.03273
G3 X162.241 Y65.031 I-0.348 J2.907 E0.23029
G1 X162.241 Y144.968 E4.65193
G3 X159.621 Y147.589 I-2.909 J-0.288 E0.23356
G1 X90.38 Y147.589 E4.02948
G1 X89.754 Y147.464 E.03715
M73 P2 R9
G3 X87.759 Y144.970 I0.939 J-2.796 E0.19632
G1 X87.759 Y65.032 E4.65199
G3 X88.372 Y63.517 I2.657 J0.193 E0.09646
G1 X88.777 Y63.804 F7200
G1 F3000
G3 X90.405 Y62.910 I1.848 J1.437 E0.11088
G1 X159.648 Y62.915 E4.02959
G3 X161.741 Y65.055 I-0.320 J2.407 E0.18769
G1 X161.741 Y144.944 E4.64914
G1 X161.646 Y145.423 E.02842
M73 P3 R9
G3 X159.595 Y147.090 I-2.326 J-0.766 E0.16240
G1 X90.405 Y147.09 E4.02651
G3 X88.259 Y144.944 I0.266 J-2.412 E0.19083
G1 X88.259 Y65.056 E4.64908
G3 X88.743 Y63.853 I2.166 J0.173 E0.07647
G1 X89.149 Y64.139 F7200
G1 F3000
G3 X90.429 Y63.410 I1.476 J1.104 E0.08794
G1 X159.62 Y63.415 E4.02657
G3 X161.241 Y65.081 I-0.293 J1.907 E0.14520
G1 X161.241 Y144.919 E4.64617
G1 X161.174 Y145.256 E.02
M73 P4 R9
G3 X159.571 Y146.590 I-1.850 J-0.593 E0.12805
G1 X90.429 Y146.59 E4.02371
G3 X88.759 Y144.919 I0.240 J-1.910 E0.14804
G1 X88.759 Y65.081 E4.64617
G1 X88.826 Y64.744 E.02
M73 P4 R8
G3 X89.116 Y64.189 I1.509 J0.435 E0.03662
G1 X89.52 Y64.475 F7200
G1 F3000
G3 X90.454 Y63.910 I1.110 J0.781 E0.06515
M73 P5 R8
G1 X159.592 Y63.915 E4.02348
G3 X160.741 Y65.105 I-0.267 J1.408 E0.10259
G1 X160.741 Y144.895 E4.64337
G3 X159.546 Y146.090 I-1.408 J-0.213 E0.10527
G1 X90.454 Y146.09 E4.0208
G3 X89.259 Y144.895 I0.213 J-1.408 E0.10526
G1 X89.259 Y65.105 E4.64337
G3 X89.486 Y64.525 I1.156 J0.118 E0.03660
G1 X89.891 Y64.811 F7200
G1 F3000
G3 X90.478 Y64.410 I0.779 J0.510 E0.04218
G1 X159.522 Y64.41 E4.01801
G1 X159.84 Y64.542 E.02004
M73 P6 R8
G3 X160.241 Y65.130 I-0.509 J0.778 E0.04223
G1 X160.241 Y144.87 E4.64046
G3 X159.522 Y145.590 I-0.910 J-0.190 E0.06227
G1 X90.478 Y145.59 E4.01801
G3 X89.759 Y144.870 I0.191 J-0.910 E0.06227
G1 X89.759 Y65.13 E4.64046
G1 X89.859 Y64.862 E.01665
G1 X90.297 Y65.112 F7200
G1 F3000
G3 X90.553 Y64.910 I0.371 J0.207 E0.01929
G1 X159.447 Y64.91 E4.00928
G3 X159.741 Y65.204 I-0.115 J0.409 E0.02508
M73 P7 R8
G1 X159.741 Y144.796 E4.63185
G3 X159.447 Y145.090 I-0.409 J-0.115 E0.02508
G1 X90.553 Y145.09 E4.00928
G3 X90.259 Y144.796 I0.115 J-0.409 E0.02508
G1 X90.259 Y65.204 E4.63185
G1 X90.274 Y65.168 E.00227
G1 E-.64 F2100
;WIPE_START
G1 F5760
G1 X90.461 Y64.948 E-.10001
G3 X90.627 Y64.910 I0.129 J0.182 E-0.05999
;WIPE_END
G1 Z.48 F7200
G1 X159.051 Y144.4
G1 Z.28
M73 P8 R8
G1 E.8 F1500
;TYPE:External perimeter
G1 F3000
G1 X90.949 Y144.4 E3.96319
G1 X90.949 Y65.6 E4.58576
G1 X159.051 Y65.6 E3.96319
G1 X159.051 Y144.34 E4.58227
G1 X158.668 Y144.287 F7200
G1 X158.552 Y143.9
;TYPE:Perimeter
G1 F3000
G1 X91.448 Y143.9 E3.90511
G1 X91.448 Y66.1 E4.52757
G1 X158.552 Y66.1 E3.90511
G1 X158.552 Y143.84 E4.52407
G1 X158.052 Y143.4 F7200
M73 P9 R8
G1 F3000
G1 X91.948 Y143.4 E3.84692
G1 X91.948 Y66.6 E4.46937
G1 X158.052 Y66.6 E3.84692
G1 X158.052 Y143.34 E4.46588
G1 E-.64 F2100
;WIPE_START
M73 P10 R8
G1 F5760
G1 X157.59 Y143.34 E-.16
;WIPE_END
G1 Z.48 F7200
G1 X154.762 Y72.231
G1 Z.28
G1 E.8 F1500
;TYPE:External perimeter
M73 P11 R8
G1 F3000
G3 X154.724 Y71.849 I-1.957 J0.002 E0.69180
G1 X154.756 Y72.171 E.01883
G1 X155.094 Y72.423 F7200
G1 X155.26 Y72.273
;TYPE:Perimeter
G1 F3000
G3 X155.077 Y71.290 I-2.454 J-0.052 E0.83896
G3 X155.262 Y72.214 I-2.211 J0.923 E0.05511
G1 X155.758 Y72.315 F7200
G1 F3000
G3 X155.267 Y70.586 I-2.949 J-0.097 E0.97461
G3 X155.764 Y72.256 I-2.434 J1.633 E0.10278
G1 E-.64 F2100
;WIPE_START
G1 F5760
G1 X155.718 Y72.716 E-.16
;WIPE_END
G1 Z.48 F7200
G1 X97.956 Y70.424
G1 Z.28
G1 E.8 F1500
;TYPE:External perimeter
G1 F3000
G3 X99.164 Y72.231 I-0.748 J1.807 E0.13392
M73 P12 R8
G3 X97.899 Y70.406 I-1.955 J0.004 E0.57673
G1 X98.259 Y70.187 F7200
G1 X98.108 Y69.947
;TYPE:Perimeter
G1 F3000
G3 X97.120 Y69.781 I-0.892 J2.289 E0.83881
G3 X98.051 Y69.930 I0.148 J2.058 E0.05522
G1 X98.26 Y69.471 F7200
G1 F3000
G3 X97.110 Y69.280 I-1.050 J2.764 E1.01255
G3 X98.203 Y69.454 I0.182 J2.375 E0.06484
G1 E-.64 F2100
;WIPE_START
G1 F5760
G3 X98.621 Y69.645 I-0.278 J1.162 E-0.16000
;WIPE_END
G1 Z.48 F7200
G1 X95.824 Y136.412
G1 Z.28
G1 E.8 F1500
;TYPE:External perimeter
G1 F3000
G3 X95.581 Y136.708 I1.383 J1.384 E0.69181
G1 X95.786 Y136.458 E.01881
G1 X95.725 Y136.041 F7200
G1 X95.442 Y136.089
;TYPE:Perimeter
G1 F3000
G3 X95.164 Y136.429 I1.753 J1.717 E0.87194
G1 X95.404 Y136.136 E.02204
G1 X95.06 Y135.767 F7200
G1 F3000
G3 X94.304 Y137.218 I2.144 J2.040 E0.98443
G3 X95.022 Y135.813 I2.681 J0.484 E0.09294
G1 E-.64 F2100
;WIPE_START
G1 F5760
G3 X95.360 Y135.500 I0.977 J0.716 E-0.16000
;WIPE_END
G1 Z.48 F7200
G1 X151.422 Y136.412
G1 Z.28
G1 E.8 F1500
;TYPE:External perimeter
G1 F3000
G3 X151.179 Y136.708 I1.383 J1.384 E0.69181
G1 X151.384 Y136.458 E.01881
G1 X151.323 Y136.041 F7200
G1 X151.099 Y136.03
;TYPE:Perimeter
G1 F3000
G3 X150.761 Y136.429 I1.693 J1.776 E0.86707
G1 X151.055 Y136.07 E.027
G1 X150.777 Y135.648 F7200
G1 F3000
G3 X150.070 Y136.662 I2.016 J2.159 E1.00838
G3 X150.731 Y135.686 I2.659 J1.089 E0.06897
G1 E-.64 F2100
;WIPE_START
G1 F5760
G1 X151.088 Y135.392 E-.16
;WIPE_END
G1 Z.48 F7200
G1 X157.852 Y67.811
G1 Z.28
G1 E.8 F1500
;TYPE:Solid infill
;WIDTH:0.560353
G1 F3000
G1 X157.065 Y67.025 E.06477
G1 X156.358 Y67.025 E.04117
G1 X157.627 Y68.294 E.10451
G1 X157.627 Y69.001 E.04117
G1 X155.65 Y67.025 E.16278
G1 X154.943 Y67.025 E.04117
G1 X157.627 Y69.709 E.22105
G1 X157.627 Y70.416 E.04117
M73 P13 R8
G1 X154.235 Y67.025 E.27932
G1 X153.528 Y67.025 E.04117
G1 X157.627 Y71.124 E.33759
G1 X157.627 Y71.831 E.04117
G1 X152.82 Y67.025 E.39585
G1 X152.113 Y67.025 E.04117
G1 X157.627 Y72.539 E.45412
G1 X157.627 Y73.246 E.04117
G1 X156.148 Y71.767 E.12181
G3 X156.167 Y72.494 I-1.829 J0.412 E0.04254
G1 X157.627 Y73.954 E.12024
G1 X157.627 Y74.661 E.04117
G1 X156.065 Y73.1 E.1286
G3 X155.883 Y73.625 I-1.405 J-0.193 E0.03246
G1 X157.627 Y75.369 E.14363
G1 X157.627 Y76.076 E.04117
G1 X155.637 Y74.086 E.16389
G1 X155.322 Y74.479 E.02933
G1 X157.627 Y76.783 E.18979
G1 X157.627 Y77.491 E.04123
G1 X154.96 Y74.824 E.21965
G3 X154.550 Y75.122 I-0.953 J-0.880 E0.02964
G1 X157.627 Y78.198 E.25337
G1 X157.627 Y78.906 E.04123
G1 X154.087 Y75.366 E.29155
G1 X153.544 Y75.53 E.03303
G1 X157.627 Y79.613 E.33627
G1 X157.627 Y80.321 E.04123
G1 X152.914 Y75.608 E.38815
G1 X152.805 Y75.619 E.00638
G1 X152.153 Y75.555 E.03815
G1 X157.852 Y81.253 E.46932
G1 E-.64 F2100
;WIPE_START
G1 F5760
G1 X157.525 Y80.926 E-.16
;WIPE_END
G1 Z.48 F7200
G1 X151.181 Y66.8
G1 Z.28
G1 E.8 F1500
G1 F3000
G1 X153.27 Y68.889 E.17205
G2 X152.542 Y68.869 I-0.424 J2.190 E0.04251
G1 X150.698 Y67.025 E.15187
G1 X149.991 Y67.025 E.04117
G1 X151.937 Y68.971 E.16027
G2 X151.411 Y69.153 I0.203 J1.437 E0.03251
G1 X149.283 Y67.025 E.17526
G1 X148.576 Y67.025 E.04117
G1 X150.95 Y69.4 E.19556
G1 X150.557 Y69.714 E.02929
G1 X147.868 Y67.025 E.22146
G1 X147.161 Y67.025 E.04117
G1 X150.212 Y70.076 E.25127
G2 X149.915 Y70.486 I0.876 J0.947 E0.02961
G1 X146.453 Y67.025 E.28508
G1 X145.746 Y67.025 E.04117
G1 X149.671 Y70.95 E.32326
G1 X149.506 Y71.493 E.03305
G1 X145.038 Y67.025 E.36798
G1 X144.331 Y67.025 E.04117
G1 X149.428 Y72.122 E.41978
G1 X149.417 Y72.231 E.00638
G1 X149.481 Y72.883 E.03815
G1 X143.623 Y67.025 E.48245
G1 X142.916 Y67.025 E.04117
G1 X157.627 Y81.736 E1.21157
G1 X157.627 Y82.443 E.04117
G1 X142.208 Y67.025 E1.26984
G1 X141.501 Y67.025 E.04117
G1 X157.627 Y83.151 E1.32811
G1 X157.627 Y83.858 E.04117
G1 X140.793 Y67.025 E1.38637
G1 X140.086 Y67.025 E.04117
G1 X157.627 Y84.566 E1.44464
G1 X157.627 Y85.273 E.04117
G1 X139.378 Y67.025 E1.50291
G1 X138.671 Y67.025 E.04117
G1 X157.627 Y85.981 E1.56118
G1 X157.627 Y86.688 E.04117
M73 P14 R8
G1 X137.963 Y67.025 E1.61945
G1 X137.256 Y67.025 E.04117
G1 X157.627 Y87.396 E1.67772
G1 X157.627 Y88.103 E.04117
G1 X136.548 Y67.025 E1.73599
G1 X135.841 Y67.025 E.04117
G1 X157.627 Y88.811 E1.79425
G1 X157.627 Y89.518 E.04117
G1 X135.133 Y67.025 E1.85252
G1 X134.426 Y67.025 E.04117
G1 X157.627 Y90.226 E1.91079
G1 X157.627 Y90.933 E.04117
G1 X133.719 Y67.025 E1.96902
G1 X133.011 Y67.025 E.04123
G1 X157.627 Y91.641 E2.02733
G1 X157.627 Y92.348 E.04117
G1 X132.304 Y67.025 E2.08555
G1 X131.596 Y67.025 E.04123
M73 P15 R8
G1 X157.627 Y93.056 E2.14386
G1 X157.627 Y93.763 E.04117
G1 X130.889 Y67.025 E2.20209
G1 X130.181 Y67.025 E.04123
M73 P15 R7
G1 X157.627 Y94.47 E2.26036
G1 X157.627 Y95.178 E.04123
G1 X129.474 Y67.025 E2.31863
G1 X128.766 Y67.025 E.04123
G1 X157.627 Y95.885 E2.3769
G1 X157.627 Y96.593 E.04123
G1 X128.059 Y67.025 E2.43516
G1 X127.351 Y67.025 E.04123
G1 X157.627 Y97.3 E2.49343
G1 X157.627 Y98.008 E.04123
G1 X126.644 Y67.025 E2.5517
G1 X125.936 Y67.025 E.04123
M73 P16 R7
G1 X157.627 Y98.715 E2.60997
G1 X157.627 Y99.423 E.04123
G1 X125.229 Y67.025 E2.66824
G1 X124.521 Y67.025 E.04123
G1 X157.627 Y100.13 E2.72651
G1 X157.627 Y100.838 E.04123
G1 X123.814 Y67.025 E2.78477
G1 X123.106 Y67.025 E.04123
G1 X157.627 Y101.545 E2.84304
G1 X157.627 Y102.253 E.04123
G1 X122.399 Y67.025 E2.90131
G1 X121.691 Y67.025 E.04123
M73 P17 R7
G1 X157.627 Y102.96 E2.95958
G1 X157.627 Y103.668 E.04123
G1 X120.984 Y67.025 E3.01785
G1 X120.276 Y67.025 E.04123
G1 X157.627 Y104.375 E3.07612
G1 X157.627 Y105.083 E.04123
G1 X119.569 Y67.025 E3.13438
G1 X118.861 Y67.025 E.04123
G1 X157.627 Y105.79 E3.19265
G1 X157.627 Y106.498 E.04123
G1 X118.154 Y67.025 E3.25092
G1 X117.446 Y67.025 E.04123
M73 P18 R7
G1 X157.627 Y107.205 E3.30919
G1 X157.627 Y107.913 E.04123
G1 X116.739 Y67.025 E3.36746
G1 X116.032 Y67.025 E.04117
G1 X157.627 Y108.62 E3.42568
G1 X157.627 Y109.328 E.04123
G1 X115.324 Y67.025 E3.48399
G1 X114.617 Y67.025 E.04117
G1 X157.627 Y110.035 E3.54222
G1 X157.627 Y110.743 E.04123
M73 P19 R7
G1 X113.909 Y67.025 E3.60053
G1 X113.202 Y67.025 E.04117
G1 X157.627 Y111.45 E3.65876
G1 X157.627 Y112.157 E.04117
G1 X112.494 Y67.025 E3.71703
G1 X111.787 Y67.025 E.04117
G1 X157.627 Y112.865 E3.77529
G1 X157.627 Y113.572 E.04117
M73 P20 R7
G1 X111.079 Y67.025 E3.83356
G1 X110.372 Y67.025 E.04117
G1 X157.627 Y114.28 E3.89183
G1 X157.627 Y114.987 E.04117
G1 X109.664 Y67.025 E3.9501
G1 X108.957 Y67.025 E.04117
G1 X157.627 Y115.695 E4.00837
G1 X157.627 Y116.402 E.04117
G1 X108.249 Y67.025 E4.06664
G1 X107.542 Y67.025 E.04117
M73 P21 R7
G1 X157.627 Y117.11 E4.1249
G1 X157.627 Y117.817 E.04117
G1 X106.834 Y67.025 E4.18317
G1 X106.127 Y67.025 E.04117
G1 X157.627 Y118.525 E4.24144
G1 X157.627 Y119.232 E.04117
G1 X105.419 Y67.025 E4.29971
G1 X104.712 Y67.025 E.04117
M73 P22 R7
G1 X157.627 Y119.94 E4.35798
G1 X157.627 Y120.647 E.04117
G1 X104.004 Y67.025 E4.41625
G1 X103.297 Y67.025 E.04117
G1 X157.627 Y121.355 E4.47452
G1 X157.627 Y122.062 E.04117
M73 P23 R7
G1 X102.589 Y67.025 E4.53278
G1 X101.882 Y67.025 E.04117
G1 X157.627 Y122.77 E4.59105
G1 X157.627 Y123.477 E.04117
G1 X101.174 Y67.025 E4.64932
G1 X100.467 Y67.025 E.04117
G1 X157.627 Y124.185 E4.70759
G1 X157.627 Y124.892 E.04117
M73 P24 R7
G1 X99.759 Y67.025 E4.76586
G1 X99.052 Y67.025 E.04117
G1 X157.627 Y125.6 E4.82413
G1 X157.627 Y126.307 E.04117
G1 X98.345 Y67.025 E4.88235
G1 X97.637 Y67.025 E.04123
G1 X157.627 Y127.015 E4.94066
G1 X157.627 Y127.722 E.04117
M73 P25 R7
G1 X96.93 Y67.025 E4.99889
G1 X96.222 Y67.025 E.04123
G1 X98.209 Y69.011 E.1636
G1 X98.504 Y69.101 E.01796
M73 P25 R6
G3 X99.603 Y69.835 I-1.293 J3.125 E0.07734
M73 P26 R6
G3 X100.428 Y71.230 I-2.226 J2.258 E0.09538
G1 X157.627 Y128.43 E4.71084
G1 X157.627 Y129.137 E.04117
G1 X100.582 Y72.092 E4.69812
G3 X100.544 Y72.761 I-1.685 J0.240 E0.03915
G1 X157.627 Y129.844 E4.70125
G1 X157.627 Y130.552 E.04123
G1 X100.399 Y73.325 E4.71315
G3 X100.184 Y73.816 I-1.324 J-0.287 E0.03136
M73 P27 R6
G1 X157.627 Y131.259 E4.7309
G1 X157.627 Y131.967 E.04123
G1 X99.911 Y74.252 E4.75334
G1 X99.59 Y74.638 E.02924
G1 X157.627 Y132.674 E4.77978
G1 X157.627 Y133.382 E.04123
G1 X99.202 Y74.957 E4.81177
G3 X98.761 Y75.224 I-0.911 J-1.006 E0.03013
G1 X157.627 Y134.089 E4.84805
M73 P28 R6
G1 X157.627 Y134.797 E.04123
G1 X98.264 Y75.434 E4.88902
G3 X97.694 Y75.571 I-0.626 J-1.351 E0.03428
G1 X157.627 Y135.504 E4.93597
G1 X157.627 Y136.212 E.04123
M73 P29 R6
G1 X96.764 Y75.349 E5.01256
G1 E-.64 F2100
;WIPE_START
G1 F5760
G1 X97.091 Y75.676 E-.16
;WIPE_END
G1 Z.48 F7200
G1 X97.599 Y69.11
G1 Z.28
G1 E.8 F1500
M73 P30 R6
G1 F3000
G1 X95.515 Y67.025 E.17168
G1 X94.807 Y67.025 E.04123
G1 X96.678 Y68.895 E.15405
G2 X96.114 Y69.039 I0.083 J1.501 E0.03401
G1 X94.1 Y67.025 E.16587
G1 X93.392 Y67.025 E.04123
G1 X95.623 Y69.255 E.1837
G2 X95.187 Y69.528 I0.472 J1.238 E0.03009
G1 X92.685 Y67.025 E.2061
G1 X92.373 Y67.025 E.01817
G1 X92.373 Y67.421 E.02306
G1 X94.801 Y69.849 E.19997
G1 X94.482 Y70.237 E.02925
G1 X92.373 Y68.128 E.17369
G1 X92.373 Y68.836 E.04123
G1 X94.215 Y70.678 E.1517
G2 X94.005 Y71.175 I1.157 J0.782 E0.03157
G1 X92.373 Y69.543 E.13441
G1 X92.373 Y70.251 E.04123
G1 X93.868 Y71.745 E.12308
G2 X93.839 Y72.424 I1.690 J0.412 E0.03973
G1 X92.373 Y70.958 E.12074
G1 X92.373 Y71.666 E.04123
G1 X94.009 Y73.302 E.13474
G2 X96.137 Y75.430 I3.102 J-0.974 E0.18218
G1 X157.627 Y136.919 E5.06416
G1 X157.627 Y137.627 E.04123
G1 X92.373 Y72.373 E5.37419
G1 X92.373 Y73.081 E.04123
G1 X153.895 Y134.602 E5.06679
