; generated by PrusaSlicer 2.6.0+win64 on 2025-10-27 at 19:37:19 UTC
; Postprocessed by [ArcWelder](https://github.com/FormerLurker/ArcWelderLib)
; Copyright(C) 2021 - Brad Hochgesang
; Version: 1.2.0, Branch: HEAD, BuildDate: 2021-11-21T20:25:43Z
; resolution=0.05mm
; path_tolerance=5.0%
; max_radius=9999.00mm
; default_xyz_precision=3
; default_e_precision=5
; extrusion_rate_variance_percent=5.0%














; 

; external perimeters extrusion width = 0.42mm
; perimeters extrusion width = 0.45mm
; infill extrusion width = 0.45mm
; solid infill extrusion width = 0.50mm
; top infill extrusion width = 0.42mm
; support material extrusion width = 0.42mm
; first layer extrusion width = 0.56mm

; external perimeters extrusion width = 0.42mm
; perimeters extrusion width = 0.45mm
; infill extrusion width = 0.45mm
; solid infill extrusion width = 0.50mm
; top infill extrusion width = 0.42mm
; support material extrusion width = 0.42mm
; first layer extrusion width = 0.56mm

M73 P0 R110
M201 X2500 Y2500 Z200 E2500 ; sets maximum accelerations, mm/sec^2
M203 X200 Y200 Z40 E100 ; sets maximum feedrates, mm / sec
M204 P2000 R1200 T2000 ; sets acceleration (P, T) and retract acceleration (R), mm/sec^2
M205 X8.00 Y8.00 Z2.00 E10.00 ; sets the jerk limits, mm/sec
M205 S0 T0 ; sets the minimum extruding and travel feed rate, mm/sec
;TYPE:Custom
M17 ; enable steppers
M862.3 P "MK4" ; printer model check
M862.1 P0.4 ; nozzle diameter check
M115 U5.0.1+12089

M555 X76.681 Y62.1652 W114.854 H76.1242

G90 ; use absolute coordinates
M83 ; extruder relative mode

M140 S55 ; set bed temp

M104 S170 ; set extruder temp for bed leveling
M109 R170 ; wait for temp


M84 E ; turn off E motor

G28 ; home all without mesh bed level

G1 X42 Y-4 Z5 F4800

M302 S160 ; lower cold extrusion limit to 160C


G1 E-2 F2400 ; retraction


M84 E ; turn off E motor

G29 P9 X10 Y-4 W32 H4

M106 S100

G0 Z40 F10000

M190 S55 ; wait for bed temp

M107


; MBL

M84 E ; turn off E motor
G29 P1 ; invalidate mbl & probe print area
G29 P1 X0 Y0 W50 H20 C ; probe near purge place
G29 P3.2 ; interpolate mbl probes
G29 P3.13 ; extrapolate mbl outside probe area
G29 A ; activate mbl

; prepare for purge
M104 S205
G0 X0 Y-4 Z15 F4800 ; move away and ready for the purge
M109 S205

G92 E0
M569 S0 E ; set spreadcycle mode for extruder


; Extrude purge line

G92 E0 ; reset extruder position
G1 E2 F2400 ; deretraction after the initial one before nozzle cleaning
G0 E7 X15 Z0.2 F500 ; purge
G0 X25 E4 F500 ; purge
G0 X35 E4 F650 ; purge
G0 X45 E4 F800 ; purge
G0 X48 Z0.05 F8000 ; wipe, move close to the bed
G0 X51 Z0.2 F8000 ; wipe, move quickly away from the bed

G92 E0
M221 S100 ; set flow to 100%
G21 ; set units to millimeters
G90 ; use absolute coordinates
M83 ; use relative distances for extrusion
M900 K0.04 ; Filament gcode



M142 S40 ; set heatbreak target temp
M107
;LAYER_CHANGE
;Z:0.28
;HEIGHT:0.28
;BEFORE_LAYER_CHANGE
G92 E0.0
;0.28


G1 E-.8 F2100
G1 Z.2 F7200
G1 Z.28
;AFTER_LAYER_CHANGE
;0.28
G1 Z.48
G1 X85.706 Y104.04
G1 Z.28
G1 E.8 F1500
;TYPE:Skirt/Brim
;WIDTH:0.56
G1 F3000
G3 X87.275 Y103.386 I1.797 J2.103 E0.10040
G1 X122.795 Y103.386 E2.06708
G1 X129.304 Y87.458 E1.00134
G1 X129.304 Y74.985 E.72587
G1 X129.624 Y73.888 E.0665
G3 X130.005 Y73.317 I1.823 J0.804 E0.04006
G1 X135.926 Y67.174 E.49652
G1 X136.625 Y66.701 E.04912
G3 X137.722 Y66.416 I1.261 J2.602 E0.06629
G1 X145.146 Y66.424 E.43204
G3 X146.889 Y67.372 I-0.363 J2.744 E0.11781
G1 X147.486 Y68.379 E.06813
G3 X147.641 Y69.461 I-2.761 J0.948 E0.06389
G1 X147.477 Y70.264 E.0477
G1 X144.957 Y75.422 E.33408
G1 X144.49 Y79.302 E.22743
G1 X145.353 Y83.584 E.2542
G1 X147.676 Y86.857 E.23357
G1 X150.978 Y89.206 E.23582
G1 X155.862 Y90.096 E.2889
G1 X160.746 Y89.206 E.2889
G1 X164.049 Y86.857 E.23587
G1 X166.371 Y83.584 E.23354
G1 X167.235 Y79.302 E.25421
G1 X166.767 Y75.42 E.22755
G1 X164.2 Y70.125 E.34244
G3 X164.291 Y68.250 I2.700 J-0.809 E0.11115
G1 X164.744 Y67.487 E.05164
G1 X165.284 Y66.949 E.04436
G1 X165.967 Y66.578 E.04523
G1 X166.649 Y66.416 E.04079
G1 X174.002 Y66.416 E.42791
G1 X174.609 Y66.517 E.03581
G1 X175.633 Y67.03 E.06665
G1 X180.441 Y71.415 E.37869
G1 X180.811 Y71.874 E.03431
G1 X181.198 Y72.735 E.05493
G1 X182.487 Y79.454 E.39814
G1 X182.515 Y84.563 E.29732
G1 X183.375 Y90.846 E.36905
G3 X185.856 Y93.457 I-0.440 J2.902 E0.22545
G1 X185.865 Y128.979 E2.0672
G3 X183.245 Y131.601 I-2.912 J-0.289 E0.23357
G1 X173.63 Y131.601 E.55954
G3 X171.011 Y128.981 I0.290 J-2.909 E0.23342
G1 X171.011 Y105.107 E1.38935
G1 X155.511 Y100.041 E.94898
G1 X140.215 Y101.242 E.89289
G1 X133.188 Y115.65 E.93288
G1 X132.538 Y116.4 E.05776
G1 X132.371 Y116.524 E.0121
G1 X131.604 Y116.917 E.05015
G1 X130.922 Y117.054 E.04048
G1 X101.475 Y117.054 E1.71367
G1 X92.981 Y136.568 E1.23853
G3 X91.811 Y137.714 I-2.566 J-1.449 E0.09647
G1 X90.711 Y138.039 E.06675
G1 X87.115 Y138.023 E.20927
G3 X84.650 Y135.419 I0.457 J-2.901 E0.22442
G1 X84.655 Y106.007 E1.71163
G3 X85.663 Y104.082 I2.793 J0.236 E0.12962
G1 X86.017 Y104.436 F7200
G1 F3000
G3 X87.301 Y103.886 I1.480 J1.681 E0.08256
G1 X123.131 Y103.886 E2.08512
G1 X129.804 Y87.556 E1.02661
G1 X129.804 Y75.023 E.72936
G1 X130.096 Y74.053 E.05895
G1 X130.378 Y73.65 E.02862
G1 X136.268 Y67.539 E.49393
G3 X137.742 Y66.916 I1.618 J1.773 E0.09470
G1 X145.112 Y66.924 E.4289
G3 X146.522 Y67.712 I-0.326 J2.239 E0.09587
G1 X147.011 Y68.537 E.05581
G3 X147.014 Y70.073 I-2.165 J0.772 E0.09090
G1 X144.471 Y75.278 E.33712
G1 X143.984 Y79.322 E.23704
G1 X144.884 Y83.787 E.26507
G1 X147.317 Y87.215 E.24463
G1 X150.779 Y89.677 E.24722
G1 X155.862 Y90.604 E.30068
G1 X160.945 Y89.677 E.30068
G1 X164.408 Y87.215 E.24727
G1 X166.84 Y83.787 E.2446
G1 X167.741 Y79.322 E.26508
G1 X167.254 Y75.278 E.23704
G1 X164.665 Y69.938 E.34536
G3 X164.739 Y68.475 I2.250 J-0.620 E0.08656
G1 X165.158 Y67.768 E.04783
G3 X166.680 Y66.916 I1.780 J1.394 E0.10393
G1 X173.98 Y66.916 E.42482
G1 X174.487 Y67.003 E.02994
G1 X175.321 Y67.423 E.05434
G1 X180.092 Y71.773 E.37573
G1 X180.371 Y72.114 E.02564
G1 X180.713 Y72.859 E.04771
G1 X181.991 Y79.526 E.39505
G1 X182.015 Y84.599 E.29523
G1 X182.937 Y91.334 E.3956
G3 X185.356 Y93.482 I0.035 J2.396 E0.20674
G1 X185.365 Y128.955 E2.06435
G3 X183.219 Y131.101 I-2.412 J-0.266 E0.19082
G1 X173.656 Y131.101 E.55652
G3 X171.510 Y128.956 I0.267 J-2.413 E0.19076
G1 X171.51 Y104.744 E1.40902
G1 X155.571 Y99.535 E.97585
G1 X139.891 Y100.766 E.9153
G1 X132.753 Y115.4 E.94753
G1 X132.214 Y116.019 E.04777
G1 X132.117 Y116.093 E.0071
G1 X131.466 Y116.436 E.04282
G1 X130.896 Y116.554 E.03387
G1 X101.148 Y116.554 E1.73118
G1 X92.529 Y136.354 E1.2567
G3 X91.576 Y137.269 I-2.085 J-1.218 E0.07778
G1 X90.675 Y137.539 E.05474
G1 X87.196 Y137.529 E.20246
G3 X85.150 Y135.393 I0.372 J-2.405 E0.18500
G1 X85.155 Y106.031 E1.70872
G3 X85.974 Y104.478 I2.268 J0.203 E0.10471
G1 X86.328 Y104.832 F7200
G1 F3000
G3 X87.325 Y104.386 I1.166 J1.270 E0.06461
G1 X123.467 Y104.386 E2.10328
G1 X130.304 Y87.654 E1.05187
G1 X130.304 Y75.063 E.73273
G1 X130.555 Y74.26 E.04896
G1 X130.751 Y73.983 E.01975
G1 X136.61 Y67.904 E.49133
G3 X137.764 Y67.416 I1.279 J1.417 E0.07412
G1 X145.075 Y67.424 E.42546
G3 X146.152 Y68.049 I-0.293 J1.746 E0.07385
G1 X146.537 Y68.699 E.04396
G3 X146.551 Y69.882 I-1.688 J0.612 E0.06998
G1 X143.985 Y75.135 E.34022
G1 X143.478 Y79.342 E.2466
G1 X144.415 Y83.99 E.27593
G1 X146.958 Y87.573 E.25569
G1 X150.58 Y90.149 E.25865
G1 X155.862 Y91.112 E.31245
G1 X161.144 Y90.149 E.31245
G1 X164.766 Y87.573 E.25865
G1 X167.309 Y83.99 E.25569
G1 X168.247 Y79.342 E.27594
G1 X167.74 Y75.135 E.2466
G1 X165.132 Y69.756 E.34788
G3 X165.187 Y68.699 I1.833 J-0.435 E0.06234
G1 X165.572 Y68.05 E.04391
G3 X166.714 Y67.416 I1.367 J1.117 E0.07769
G1 X173.957 Y67.416 E.42151
G1 X174.362 Y67.488 E.02394
G1 X175.009 Y67.815 E.04219
G1 X179.741 Y72.13 E.37268
G1 X179.963 Y72.403 E.02048
G1 X180.228 Y72.983 E.03711
G1 X181.496 Y79.597 E.39191
G1 X181.515 Y84.633 E.29307
G1 X182.501 Y91.838 E.4232
G1 X183.238 Y91.841 E.04289
G3 X184.856 Y93.506 I-0.287 J1.898 E0.14495
G1 X184.865 Y128.93 E2.0615
G3 X183.195 Y130.601 I-1.910 J-0.239 E0.14805
G1 X173.681 Y130.601 E.55367
G3 X172.010 Y128.931 I0.239 J-1.910 E0.14803
G1 X172.01 Y104.382 E1.42863
G1 X155.632 Y99.029 E1.00273
G1 X139.567 Y100.29 E.93778
G1 X132.319 Y115.15 E.96216
G1 X131.884 Y115.643 E.03826
G1 X131.322 Y115.955 E.03741
G1 X130.868 Y116.054 E.02704
G1 X100.82 Y116.054 E1.74864
G1 X92.078 Y136.137 E1.27465
G3 X91.329 Y136.833 I-1.638 J-1.012 E0.06014
G1 X90.639 Y137.039 E.04191
G1 X87.274 Y137.034 E.19583
G3 X85.650 Y135.368 I0.288 J-1.906 E0.14536
G1 X85.655 Y106.056 E1.70581
G3 X86.285 Y104.874 I1.745 J0.171 E0.07985
G1 X86.639 Y105.228 F7200
G1 F3000
G3 X87.350 Y104.886 I0.850 J0.858 E0.04673
G1 X123.803 Y104.886 E2.12138
G1 X130.804 Y87.753 E1.07708
G1 X130.804 Y75.1 E.73634
G1 X130.987 Y74.514 E.03573
G1 X131.126 Y74.315 E.01413
G1 X136.953 Y68.269 E.48866
G3 X137.783 Y67.915 I0.935 J1.042 E0.05333
G1 X145.038 Y67.923 E.4222
G3 X145.743 Y68.339 I-0.265 J1.254 E0.04835
G1 X146.066 Y68.87 E.03617
G3 X146.088 Y69.691 I-1.209 J0.443 E0.04853
G1 X143.498 Y74.991 E.34329
G1 X142.972 Y79.362 E.25621
G1 X143.946 Y84.193 E.2868
G1 X146.6 Y87.932 E.26683
G1 X150.381 Y90.621 E.27001
G1 X155.862 Y91.62 E.32422
G1 X161.343 Y90.621 E.32422
G1 X165.125 Y87.932 E.27005
G1 X167.779 Y84.193 E.26683
G1 X168.753 Y79.362 E.2868
G1 X168.226 Y74.991 E.25621
G1 X165.618 Y69.635 E.34668
G3 X165.658 Y68.870 I1.274 J-0.317 E0.04513
G1 X165.983 Y68.335 E.03643
G3 X166.745 Y67.915 I0.962 J0.844 E0.05153
G1 X173.932 Y67.915 E.41825
G3 X174.697 Y68.207 I-0.119 J1.461 E0.04811
G1 X179.389 Y72.485 E.36951
G3 X179.742 Y73.106 I-1.048 J1.007 E0.04187
G1 X181.001 Y79.668 E.38884
G1 X181.015 Y84.668 E.29098
G1 X182.065 Y92.335 E.45035
G1 X183.206 Y92.341 E.0664
G3 X184.356 Y93.531 I-0.255 J1.397 E0.10267
G1 X184.365 Y128.906 E2.05865
G3 X183.170 Y130.101 I-1.408 J-0.213 E0.10526
G1 X173.705 Y130.101 E.55082
G3 X172.510 Y128.906 I0.215 J-1.410 E0.10525
G1 X172.51 Y104.019 E1.4483
G1 X155.692 Y98.522 E1.02968
G1 X139.243 Y99.814 E.9602
G1 X131.886 Y114.898 E.97666
G3 X130.838 Y115.554 I-1.195 J-0.744 E0.07414
G1 X100.493 Y115.554 E1.76593
G1 X91.629 Y135.916 E1.29238
G3 X90.602 Y136.539 I-1.189 J-0.802 E0.07186
G1 X87.345 Y136.539 E.18954
G3 X86.150 Y135.344 I0.213 J-1.408 E0.10526
G1 X86.155 Y106.081 E1.70296
G3 X86.596 Y105.270 I1.224 J0.140 E0.05499
G1 X86.95 Y105.624 F7200
G1 F3000
G3 X87.374 Y105.386 I0.510 J0.412 E0.02880
G1 X124.138 Y105.386 E2.13948
G1 X131.303 Y87.851 E1.10235
G1 X131.303 Y75.139 E.73977
G3 X131.501 Y74.646 I0.922 J0.084 E0.03118
G1 X137.295 Y68.634 E.4859
G3 X137.807 Y68.415 I0.596 J0.685 E0.03286
G1 X144.947 Y68.415 E.41551
G3 X145.337 Y68.631 I-0.173 J0.772 E0.02617
G1 X145.602 Y69.055 E.0291
G3 X145.625 Y69.500 I-0.756 J0.262 E0.02616
G1 X143.012 Y74.848 E.34639
G1 X142.466 Y79.382 E.26576
G1 X143.477 Y84.395 E.2976
G1 X146.241 Y88.29 E.27794
G1 X150.182 Y91.093 E.28144
G1 X155.862 Y92.128 E.33599
G1 X161.543 Y91.093 E.33605
G1 X165.484 Y88.29 E.28144
G1 X168.248 Y84.395 E.27794
G1 X169.259 Y79.382 E.2976
G1 X168.712 Y74.848 E.26577
G1 X166.1 Y69.5 E.34636
G3 X166.123 Y69.055 I0.753 J-0.184 E0.02617
G1 X166.388 Y68.631 E.0291
G3 X166.777 Y68.415 I0.555 J0.541 E0.02611
G1 X173.906 Y68.415 E.41487
G3 X174.386 Y68.599 I-0.102 J0.983 E0.03016
G1 X179.04 Y72.844 E.36658
G3 X179.258 Y73.233 I-0.671 J0.631 E0.02610
G1 X180.505 Y79.739 E.38551
G1 X180.516 Y84.703 E.28888
G1 X181.629 Y92.836 E.47771
G1 X183.185 Y92.846 E.09055
G3 X183.856 Y93.556 I-0.242 J0.901 E0.05947
G1 X183.856 Y128.93 E2.05859
G3 X183.146 Y129.601 I-0.904 J-0.245 E0.05945
G1 X173.73 Y129.601 E.54796
G3 X173.010 Y128.881 I0.190 J-0.910 E0.06232
G1 X173.01 Y103.657 E1.46791
G1 X155.752 Y98.016 E1.05662
G1 X138.919 Y99.338 E.98261
G1 X131.451 Y114.648 E.99131
G3 X130.805 Y115.054 I-0.758 J-0.490 E0.04564
G1 X100.165 Y115.054 E1.78309
G1 X91.195 Y135.66 E1.30786
G3 X90.566 Y136.039 I-0.753 J-0.538 E0.04382
G1 X87.321 Y136.03 E.18884
G3 X86.650 Y135.320 I0.245 J-0.904 E0.05945
G1 X86.655 Y106.105 E1.70017
M73 P0 R109
G3 X86.907 Y105.666 I0.674 J0.095 E0.02999
G1 X87.261 Y106.02 F7200
G1 F3000
G3 X87.449 Y105.886 I0.255 J0.159 E0.01369
G1 X124.474 Y105.886 E2.15467
G1 X131.803 Y87.949 E1.12762
G1 X131.803 Y75.178 E.74321
G1 X131.859 Y75.006 E.01053
G1 X137.638 Y68.999 E.48509
G1 X137.835 Y68.915 E.01246
G1 X144.851 Y68.915 E.4083
G1 X144.964 Y68.978 E.00753
G1 X145.126 Y69.238 E.01783
G1 X145.133 Y69.367 E.00752
G1 X142.526 Y74.704 E.34566
G1 X141.96 Y79.403 E.27543
G1 X143.008 Y84.598 E.30841
G1 X145.882 Y88.648 E.289
G1 X149.983 Y91.565 E.29287
G1 X155.862 Y92.636 E.34776
G1 X161.742 Y91.565 E.34782
G1 X165.842 Y88.648 E.29282
G1 X168.717 Y84.598 E.28904
G1 X169.765 Y79.403 E.30841
G1 X169.199 Y74.704 E.27543
G1 X166.591 Y69.367 E.34569
G1 X166.598 Y69.238 E.00752
G1 X166.761 Y68.978 E.01786
G1 X166.874 Y68.915 E.00753
G1 X173.921 Y68.922 E.4101
G1 X174.079 Y68.996 E.01015
G1 X178.687 Y73.198 E.36292
G1 X178.773 Y73.36 E.01067
G1 X180.01 Y79.81 E.3822
G1 X180.016 Y84.737 E.28673
G1 X181.193 Y93.336 E.50508
G1 X183.062 Y93.336 E.10877
G3 X183.356 Y93.630 I-0.115 J0.409 E0.02508
G1 X183.365 Y128.807 E2.04712
G3 X183.071 Y129.101 I-0.409 J-0.115 E0.02508
G1 X173.804 Y129.101 E.53929
G3 X173.510 Y128.807 I0.115 J-0.409 E0.02508
G1 X173.51 Y103.294 E1.48473
G1 X155.813 Y97.51 E1.08349
G1 X138.594 Y98.862 E1.00514
G1 X131.017 Y114.397 E1.00586
G3 X130.766 Y114.555 I-0.340 J-0.261 E0.01756
G1 X99.837 Y114.555 E1.79991
G1 X90.788 Y135.37 E1.32084
G3 X90.530 Y135.539 I-0.343 J-0.243 E0.01830
G1 X87.444 Y135.539 E.17959
G3 X87.150 Y135.245 I0.115 J-0.409 E0.02508
G1 X87.155 Y106.18 E1.69144
G1 X87.218 Y106.062 E.00778
G1 E-.64 F2100
;WIPE_START
G1 F5760
G3 X87.616 Y105.886 I0.315 J0.173 E-0.16000
;WIPE_END
G1 Z.48 F7200
G1 X136.914 Y112.028
G1 Z.28
G1 E.8 F1500
G1 F3000
G3 X139.309 Y109.426 I2.927 J0.291 E0.22079
G1 X144.487 Y109.413 E.30133
G3 X145.773 Y109.840 I-0.262 J2.939 E0.07939
G1 X148.36 Y111.687 E.18498
G1 X153.154 Y111.687 E.27899
G1 X155.774 Y109.816 E.18736
G1 X156.867 Y109.43 E.06746
G1 X156.986 Y109.413 E.007
G1 X162.13 Y109.418 E.29935
G3 X164.588 Y112.022 I-0.453 J2.890 E0.22412
G1 X164.588 Y135.325 E1.35612
G3 X162.124 Y137.929 I-2.912 J-0.288 E0.22445
G1 X157.077 Y137.94 E.29371
G1 X156.508 Y137.839 E.03363
G1 X155.697 Y137.481 E.05159
G1 X153.117 Y135.547 E.18764
G1 X148.397 Y135.547 E.27468
G1 X145.825 Y137.474 E.18703
G3 X144.649 Y137.918 I-1.684 J-2.682 E0.07351
G1 X139.432 Y137.936 E.3036
G3 X136.914 Y135.326 I0.391 J-2.897 E0.22754
G1 X136.914 Y112.088 E1.35233
G1 X137.413 Y112.088 F7200
G1 F3000
G3 X139.398 Y109.918 I2.426 J0.227 E0.18383
G1 X144.462 Y109.913 E.2947
G3 X145.503 Y110.261 I-0.233 J2.428 E0.06428
G1 X148.2 Y112.187 E.19286
G1 X153.314 Y112.187 E.29761
G1 X156.034 Y110.244 E.19453
G1 X157.009 Y109.913 E.05992
G1 X162.047 Y109.911 E.29319
G3 X164.088 Y112.046 I-0.369 J2.396 E0.18471
G1 X164.088 Y135.3 E1.35326
G3 X162.042 Y137.435 I-2.408 J-0.260 E0.18504
G1 X157.097 Y137.44 E.28777
G1 X156.678 Y137.369 E.02473
G1 X155.973 Y137.062 E.04475
G1 X153.283 Y135.047 E.19559
G1 X148.23 Y135.047 E.29406
G1 X145.546 Y137.058 E.19517
G3 X144.560 Y137.426 I-1.390 J-2.219 E0.06155
G1 X139.506 Y137.441 E.29412
G3 X137.413 Y135.300 I0.313 J-2.399 E0.18774
G1 X137.413 Y112.148 E1.34733
G1 X137.913 Y112.148 F7200
G1 F3000
G3 X139.484 Y110.411 I1.919 J0.156 E0.14666
G1 X144.438 Y110.413 E.2883
G3 X145.234 Y110.684 I-0.203 J1.901 E0.04922
G1 X148.039 Y112.687 E.20058
G1 X153.474 Y112.687 E.31629
G1 X156.294 Y110.673 E.20167
G1 X157.071 Y110.413 E.04768
G1 X161.968 Y110.406 E.28498
G3 X163.588 Y112.071 I-0.283 J1.896 E0.14511
G1 X163.588 Y135.275 E1.35036
G3 X161.965 Y136.941 I-1.906 J-0.233 E0.14533
G1 X157.153 Y136.944 E.28003
G1 X156.842 Y136.895 E.01832
G1 X156.248 Y136.644 E.03753
G1 X153.45 Y134.547 E.20348
G1 X148.064 Y134.547 E.31344
G1 X145.268 Y136.642 E.20332
G3 X144.477 Y136.932 I-1.087 J-1.741 E0.04928
G1 X139.534 Y136.941 E.28766
M73 P1 R109
