; generated by PrusaSlicer 2.6.0+win64 on 2025-10-26 at 09:47:12 UTC
; Postprocessed by [ArcWelder](https://github.com/FormerLurker/ArcWelderLib)
; Copyright(C) 2021 - Brad Hochgesang
; Version: 1.2.0, Branch: HEAD, BuildDate: 2021-11-21T20:25:43Z
; resolution=0.05mm
; path_tolerance=5.0%
; max_radius=9999.00mm
; default_xyz_precision=3
; default_e_precision=5
; extrusion_rate_variance_percent=5.0%














; 

; external perimeters extrusion width = 0.42mm
; perimeters extrusion width = 0.45mm
; infill extrusion width = 0.45mm
; solid infill extrusion width = 0.50mm
; top infill extrusion width = 0.42mm
; support material extrusion width = 0.42mm
; first layer extrusion width = 0.56mm

; external perimeters extrusion width = 0.42mm
; perimeters extrusion width = 0.45mm
; infill extrusion width = 0.45mm
; solid infill extrusion width = 0.50mm
; top infill extrusion width = 0.42mm
; support material extrusion width = 0.42mm
; first layer extrusion width = 0.56mm

; external perimeters extrusion width = 0.42mm
; perimeters extrusion width = 0.45mm
; infill extrusion width = 0.45mm
; solid infill extrusion width = 0.50mm
; top infill extrusion width = 0.42mm
; support material extrusion width = 0.42mm
; first layer extrusion width = 0.56mm

M73 P0 R89
M201 X2500 Y2500 Z200 E2500 ; sets maximum accelerations, mm/sec^2
M203 X200 Y200 Z40 E100 ; sets maximum feedrates, mm / sec
M204 P2000 R1200 T2000 ; sets acceleration (P, T) and retract acceleration (R), mm/sec^2
M205 X8.00 Y8.00 Z2.00 E10.00 ; sets the jerk limits, mm/sec
M205 S0 T0 ; sets the minimum extruding and travel feed rate, mm/sec
;TYPE:Custom
M17 ; enable steppers
M862.3 P "MK4" ; printer model check
M862.1 P0.4 ; nozzle diameter check
M115 U5.0.1+12089

M555 X71.3209 Y55.5965 W113.573 H81.3618

G90 ; use absolute coordinates
M83 ; extruder relative mode

M140 S55 ; set bed temp

M104 S170 ; set extruder temp for bed leveling
M109 R170 ; wait for temp


M84 E ; turn off E motor

G28 ; home all without mesh bed level

G1 X42 Y-4 Z5 F4800

M302 S160 ; lower cold extrusion limit to 160C


G1 E-2 F2400 ; retraction


M84 E ; turn off E motor

G29 P9 X10 Y-4 W32 H4

M106 S100

G0 Z40 F10000

M190 S55 ; wait for bed temp

M107


; MBL

M84 E ; turn off E motor
G29 P1 ; invalidate mbl & probe print area
G29 P1 X0 Y0 W50 H20 C ; probe near purge place
G29 P3.2 ; interpolate mbl probes
G29 P3.13 ; extrapolate mbl outside probe area
G29 A ; activate mbl

; prepare for purge
M104 S205
G0 X0 Y-4 Z15 F4800 ; move away and ready for the purge
M109 S205

G92 E0
M569 S0 E ; set spreadcycle mode for extruder


; Extrude purge line

G92 E0 ; reset extruder position
G1 E2 F2400 ; deretraction after the initial one before nozzle cleaning
G0 E7 X15 Z0.2 F500 ; purge
G0 X25 E4 F500 ; purge
G0 X35 E4 F650 ; purge
G0 X45 E4 F800 ; purge
G0 X48 Z0.05 F8000 ; wipe, move close to the bed
G0 X51 Z0.2 F8000 ; wipe, move quickly away from the bed

G92 E0
M221 S100 ; set flow to 100%
G21 ; set units to millimeters
G90 ; use absolute coordinates
M83 ; use relative distances for extrusion
M900 K0.04 ; Filament gcode



M142 S40 ; set heatbreak target temp
M107
;LAYER_CHANGE
;Z:0.28
;HEIGHT:0.28
;BEFORE_LAYER_CHANGE
G92 E0.0
;0.28


G1 E-.8 F2100
G1 Z.2 F7200
G1 Z.28
;AFTER_LAYER_CHANGE
;0.28
G1 Z.48
G1 X78.223 Y66.129
G1 Z.28
G1 E.8 F1500
;TYPE:Skirt/Brim
;WIDTH:0.56
G1 F3000
G1 X78.802 Y65.587 E.04615
G3 X80.101 Y65.093 I1.596 J2.241 E0.08163
G1 X83.877 Y65.11 E.21975
G3 X86.268 Y67.706 I-0.542 J2.898 E0.22018
G1 X86.268 Y86.07 E1.06869
G1 X98.645 Y86.073 E.72028
G1 X98.642 Y62.468 E1.37369
G3 X101.262 Y59.847 I2.912 J0.290 E0.23353
G1 X123.751 Y59.852 E1.30875
G3 X126.316 Y62.467 I-0.346 J2.905 E0.23028
G1 X126.316 Y85.771 E1.35617
G3 X125.825 Y87.126 I-2.615 J-0.181 E0.08477
G1 X126.098 Y87.466 E.02538
G1 X128.217 Y91.779 E.27965
G1 X128.989 Y90.995 E.06403
G3 X130.417 Y90.387 I1.746 J2.119 E0.09142
G1 X135.641 Y90.382 E.30401
G3 X138.219 Y92.999 I-0.336 J2.909 E0.23112
G1 X138.219 Y97.811 E.28003
G3 X135.713 Y100.421 I-2.910 J-0.286 E0.22691
G1 X132.465 Y100.429 E.18902
G1 X133.125 Y101.772 E.08708
G1 X148.318 Y102.966 E.88688
G1 X160.351 Y98.062 E.75618
G1 X160.351 Y74.144 E1.39191
G3 X162.971 Y71.523 I2.912 J0.290 E0.23353
G1 X176.157 Y71.523 E.76736
G3 X177.540 Y72.026 I-0.250 J2.840 E0.08652
G3 X178.663 Y73.551 I-1.809 J2.508 E0.11190
G1 X178.778 Y74.143 E.0351
G1 X178.752 Y109.823 E2.0764
G3 X176.290 Y112.277 I-2.916 J-0.464 E0.21622
G1 X175.431 Y118.56 E.36904
G1 X175.402 Y123.67 E.29738
G1 X174.054 Y130.573 E.40931
G3 X173.354 Y131.711 I-2.795 J-0.935 E0.07827
G1 X168.382 Y136.208 E.39014
G1 X167.672 Y136.558 E.04607
G1 X166.92 Y136.708 E.04462
G1 X159.566 Y136.708 E.42797
G1 X158.759 Y136.496 E.04856
G3 X157.664 Y135.644 I1.061 J-2.493 E0.08142
G1 X157.24 Y134.947 E.04748
G1 X157.06 Y134.411 E.0329
G3 X157.071 Y133.142 I2.938 J-0.609 E0.07426
G1 X159.683 Y127.703 E.35113
G1 X160.151 Y123.821 E.22755
G1 X159.287 Y119.539 E.25421
G1 X156.965 Y116.267 E.23349
G1 X153.662 Y113.918 E.23587
G1 X148.778 Y113.028 E.2889
G1 X143.894 Y113.918 E.2889
G1 X140.591 Y116.267 E.23587
G1 X138.269 Y119.539 E.23349
G1 X137.405 Y123.821 E.25421
G1 X137.873 Y127.702 E.22749
G1 X140.46 Y133.061 E.3463
G3 X140.304 Y134.970 I-2.664 J0.743 E0.11351
G1 X139.885 Y135.654 E.04668
G1 X139.45 Y136.101 E.0363
G1 X138.793 Y136.497 E.04464
G1 X138.191 Y136.68 E.03662
G1 X130.464 Y136.69 E.44967
G3 X128.833 Y135.941 I0.335 J-2.880 E0.10600
G1 X122.883 Y129.767 E.49899
G1 X122.441 Y129.021 E.05046
G1 X122.219 Y128.089 E.05576
G1 X122.219 Y115.665 E.72301
G1 X115.713 Y99.737 E1.00127
G1 X74.202 Y99.737 E2.41573
G3 X72.820 Y99.235 I0.246 J-2.831 E0.08644
G3 X71.697 Y97.711 I1.811 J-2.510 E0.11185
G1 X71.582 Y97.12 E.03504
G1 X71.572 Y85.55 E.67332
G3 X72.074 Y84.165 I2.860 J0.253 E0.08662
G3 X73.071 Y83.267 I2.633 J1.921 E0.07850
G3 X74.140 Y82.931 I1.353 J2.435 E0.06555
G1 X77.563 Y82.927 E.1992
G1 X77.563 Y67.711 E.88549
G3 X78.188 Y66.178 I2.616 J0.173 E0.09776
G1 X78.586 Y66.473 F7200
G1 F3000
G1 X79.084 Y66 E.03997
G3 X80.170 Y65.588 I1.314 J1.827 E0.06824
G1 X83.786 Y65.602 E.21043
G3 X85.768 Y67.730 I-0.429 J2.386 E0.18128
G1 X85.768 Y86.57 E1.09639
G1 X99.313 Y86.573 E.78825
G1 X99.142 Y85.745 E.0492
G1 X99.142 Y62.492 E1.35321
G3 X101.288 Y60.347 I2.412 J0.267 E0.19080
G1 X123.723 Y60.352 E1.3056
G3 X125.817 Y62.491 I-0.320 J2.408 E0.18768
G1 X125.817 Y85.746 E1.35332
G3 X125.190 Y87.160 I-2.589 J-0.302 E0.09130
G1 X125.665 Y87.717 E.0426
G1 X128.279 Y93.04 E.34511
G1 X128.662 Y92.139 E.05697
G3 X130.490 Y90.882 I2.163 J1.188 E0.13386
G1 X135.573 Y90.877 E.2958
G3 X137.719 Y93.022 I-0.266 J2.412 E0.19080
G1 X137.719 Y97.788 E.27736
G3 X135.683 Y99.921 I-2.414 J-0.266 E0.18436
G1 X131.664 Y99.93 E.23389
G1 X132.802 Y102.248 E.15028
G1 X148.397 Y103.473 E.91035
G1 X160.851 Y98.398 E.78263
G1 X160.851 Y74.168 E1.41006
G3 X162.997 Y72.023 I2.409 J0.265 E0.19082
G1 X176.132 Y72.023 E.76439
G3 X178.278 Y74.169 I-0.265 J2.411 E0.19085
G1 X178.258 Y109.742 E2.07017
G3 X175.853 Y111.789 I-2.373 J-0.352 E0.20069
G1 X174.931 Y118.525 E.39566
G1 X174.907 Y123.598 E.29523
G1 X173.589 Y130.387 E.40246
G3 X173.004 Y131.354 I-2.343 J-0.757 E0.06620
G1 X168.125 Y135.778 E.38328
G3 X166.894 Y136.208 I-1.403 J-2.039 E0.07656
G1 X159.598 Y136.208 E.42459
G3 X158.075 Y135.357 I0.239 J-2.217 E0.10396
G1 X157.683 Y134.713 E.04387
G3 X157.560 Y133.252 I2.198 J-0.921 E0.08661
G1 X160.169 Y127.846 E.34932
G1 X160.656 Y123.801 E.2371
G1 X159.756 Y119.336 E.26507
G1 X157.323 Y115.908 E.24463
G1 X153.861 Y113.446 E.24722
G1 X148.778 Y112.52 E.30067
G1 X143.695 Y113.446 E.30067
G1 X140.233 Y115.908 E.24722
G1 X137.8 Y119.336 E.24463
G1 X136.899 Y123.801 E.26508
G1 X137.387 Y127.845 E.23705
G1 X139.973 Y133.179 E.34497
G3 X139.863 Y134.734 I-2.169 J0.628 E0.09237
G1 X139.475 Y135.367 E.04321
G3 X138.086 Y136.191 I-1.791 J-1.437 E0.09584
G1 X130.547 Y136.197 E.43873
G3 X129.179 Y135.579 I0.257 J-2.391 E0.08867
G1 X123.264 Y129.442 E.49602
G1 X122.893 Y128.803 E.043
G1 X122.719 Y128.06 E.04441
G1 X122.719 Y115.567 E.72703
G1 X116.049 Y99.238 E1.02649
G1 X74.227 Y99.238 E2.43383
G3 X72.081 Y97.093 I0.268 J-2.414 E0.19077
G1 X72.072 Y85.572 E.67046
G3 X72.487 Y84.448 I2.326 J0.220 E0.07044
G3 X74.165 Y83.431 I2.021 J1.442 E0.11733
G1 X78.063 Y83.427 E.22684
G1 X78.063 Y67.734 E.91325
G3 X78.552 Y66.522 I2.131 J0.155 E0.07710
G1 X78.953 Y66.814 F7200
G1 F3000
G3 X80.234 Y66.084 I1.481 J1.110 E0.08804
G1 X83.699 Y66.095 E.20165
G3 X85.268 Y67.755 I-0.345 J1.898 E0.14218
G1 X85.268 Y87.069 E1.12398
G1 X100.317 Y87.073 E.87578
G1 X99.866 Y86.425 E.04594
G3 X99.642 Y85.721 I1.560 J-0.884 E0.04323
G1 X99.642 Y62.517 E1.35036
G3 X101.312 Y60.847 I1.908 J0.238 E0.14800
G1 X123.696 Y60.852 E1.30264
G3 X125.317 Y62.517 I-0.291 J1.905 E0.14514
G1 X125.317 Y85.721 E1.35036
G3 X124.928 Y86.662 I-1.761 J-0.177 E0.06001
G1 X124.385 Y87.204 E.04465
G3 X125.232 Y87.969 I-1.050 J2.014 E0.06696
G1 X128.511 Y94.645 E.43284
G1 X128.897 Y94.557 E.02304
G1 X128.906 Y92.946 E.09375
G3 X130.518 Y91.382 I1.900 J0.346 E0.13938
G1 X135.551 Y91.377 E.2929
G3 X137.219 Y93.046 I-0.244 J1.912 E0.14785
G1 X137.219 Y97.762 E.27445
G3 X135.651 Y99.421 I-1.921 J-0.246 E0.14209
G1 X130.862 Y99.432 E.2787
G1 X132.479 Y102.724 E.21344
G1 X148.476 Y103.981 E.93381
G1 X161.351 Y98.734 E.80909
G1 X161.351 Y74.193 E1.42816
G3 X163.021 Y72.523 I1.910 J0.240 E0.14803
G1 X176.108 Y72.523 E.7616
G3 X177.778 Y74.194 I-0.240 J1.910 E0.14805
G1 X177.764 Y109.664 E2.06417
G3 X176.151 Y111.282 I-1.906 J-0.287 E0.14226
G1 X175.417 Y111.286 E.04272
G1 X174.431 Y118.49 E.42314
G1 X174.412 Y123.526 E.29307
G1 X173.124 Y130.201 E.39562
G3 X172.655 Y130.996 I-1.853 J-0.557 E0.05408
G1 X167.869 Y135.347 E.37641
G3 X166.870 Y135.708 I-1.146 J-1.608 E0.06239
G1 X159.63 Y135.708 E.42133
G3 X158.487 Y135.072 I0.203 J-1.710 E0.07782
G1 X158.127 Y134.481 E.04027
G3 X158.048 Y133.367 I1.713 J-0.681 E0.06591
G1 X160.656 Y127.989 E.34783
G1 X161.162 Y123.781 E.24665
G1 X160.225 Y119.134 E.27587
G1 X157.682 Y115.55 E.25574
G1 X154.06 Y112.974 E.25865
G1 X148.778 Y112.012 E.31244
G1 X143.496 Y112.974 E.31244
G1 X139.874 Y115.55 E.25865
G1 X137.331 Y119.134 E.25574
G1 X136.393 Y123.781 E.27589
G1 X136.9 Y127.989 E.24666
G1 X139.487 Y133.302 E.34389
G3 X139.421 Y134.498 I-1.671 J0.508 E0.07093
G1 X139.065 Y135.078 E.0396
G3 X137.987 Y135.700 I-1.369 J-1.128 E0.07384
G1 X130.627 Y135.703 E.42831
G3 X129.524 Y135.217 I0.178 J-1.899 E0.07123
G1 X123.647 Y129.119 E.49286
G3 X123.219 Y128.033 I1.585 J-1.252 E0.06867
G1 X123.219 Y115.469 E.73116
G1 X116.384 Y98.738 E1.05177
G1 X74.251 Y98.738 E2.45193
G3 X72.581 Y97.069 I0.241 J-1.911 E0.14795
G1 X72.572 Y85.596 E.66767
G3 X74.191 Y83.931 I1.917 J0.245 E0.14504
G1 X78.563 Y83.926 E.25443
G1 X78.563 Y67.755 E.94107
G3 X78.919 Y66.863 I1.627 J0.132 E0.05659
G1 X79.323 Y67.15 F7200
G1 F3000
G3 X80.255 Y66.584 I1.120 J0.794 E0.06506
G1 X83.619 Y66.589 E.19577
G3 X84.768 Y67.779 I-0.267 J1.408 E0.10259
G1 X84.768 Y87.569 E1.15168
G1 X123.876 Y87.585 E2.27589
G3 X124.799 Y88.222 I-0.291 J1.409 E0.06682
G1 X129.008 Y96.791 E.55558
G1 X129.394 Y96.702 E.02305
G1 X129.399 Y93.026 E.21392
G3 X130.590 Y91.877 I1.412 J0.272 E0.10261
G1 X135.525 Y91.877 E.28719
G3 X136.720 Y93.072 I-0.216 J1.411 E0.10527
G1 X136.72 Y97.737 E.27148
G3 X135.570 Y98.927 I-1.417 J-0.219 E0.10266
G1 X130.584 Y98.932 E.29016
G1 X130.016 Y98.844 E.03345
G1 X132.156 Y103.201 E.28249
G1 X148.555 Y104.489 E.95728
G1 X161.851 Y99.07 E.83556
G1 X161.851 Y74.217 E1.44632
G3 X163.046 Y73.023 I1.405 J0.212 E0.10524
G1 X176.083 Y73.023 E.75869
G3 X177.278 Y74.218 I-0.213 J1.408 E0.10529
G1 X177.269 Y109.593 E2.05865
G3 X176.119 Y110.782 I-1.416 J-0.219 E0.10262
G1 X174.98 Y110.788 E.06628
G1 X173.931 Y118.455 E.45034
G1 X173.916 Y123.455 E.29098
G1 X172.658 Y130.016 E.38877
G3 X172.307 Y130.636 I-1.342 J-0.350 E0.04175
G1 X167.613 Y134.917 E.36971
G3 X166.848 Y135.208 I-0.889 J-1.185 E0.04807
G1 X159.661 Y135.208 E.41825
G3 X158.899 Y134.788 I0.163 J-1.198 E0.05155
G1 X158.574 Y134.253 E.03643
G3 X158.534 Y133.489 I1.243 J-0.448 E0.04507
G1 X161.142 Y128.132 E.34673
G1 X161.668 Y123.761 E.25621
G1 X160.694 Y118.931 E.28674
G1 X158.041 Y115.192 E.2668
G1 X154.259 Y112.502 E.27009
G1 X148.778 Y111.504 E.32421
G1 X143.297 Y112.502 E.32421
G1 X139.515 Y115.192 E.27009
G1 X136.862 Y118.931 E.2668
G1 X135.887 Y123.761 E.28675
G1 X136.414 Y128.132 E.25621
G1 X139.022 Y133.489 E.34673
G3 X138.960 Y134.303 I-1.171 J0.320 E0.04823
G3 X138.477 Y134.958 I-1.509 J-0.607 E0.04769
G3 X137.895 Y135.208 I-0.775 J-1.002 E0.03715
G1 X130.701 Y135.208 E.41865
G3 X129.870 Y134.856 I0.106 J-1.407 E0.05334
G1 X124.03 Y128.797 E.48973
G3 X123.719 Y128.007 I1.187 J-0.924 E0.04991
G1 X123.719 Y115.371 E.73535
G1 X116.72 Y98.238 E1.07704
G1 X74.276 Y98.238 E2.47003
G3 X73.081 Y97.044 I0.216 J-1.411 E0.10521
G1 X73.072 Y85.622 E.6647
G3 X74.221 Y84.431 I1.418 J0.218 E0.10265
G1 X79.063 Y84.425 E.28178
G1 X79.063 Y67.776 E.96889
G3 X79.290 Y67.200 I1.154 J0.122 E0.03638
G1 X79.695 Y67.485 F7200
G1 F3000
G3 X80.283 Y67.084 I0.778 J0.509 E0.04223
G1 X83.549 Y67.084 E.19006
G3 X84.258 Y67.755 I-0.196 J0.918 E0.05942
G1 X84.268 Y88.069 E1.18217
G1 X123.781 Y88.079 E2.29946
G3 X124.366 Y88.474 I-0.187 J0.908 E0.04203
G1 X131.833 Y103.677 E.98569
G1 X148.634 Y104.996 E.98074
G1 X162.351 Y99.406 E.862
G1 X162.351 Y74.242 E1.46442
G3 X163.070 Y73.522 I0.910 J0.190 E0.06226
G1 X176.059 Y73.522 E.75589
G3 X176.778 Y74.242 I-0.194 J0.912 E0.06226
G1 X176.769 Y109.568 E2.05579
G3 X176.098 Y110.278 I-0.922 J-0.200 E0.05945
G1 X174.544 Y110.287 E.09044
G1 X173.431 Y118.421 E.47777
G1 X173.421 Y123.384 E.28882
G1 X172.173 Y129.89 E.38552
G3 X171.956 Y130.280 I-0.899 J-0.245 E0.02612
G1 X167.301 Y134.524 E.36658
G3 X166.821 Y134.708 I-0.568 J-0.764 E0.03018
G1 X159.693 Y134.708 E.41481
G3 X159.303 Y134.492 I0.155 J-0.739 E0.02618
G1 X159.039 Y134.068 E.02907
G3 X159.003 Y133.686 I0.667 J-0.256 E0.02244
M73 P1 R89
G1 X159.016 Y133.623 E.00374
G1 X161.628 Y128.276 E.34631
G1 X162.174 Y123.741 E.26582
G1 X161.163 Y118.728 E.2976
G1 X158.399 Y114.833 E.27794
G1 X154.458 Y112.03 E.28144
G1 X148.778 Y110.995 E.33599
G1 X143.098 Y112.03 E.33599
G1 X139.157 Y114.833 E.28144
G1 X136.393 Y118.728 E.27794
G1 X135.382 Y123.741 E.2976
G1 X135.928 Y128.276 E.26582
G1 X138.54 Y133.623 E.34631
G3 X138.517 Y134.068 I-0.740 J0.185 E0.02616
G1 X138.253 Y134.492 E.02907
G3 X137.863 Y134.708 I-0.550 J-0.534 E0.02618
G1 X130.726 Y134.708 E.41534
G3 X130.213 Y134.492 I0.075 J-0.896 E0.03287
G1 X124.416 Y128.477 E.48615
G3 X124.219 Y127.982 I0.765 J-0.591 E0.03129
G1 X124.219 Y115.273 E.7396
G1 X117.056 Y97.738 E1.10231
G1 X74.301 Y97.738 E2.48812
G3 X73.581 Y97.019 I0.190 J-0.910 E0.06227
G1 X73.572 Y85.646 E.66185
G1 X73.676 Y85.368 E.01727
G3 X74.292 Y84.926 I0.810 J0.479 E0.04507
G1 X79.563 Y84.926 E.30675
G1 X79.563 Y67.804 E.99641
M73 P1 R88
G1 X79.664 Y67.536 E.01667
G1 X80.101 Y67.786 F7200
G1 F3000
G3 X80.357 Y67.584 I0.371 J0.207 E0.01929
G1 X83.474 Y67.584 E.18139
G3 X83.768 Y67.878 I-0.115 J0.409 E0.02508
G1 X83.768 Y88.569 E1.20411
G1 X123.681 Y88.569 E2.32273
G3 X123.933 Y88.726 I-0.081 J0.411 E0.01759
G1 X131.509 Y104.153 E1.00019
G1 X148.713 Y105.504 E1.00427
G1 X162.851 Y99.743 E.88844
G1 X162.851 Y74.316 E1.47972
G3 X163.144 Y74.022 I0.411 J0.117 E0.02503
G1 X175.984 Y74.022 E.74722
G3 X176.278 Y74.316 I-0.119 J0.413 E0.02507
G1 X176.269 Y109.493 E2.04712
G3 X175.975 Y109.787 I-0.409 J-0.115 E0.02508
G1 X174.108 Y109.787 E.10865
G1 X172.931 Y118.387 E.50514
G1 X172.926 Y123.313 E.28667
G1 X171.689 Y129.763 E.3822
G1 X171.623 Y129.9 E.00885
G1 X166.995 Y134.127 E.36476
G1 X166.837 Y134.201 E.01015
G1 X159.789 Y134.208 E.41016
G1 X159.676 Y134.146 E.0075
G1 X159.514 Y133.885 E.01788
G1 X159.507 Y133.756 E.00752
G1 X162.114 Y128.42 E.34561
G1 X162.68 Y123.721 E.27543
G1 X161.632 Y118.525 E.30847
G1 X158.758 Y114.475 E.289
G1 X154.657 Y111.559 E.29284
G1 X148.778 Y110.487 E.34777
G1 X142.899 Y111.559 E.34777
G1 X138.798 Y114.475 E.29284
