; generated by PrusaSlicer 2.6.0+win64 on 2025-10-26 at 11:57:55 UTC
; Postprocessed by [ArcWelder](https://github.com/FormerLurker/ArcWelderLib)
; Copyright(C) 2021 - Brad Hochgesang
; Version: 1.2.0, Branch: HEAD, BuildDate: 2021-11-21T20:25:43Z
; resolution=0.05mm
; path_tolerance=5.0%
; max_radius=9999.00mm
; default_xyz_precision=3
; default_e_precision=5
; extrusion_rate_variance_percent=5.0%














; 

; external perimeters extrusion width = 0.42mm
; perimeters extrusion width = 0.45mm
; infill extrusion width = 0.45mm
; solid infill extrusion width = 0.50mm
; top infill extrusion width = 0.42mm
; support material extrusion width = 0.42mm
; first layer extrusion width = 0.56mm

; external perimeters extrusion width = 0.42mm
; perimeters extrusion width = 0.45mm
; infill extrusion width = 0.45mm
; solid infill extrusion width = 0.50mm
; top infill extrusion width = 0.42mm
; support material extrusion width = 0.42mm
; first layer extrusion width = 0.56mm

M73 P0 R111
M201 X2500 Y2500 Z200 E2500 ; sets maximum accelerations, mm/sec^2
M203 X200 Y200 Z40 E100 ; sets maximum feedrates, mm / sec
M204 P2000 R1200 T2000 ; sets acceleration (P, T) and retract acceleration (R), mm/sec^2
M205 X8.00 Y8.00 Z2.00 E10.00 ; sets the jerk limits, mm/sec
M205 S0 T0 ; sets the minimum extruding and travel feed rate, mm/sec
;TYPE:Custom
M17 ; enable steppers
M862.3 P "MK4" ; printer model check
M862.1 P0.4 ; nozzle diameter check
M115 U5.0.1+12089

M555 X69.4211 Y64.9379 W114.851 H76.1242

G90 ; use absolute coordinates
M83 ; extruder relative mode

M140 S55 ; set bed temp

M104 S170 ; set extruder temp for bed leveling
M109 R170 ; wait for temp


M84 E ; turn off E motor

G28 ; home all without mesh bed level

G1 X42 Y-4 Z5 F4800

M302 S160 ; lower cold extrusion limit to 160C


G1 E-2 F2400 ; retraction


M84 E ; turn off E motor

G29 P9 X10 Y-4 W32 H4

M106 S100

G0 Z40 F10000

M190 S55 ; wait for bed temp

M107


; MBL

M84 E ; turn off E motor
G29 P1 ; invalidate mbl & probe print area
G29 P1 X0 Y0 W50 H20 C ; probe near purge place
G29 P3.2 ; interpolate mbl probes
G29 P3.13 ; extrapolate mbl outside probe area
G29 A ; activate mbl

; prepare for purge
M104 S205
G0 X0 Y-4 Z15 F4800 ; move away and ready for the purge
M109 S205

G92 E0
M569 S0 E ; set spreadcycle mode for extruder


; Extrude purge line

G92 E0 ; reset extruder position
G1 E2 F2400 ; deretraction after the initial one before nozzle cleaning
G0 E7 X15 Z0.2 F500 ; purge
G0 X25 E4 F500 ; purge
G0 X35 E4 F650 ; purge
G0 X45 E4 F800 ; purge
G0 X48 Z0.05 F8000 ; wipe, move close to the bed
G0 X51 Z0.2 F8000 ; wipe, move quickly away from the bed

G92 E0
M221 S100 ; set flow to 100%
G21 ; set units to millimeters
G90 ; use absolute coordinates
M83 ; use relative distances for extrusion
M900 K0.04 ; Filament gcode



M142 S40 ; set heatbreak target temp
M107
;LAYER_CHANGE
;Z:0.28
;HEIGHT:0.28
;BEFORE_LAYER_CHANGE
G92 E0.0
;0.28


G1 E-.8 F2100
G1 Z.2 F7200
G1 Z.28
;AFTER_LAYER_CHANGE
;0.28
G1 Z.48
G1 X92.389 Y74.983
G1 Z.28
G1 E.8 F1500
;TYPE:Skirt/Brim
;WIDTH:0.56
G1 F3000
G3 X94.361 Y73.926 I2.216 J1.767 E0.13356
G1 X116.85 Y73.93 E1.30875
G3 X119.416 Y76.546 I-0.347 J2.907 E0.23034
G1 X119.416 Y95.595 E1.10856
G1 X119.819 Y95.675 E.02391
G1 X122.044 Y90.231 E.34225
G1 X122.044 Y77.758 E.72587
G1 X122.364 Y76.661 E.0665
G3 X122.745 Y76.089 I1.836 J0.810 E0.04011
G1 X128.666 Y69.946 E.49652
G1 X129.365 Y69.474 E.04908
G3 X130.462 Y69.188 I1.271 J2.627 E0.06630
G1 X137.886 Y69.196 E.43204
G3 X139.630 Y70.144 I-0.366 J2.752 E0.11784
G1 X140.227 Y71.152 E.06818
G3 X140.381 Y72.233 I-2.781 J0.948 E0.06382
G1 X140.217 Y73.037 E.04775
G1 X137.697 Y78.195 E.33408
G1 X137.23 Y82.075 E.22743
G1 X138.093 Y86.357 E.2542
G1 X140.416 Y89.629 E.23352
G1 X143.718 Y91.978 E.23582
G1 X148.602 Y92.868 E.2889
G1 X153.486 Y91.978 E.2889
G1 X156.789 Y89.629 E.23587
G1 X159.111 Y86.357 E.23349
G1 X159.975 Y82.075 E.25421
G1 X159.507 Y78.193 E.22755
G1 X156.94 Y72.897 E.3425
G3 X157.031 Y71.023 I2.694 J-0.808 E0.11109
G1 X157.484 Y70.259 E.05169
G1 X158.024 Y69.722 E.04432
G1 X158.707 Y69.35 E.04526
G1 X159.389 Y69.188 E.04079
G1 X166.742 Y69.188 E.42791
G1 X167.349 Y69.289 E.03581
G1 X168.373 Y69.803 E.06668
G1 X173.182 Y74.188 E.37874
G1 X173.552 Y74.647 E.03431
G1 X173.938 Y75.507 E.05486
G1 X175.227 Y82.227 E.3982
G1 X175.255 Y87.336 E.29732
G1 X176.115 Y93.619 E.36905
G3 X178.596 Y96.230 I-0.440 J2.902 E0.22548
G1 X178.605 Y131.752 E2.0672
G3 X175.985 Y134.373 I-2.912 J-0.290 E0.23353
G1 X166.37 Y134.373 E.55954
G3 X163.751 Y131.753 I0.290 J-2.909 E0.23342
G1 X163.751 Y107.88 E1.38929
G1 X148.251 Y102.814 E.94898
G1 X132.955 Y104.015 E.89289
G1 X125.928 Y118.422 E.93283
G1 X125.278 Y119.173 E.0578
G1 X125.111 Y119.297 E.0121
G1 X124.344 Y119.69 E.05015
G1 X123.662 Y119.827 E.04048
G1 X94.216 Y119.827 E1.71361
G1 X85.721 Y139.34 E1.2385
G3 X84.552 Y140.487 I-2.569 J-1.449 E0.09647
G1 X83.451 Y140.812 E.06681
G1 X79.855 Y140.795 E.20927
G3 X77.391 Y138.191 I0.453 J-2.896 E0.22443
G1 X77.395 Y108.778 E1.71169
G3 X80.016 Y106.159 I2.911 J0.292 E0.23346
G1 X115.535 Y106.159 E2.06703
G1 X117.043 Y102.47 E.23193
G1 X94.361 Y102.47 E1.31998
G3 X91.741 Y99.849 I0.294 J-2.913 E0.23352
G1 X91.741 Y76.547 E1.35606
G3 X92.355 Y75.032 I2.643 J0.189 E0.09649
G1 X92.759 Y75.319 F7200
G1 F3000
G3 X94.387 Y74.426 I1.844 J1.432 E0.11087
G1 X116.823 Y74.43 E1.30566
G3 X118.916 Y76.571 I-0.320 J2.406 E0.18775
G1 X118.916 Y98.14 E1.25521
G1 X119.319 Y98.22 E.02391
G1 X122.544 Y90.329 E.49609
G1 X122.544 Y77.796 E.72936
G1 X122.836 Y76.826 E.05895
G1 X123.118 Y76.423 E.02862
G1 X129.008 Y70.312 E.49393
G3 X130.483 Y69.688 I1.625 J1.785 E0.09477
G1 X137.852 Y69.696 E.42884
G3 X139.262 Y70.485 I-0.324 J2.233 E0.09590
G1 X139.751 Y71.31 E.05581
G3 X139.754 Y72.846 I-2.165 J0.772 E0.09091
G1 X137.211 Y78.051 E.33712
G1 X136.724 Y82.095 E.23704
G1 X137.624 Y86.56 E.26507
G1 X140.057 Y89.988 E.24463
G1 X143.519 Y92.45 E.24722
G1 X148.602 Y93.376 E.30067
G1 X153.685 Y92.45 E.30067
G1 X157.148 Y89.988 E.24727
G1 X159.58 Y86.56 E.2446
G1 X160.481 Y82.095 E.26508
G1 X159.994 Y78.05 E.2371
G1 X157.405 Y72.711 E.34531
G3 X157.479 Y71.248 I2.250 J-0.620 E0.08656
G1 X157.898 Y70.541 E.04783
G3 X159.421 Y69.688 I1.788 J1.406 E0.10399
G1 X166.72 Y69.688 E.42476
G1 X167.227 Y69.775 E.02994
G1 X168.061 Y70.195 E.05434
G1 X172.832 Y74.546 E.37577
G1 X173.112 Y74.886 E.02563
G1 X173.453 Y75.632 E.04773
G1 X174.732 Y82.298 E.395
G1 X174.755 Y87.371 E.29523
G1 X175.677 Y94.107 E.39566
G3 X178.096 Y96.254 I0.035 J2.396 E0.20669
G1 X178.105 Y131.727 E2.06435
G3 X175.959 Y133.873 I-2.409 J-0.263 E0.19087
G1 X166.396 Y133.873 E.55652
G3 X164.251 Y131.729 I0.264 J-2.409 E0.19070
G1 X164.251 Y107.517 E1.40902
G1 X148.311 Y102.307 E.97592
G1 X132.631 Y103.539 E.91531
G1 X125.493 Y118.173 E.94753
G1 X124.955 Y118.791 E.04768
G1 X124.857 Y118.865 E.00715
G1 X124.206 Y119.208 E.04282
G1 X123.636 Y119.327 E.03389
G1 X93.888 Y119.327 E1.73118
G1 X85.269 Y139.126 E1.25664
G3 X84.316 Y140.042 I-2.082 J-1.212 E0.07783
G1 X83.415 Y140.312 E.05474
G1 X79.936 Y140.301 E.20246
G3 X77.890 Y138.166 I0.370 J-2.403 E0.18498
G1 X77.895 Y108.804 E1.70872
G3 X80.041 Y106.659 I2.409 J0.265 E0.19081
G1 X115.871 Y106.659 E2.08512
G1 X117.943 Y101.587 E.31884
G1 X117.213 Y101.886 E.04591
G1 X116.772 Y101.97 E.02613
G1 X94.387 Y101.97 E1.30269
G3 X92.241 Y99.825 I0.264 J-2.410 E0.19080
G1 X92.241 Y76.571 E1.35326
G3 X92.726 Y75.368 I2.152 J0.168 E0.07650
G1 E-.64 F2100
;WIPE_START
G1 F5760
G1 X93.046 Y75.035 E-.16
;WIPE_END
G1 Z.48 F7200
G1 X123.044 Y77.835
G1 Z.28
G1 E.8 F1500
G1 F3000
G1 X123.295 Y77.033 E.0489
G1 X123.492 Y76.756 E.01978
G1 X129.35 Y70.677 E.49129
G3 X130.504 Y70.188 I1.279 J1.411 E0.07415
G1 X137.815 Y70.196 E.42546
G3 X138.892 Y70.822 I-0.297 J1.751 E0.07388
G1 X139.277 Y71.472 E.04396
G3 X139.291 Y72.655 I-1.688 J0.612 E0.06999
G1 X136.725 Y77.907 E.34017
G1 X136.218 Y82.115 E.24666
G1 X137.155 Y86.763 E.27593
G1 X139.698 Y90.346 E.25569
G1 X143.32 Y92.922 E.25865
G1 X148.602 Y93.884 E.31244
G1 X153.885 Y92.922 E.3125
G1 X157.506 Y90.346 E.25861
G1 X160.05 Y86.763 E.25573
G1 X160.987 Y82.115 E.27593
G1 X160.48 Y77.908 E.2466
G1 X157.872 Y72.529 E.34788
G3 X157.928 Y71.472 I1.808 J-0.434 E0.06236
G1 X158.312 Y70.823 E.04388
G3 X159.454 Y70.188 I1.373 J1.125 E0.07770
G1 X166.697 Y70.188 E.42151
G1 X167.102 Y70.261 E.02395
G1 X167.749 Y70.587 E.04216
G1 X172.481 Y74.902 E.37268
G1 X172.703 Y75.176 E.02052
G1 X172.968 Y75.755 E.03706
G1 X174.236 Y82.37 E.39197
G1 X174.255 Y87.406 E.29307
G1 X175.241 Y94.61 E.42314
G1 X175.978 Y94.614 E.04289
G3 X177.596 Y96.279 I-0.287 J1.898 E0.14497
G1 X177.605 Y131.703 E2.0615
G3 X175.935 Y133.374 I-1.910 J-0.239 E0.14803
G1 X166.421 Y133.374 E.55367
G3 X164.750 Y131.703 I0.242 J-1.913 E0.14809
G1 X164.75 Y107.154 E1.42863
G1 X148.372 Y101.801 E1.00273
G1 X132.307 Y103.063 E.93778
G1 X125.059 Y117.923 E.96216
G1 X124.624 Y118.416 E.03826
G1 X124.062 Y118.728 E.03741
G1 X123.608 Y118.827 E.02704
G1 X93.56 Y118.827 E1.74864
G1 X84.818 Y138.909 E1.2746
G3 X84.069 Y139.606 I-1.634 J-1.005 E0.06020
G1 X83.379 Y139.812 E.04191
G1 X80.014 Y139.807 E.19583
G3 X78.390 Y138.141 I0.288 J-1.906 E0.14535
G1 X78.395 Y108.829 E1.70581
G3 X80.065 Y107.159 I1.907 J0.237 E0.14803
G1 X116.207 Y107.159 E2.10328
G1 X123.044 Y90.427 E1.05187
G1 X123.044 Y77.895 E.7293
G1 X123.544 Y77.895 F7200
G1 F3000
G1 X123.727 Y77.287 E.03695
G1 X123.866 Y77.088 E.01413
G1 X129.693 Y71.042 E.48866
G3 X130.523 Y70.688 I0.935 J1.042 E0.05333
G1 X137.778 Y70.696 E.4222
G3 X138.483 Y71.111 I-0.260 J1.248 E0.04833
G1 X138.806 Y71.643 E.03622
G3 X138.828 Y72.464 I-1.212 J0.443 E0.04852
G1 X136.238 Y77.764 E.34329
G1 X135.712 Y82.135 E.25621
G1 X136.686 Y86.965 E.28674
G1 X139.34 Y90.704 E.26683
G1 X143.121 Y93.394 E.27004
G1 X148.602 Y94.393 E.32422
G1 X154.084 Y93.394 E.32428
G1 X157.865 Y90.704 E.27004
G1 X160.519 Y86.965 E.26683
G1 X161.493 Y82.135 E.28674
G1 X160.966 Y77.764 E.25621
G1 X158.358 Y72.408 E.34668
G3 X158.398 Y71.643 I1.305 J-0.315 E0.04511
G1 X158.724 Y71.108 E.03646
G3 X159.486 Y70.688 I0.958 J0.837 E0.05154
G1 X166.673 Y70.688 E.41825
G3 X167.437 Y70.980 I-0.121 J1.462 E0.04805
G1 X172.129 Y75.258 E.36951
G3 X172.482 Y75.879 I-1.048 J1.007 E0.04187
G1 X173.741 Y82.441 E.38884
G1 X173.756 Y87.441 E.29098
G1 X174.805 Y95.108 E.45034
G1 X175.946 Y95.114 E.0664
G3 X177.096 Y96.304 I-0.255 J1.397 E0.10267
G1 X177.105 Y131.678 E2.05859
G3 X175.910 Y132.874 I-1.408 J-0.212 E0.10532
G1 X166.445 Y132.874 E.55082
G3 X165.250 Y131.679 I0.215 J-1.410 E0.10525
G1 X165.25 Y106.792 E1.4483
G1 X148.432 Y101.295 E1.02968
G1 X131.983 Y102.587 E.9602
G1 X124.626 Y117.671 E.97666
G3 X123.578 Y118.327 I-1.195 J-0.744 E0.07414
G1 X93.233 Y118.327 E1.76593
G1 X84.348 Y138.721 E1.29457
G3 X83.342 Y139.312 I-1.169 J-0.839 E0.06966
G1 X80.085 Y139.312 E.18954
G3 X78.890 Y138.117 I0.213 J-1.408 E0.10526
G1 X78.895 Y108.853 E1.70302
G3 X80.090 Y107.658 I1.408 J0.213 E0.10525
G1 X116.543 Y107.658 E2.12138
G1 X123.544 Y90.525 E1.07708
G1 X123.544 Y77.955 E.73151
G1 X124.044 Y77.955 F7200
G1 F3000
G1 X124.161 Y77.537 E.02526
G1 X124.241 Y77.419 E.0083
G1 X130.036 Y71.407 E.48594
G3 X130.547 Y71.188 I0.594 J0.680 E0.03282
G1 X137.687 Y71.188 E.41551
G3 X138.077 Y71.404 I-0.155 J0.739 E0.02618
G1 X138.342 Y71.828 E.0291
G3 X138.365 Y72.273 I-0.763 J0.263 E0.02615
G1 X135.752 Y77.62 E.34634
G1 X135.206 Y82.155 E.26582
G1 X136.217 Y87.168 E.2976
G1 X138.981 Y91.063 E.27794
G1 X142.922 Y93.866 E.28144
G1 X148.602 Y94.901 E.33599
G1 X154.283 Y93.866 E.33605
G1 X158.224 Y91.063 E.28144
G1 X160.988 Y87.168 E.27794
G1 X161.999 Y82.155 E.2976
G1 X161.452 Y77.62 E.26583
G1 X158.84 Y72.273 E.34631
G3 X158.863 Y71.828 I0.753 J-0.184 E0.02617
G1 X159.128 Y71.404 E.0291
G3 X159.517 Y71.188 I0.555 J0.541 E0.02612
G1 X166.646 Y71.188 E.41487
G3 X167.126 Y71.372 I-0.091 J0.956 E0.03018
G1 X171.781 Y75.617 E.36662
G3 X171.998 Y76.006 I-0.662 J0.624 E0.02607
G1 X173.245 Y82.512 E.38551
G1 X173.256 Y87.475 E.28882
G1 X174.369 Y95.609 E.47777
G1 X175.925 Y95.619 E.09055
G3 X176.596 Y96.328 I-0.243 J0.902 E0.05942
G1 X176.605 Y131.654 E2.05579
G3 X175.886 Y132.374 I-0.910 J-0.190 E0.06226
G1 X166.47 Y132.374 E.54796
G3 X165.760 Y131.702 I0.194 J-0.916 E0.05953
G1 X165.75 Y106.429 E1.47076
G1 X148.492 Y100.789 E1.0566
G1 X131.659 Y102.111 E.98261
G1 X124.192 Y117.42 E.99123
G3 X123.545 Y117.827 I-0.757 J-0.486 E0.04573
G1 X92.905 Y117.827 E1.78309
G1 X83.935 Y138.433 E1.30786
G3 X83.306 Y138.812 I-0.753 J-0.538 E0.04381
G1 X80.11 Y138.812 E.18599
G3 X79.390 Y138.092 I0.190 J-0.910 E0.06232
G1 X79.395 Y108.878 E1.70011
G3 X80.114 Y108.158 I0.910 J0.190 E0.06227
G1 X116.878 Y108.158 E2.13948
G1 X124.044 Y90.624 E1.10232
G1 X124.044 Y78.015 E.73378
G1 X124.543 Y78.015 F7200
G1 F3000
G3 X124.620 Y77.746 I0.397 J-0.032 E0.01646
G1 X130.42 Y71.743 E.48577
G1 X130.575 Y71.688 E.00957
G1 X137.591 Y71.688 E.4083
G1 X137.704 Y71.751 E.00753
G1 X137.867 Y72.011 E.01786
G1 X137.873 Y72.14 E.00752
G1 X135.266 Y77.477 E.34566
G1 X134.7 Y82.175 E.27538
G1 X135.748 Y87.371 E.30847
G1 X138.622 Y91.421 E.289
G1 X142.723 Y94.338 E.29287
G1 X148.602 Y95.409 E.34776
G1 X154.482 Y94.338 E.34782
G1 X158.582 Y91.421 E.29282
G1 X161.457 Y87.371 E.28904
G1 X162.505 Y82.175 E.30847
G1 X161.939 Y77.477 E.27538
G1 X159.331 Y72.14 E.34569
G1 X159.338 Y72.011 E.00752
G1 X159.501 Y71.751 E.01786
G1 X159.614 Y71.688 E.00753
G1 X166.661 Y71.695 E.4101
G1 X166.819 Y71.769 E.01015
G1 X171.427 Y75.971 E.36292
G1 X171.513 Y76.133 E.01067
G1 X172.75 Y82.583 E.3822
G1 X172.756 Y87.509 E.28667
G1 X173.933 Y96.109 E.50514
G1 X175.802 Y96.109 E.10877
G3 X176.096 Y96.403 I-0.115 J0.409 E0.02508
G1 X176.105 Y131.58 E2.04712
G3 X175.811 Y131.874 I-0.409 J-0.115 E0.02508
G1 X166.544 Y131.874 E.53929
G3 X166.250 Y131.580 I0.115 J-0.409 E0.02508
G1 X166.25 Y106.067 E1.48473
G1 X148.553 Y100.283 E1.08349
G1 X131.335 Y101.635 E1.00508
G1 X123.758 Y117.17 E1.00586
G3 X123.506 Y117.327 I-0.332 J-0.252 E0.01759
G1 X92.577 Y117.327 E1.79991
M73 P0 R110
G1 X83.528 Y138.143 E1.3209
G3 X83.270 Y138.312 I-0.343 J-0.243 E0.01830
G1 X80.184 Y138.312 E.17959
G3 X79.890 Y138.018 I0.115 J-0.409 E0.02508
G1 X79.895 Y108.952 E1.69149
G3 X80.189 Y108.658 I0.409 J0.115 E0.02508
G1 X117.214 Y108.658 E2.15467
G1 X124.543 Y90.722 E1.12756
G1 X124.543 Y78.075 E.73599
G1 E-.64 F2100
;WIPE_START
G1 F5760
G3 X124.703 Y77.660 I0.428 J-0.073 E-0.16000
;WIPE_END
G1 Z.48 F7200
G1 X118.416 Y78.075
G1 Z.28
G1 E.8 F1500
G1 F3000
G1 X118.416 Y99.8 E1.26428
G3 X116.746 Y101.470 I-1.907 J-0.237 E0.14804
G1 X94.411 Y101.47 E1.29978
G3 X92.741 Y99.800 I0.238 J-1.908 E0.14802
G1 X92.741 Y76.596 E1.35036
G3 X94.412 Y74.925 I1.909 J0.238 E0.14809
G1 X116.795 Y74.93 E1.30258
G3 X118.416 Y76.596 I-0.293 J1.907 E0.14519
G1 X118.416 Y78.015 E.08258
G1 X117.916 Y78.015 F7200
G1 F3000
G1 X117.916 Y99.776 E1.26638
G3 X116.721 Y100.971 I-1.408 J-0.213 E0.10525
G1 X94.436 Y100.971 E1.29687
G3 X93.241 Y99.776 I0.216 J-1.411 E0.10526
G1 X93.241 Y76.62 E1.34756
G1 X93.279 Y76.428 E.01139
M73 P1 R110
G3 X94.436 Y75.425 I1.376 J0.418 E0.09387
G1 X116.767 Y75.43 E1.29955
G3 X117.916 Y76.620 I-0.267 J1.408 E0.10259
G1 X117.916 Y77.955 E.07769
G1 X117.416 Y77.955 F7200
G1 F3000
G1 X117.416 Y99.751 E1.26842
G3 X116.697 Y100.471 I-0.910 J-0.190 E0.06227
G1 X94.46 Y100.471 E1.29408
G3 X93.741 Y99.751 I0.191 J-0.910 E0.06227
G1 X93.741 Y76.645 E1.34465
G3 X94.460 Y75.925 I0.910 J0.190 E0.06227
G1 X116.697 Y75.925 E1.29408
G3 X117.407 Y76.597 I-0.199 J0.921 E0.05950
G1 X117.416 Y77.895 E.07554
G1 X116.916 Y77.895 F7200
G1 F3000
G1 X116.916 Y99.677 E1.2676
G3 X116.622 Y99.971 I-0.409 J-0.115 E0.02508
G1 X94.535 Y99.971 E1.28535
G3 X94.241 Y99.677 I0.115 J-0.409 E0.02508
G1 X94.241 Y76.719 E1.33604
G3 X94.535 Y76.425 I0.409 J0.115 E0.02508
G1 X116.622 Y76.425 E1.28535
G3 X116.916 Y76.719 I-0.115 J0.409 E0.02508
G1 X116.916 Y77.835 E.06495
G1 E-.64 F2100
;WIPE_START
G1 F5760
G1 X116.916 Y78.297 E-.16
;WIPE_END
G1 Z.48 F7200
G1 X149.276 Y76.517
G1 Z.28
