; generated by PrusaSlicer 2.6.0+win64 on 2026-02-06 at 10:54:14 UTC
; Postprocessed by [ArcWelder](https://github.com/FormerLurker/ArcWelderLib)
; Copyright(C) 2021 - Brad Hochgesang
; Version: 1.2.0, Branch: HEAD, BuildDate: 2021-11-21T20:25:43Z
; resolution=0.05mm
; path_tolerance=5.0%
; max_radius=9999.00mm
; default_xyz_precision=3
; default_e_precision=5
; extrusion_rate_variance_percent=5.0%














; 

; external perimeters extrusion width = 0.42mm
; perimeters extrusion width = 0.45mm
; infill extrusion width = 0.45mm
; solid infill extrusion width = 0.50mm
; top infill extrusion width = 0.42mm
; support material extrusion width = 0.42mm
; first layer extrusion width = 0.56mm

M73 P0 R126
M201 X2500 Y2500 Z200 E2500 ; sets maximum accelerations, mm/sec^2
M203 X200 Y200 Z40 E100 ; sets maximum feedrates, mm / sec
M204 P2000 R1200 T2000 ; sets acceleration (P, T) and retract acceleration (R), mm/sec^2
M205 X8.00 Y8.00 Z2.00 E10.00 ; sets the jerk limits, mm/sec
M205 S0 T0 ; sets the minimum extruding and travel feed rate, mm/sec
;TYPE:Custom
M17 ; enable steppers
M862.3 P "MK4" ; printer model check
M862.1 P0.4 ; nozzle diameter check
M115 U5.0.1+12089

M555 X23.5558 Y42.84 W202.888 H120.32

G90 ; use absolute coordinates
M83 ; extruder relative mode

M140 S55 ; set bed temp

M104 S170 ; set extruder temp for bed leveling
M109 R170 ; wait for temp


M84 E ; turn off E motor

G28 ; home all without mesh bed level

G1 X42 Y-4 Z5 F4800

M302 S160 ; lower cold extrusion limit to 160C


G1 E-2 F2400 ; retraction


M84 E ; turn off E motor

G29 P9 X10 Y-4 W32 H4

M106 S100

G0 Z40 F10000

M190 S55 ; wait for bed temp

M107


; MBL

M84 E ; turn off E motor
G29 P1 ; invalidate mbl & probe print area
G29 P1 X0 Y0 W50 H20 C ; probe near purge place
G29 P3.2 ; interpolate mbl probes
G29 P3.13 ; extrapolate mbl outside probe area
G29 A ; activate mbl

; prepare for purge
M104 S205
G0 X0 Y-4 Z15 F4800 ; move away and ready for the purge
M109 S205

G92 E0
M569 S0 E ; set spreadcycle mode for extruder


; Extrude purge line

G92 E0 ; reset extruder position
G1 E2 F2400 ; deretraction after the initial one before nozzle cleaning
G0 E7 X15 Z0.2 F500 ; purge
G0 X25 E4 F500 ; purge
G0 X35 E4 F650 ; purge
G0 X45 E4 F800 ; purge
G0 X48 Z0.05 F8000 ; wipe, move close to the bed
G0 X51 Z0.2 F8000 ; wipe, move quickly away from the bed

G92 E0
M221 S100 ; set flow to 100%
G21 ; set units to millimeters
G90 ; use absolute coordinates
M83 ; use relative distances for extrusion
M900 K0.04 ; Filament gcode



M142 S40 ; set heatbreak target temp
M107
;LAYER_CHANGE
;Z:0.28
;HEIGHT:0.28
;BEFORE_LAYER_CHANGE
G92 E0.0
;0.28


G1 E-.8 F2100
G1 Z.2 F7200
G1 Z.28
;AFTER_LAYER_CHANGE
;0.28
G1 Z.48
G1 X25.235 Y47.47
G1 Z.28
G1 E.8 F1500
;TYPE:Skirt/Brim
;WIDTH:0.56
G1 F3000
G3 X26.427 Y47.090 I1.434 J2.440 E0.07326
G1 X223.628 Y47.095 E11.4761
G3 X226.194 Y49.710 I-0.347 J2.907 E0.23029
G1 X226.194 Y160.289 E6.43514
G3 X225.691 Y161.672 I-2.856 J-0.256 E0.08651
G3 X224.765 Y162.530 I-2.717 J-2.004 E0.07377
G3 X223.573 Y162.910 I-1.434 J-2.440 E0.07326
G1 X26.427 Y162.91 E11.4729
G3 X25.044 Y162.407 I0.250 J-2.840 E0.08651
G3 X24.185 Y161.480 I2.012 J-2.726 E0.07385
G3 X23.806 Y160.289 I2.449 J-1.435 E0.07318
G1 X23.806 Y49.711 E6.43508
G3 X24.309 Y48.328 I2.856 J0.256 E0.08651
G3 X25.187 Y47.505 I2.602 J1.896 E0.07031
G1 X25.478 Y47.91 F7200
G1 F3000
G3 X26.452 Y47.590 I1.185 J1.965 E0.06004
G1 X223.6 Y47.595 E11.47301
G3 X225.694 Y49.735 I-0.319 J2.407 E0.18775
G1 X225.694 Y160.264 E6.43223
G3 X223.548 Y162.410 I-2.414 J-0.268 E0.19081
G1 X26.452 Y162.41 E11.46999
G3 X24.306 Y160.264 I0.268 J-2.414 E0.19082
G1 X24.306 Y49.736 E6.43217
G3 X25.430 Y47.945 I2.431 J0.278 E0.12729
G1 X25.72 Y48.346 F7200
G1 F3000
G3 X26.477 Y48.090 I0.942 J1.539 E0.04679
G1 X223.573 Y48.095 E11.46999
G3 X225.194 Y49.761 I-0.293 J1.907 E0.14519
G1 X225.194 Y160.239 E6.42926
G3 X223.523 Y161.910 I-1.910 J-0.239 E0.14811
G1 X26.476 Y161.91 E11.46714
G3 X24.806 Y160.239 I0.242 J-1.912 E0.14804
G1 X24.806 Y49.761 E6.42926
G3 X25.672 Y48.381 I1.876 J0.216 E0.09785
G1 X25.959 Y48.789 F7200
G1 F3000
G3 X26.501 Y48.590 I0.689 J1.039 E0.03380
G1 X223.545 Y48.595 E11.46696
G3 X224.694 Y49.785 I-0.267 J1.408 E0.10259
G1 X224.694 Y160.215 E6.42647
G3 X223.499 Y161.410 I-1.408 J-0.213 E0.10528
G1 X26.501 Y161.41 E11.46429
G3 X25.306 Y160.215 I0.213 J-1.408 E0.10528
G1 X25.306 Y49.785 E6.42647
G1 X25.344 Y49.593 E.01139
M73 P0 R125
G3 X25.910 Y48.823 I1.371 J0.415 E0.05652
G1 X26.207 Y49.222 F7200
G1 F3000
G1 X26.525 Y49.09 E.02004
G1 X223.475 Y49.09 E11.46149
G1 X223.752 Y49.195 E.01724
G3 X224.194 Y49.810 I-0.475 J0.808 E0.04503
G1 X224.194 Y160.19 E6.42356
G1 X224.09 Y160.468 E.01727
G3 X223.475 Y160.910 I-0.811 J-0.480 E0.04502
G1 X26.525 Y160.91 E11.46149
G1 X26.248 Y160.805 E.01724
G3 X25.806 Y160.190 I0.475 J-0.808 E0.04503
G1 X25.806 Y49.81 E6.42356
G3 X26.165 Y49.264 I0.821 J0.149 E0.03880
G1 X26.508 Y49.628 F7200
G1 F3000
G1 X26.6 Y49.59 E.00579
G1 X223.4 Y49.59 E11.45276
G3 X223.694 Y49.884 I-0.115 J0.409 E0.02508
G1 X223.694 Y160.116 E6.41494
G3 X223.400 Y160.410 I-0.409 J-0.115 E0.02508
G1 X26.6 Y160.41 E11.45276
G3 X26.306 Y160.116 I0.115 J-0.409 E0.02508
M73 P1 R125
G1 X26.306 Y49.884 E6.41494
G3 X26.466 Y49.671 I0.333 J0.084 E0.01579
G1 E-.64 F2100
;WIPE_START
G1 F5760
G1 X26.6 Y49.59 E-.05423
G1 X26.905 Y49.59 E-.10577
;WIPE_END
G1 Z.48 F7200
G1 X33.871 Y56.747
G1 Z.28
G1 E.8 F1500
;TYPE:Support material
G1 F3000
G3 X32.471 Y56.746 I-0.703 J3.515 E1.22665
G3 X33.796 Y56.740 I0.678 J3.507 E0.07745
G1 X36.127 Y61.82 F7200
G1 F3000
G1 X36.127 Y59.271 E.14834
G2 X35.571 Y58.274 I-2.267 J0.611 E0.06702
G1 X35.571 Y62.249 E.23132
G3 X35.016 Y62.779 I-1.581 J-1.100 E0.04487
G1 X35.016 Y57.744 E.29301
G2 X34.461 Y57.417 I-1.099 J1.231 E0.03761
G1 X34.461 Y63.107 E.33113
G3 X33.905 Y63.296 I-0.753 J-1.303 E0.03427
G1 X33.905 Y57.227 E.35319
G2 X33.350 Y57.152 I-0.461 J1.317 E0.03271
G1 X33.35 Y63.376 E.36221
G3 X32.794 Y63.357 I-0.231 J-1.397 E0.03252
G1 X32.794 Y57.167 E.36023
G2 X32.239 Y57.287 I0.023 J1.452 E0.03320
G1 X32.239 Y63.237 E.34626
G3 X31.683 Y63.002 I0.309 J-1.507 E0.03530
G1 X31.683 Y57.522 E.31891
G2 X31.128 Y57.905 I0.680 J1.579 E0.03943
G1 X31.128 Y62.618 E.27427
G3 X30.572 Y62.010 I1.221 J-1.675 E0.04814
G1 X30.572 Y58.159 E.22411
G1 E-.64 F2100
;WIPE_START
G1 F5760
G1 X30.572 Y58.621 E-.16
;WIPE_END
G1 Z.48 F7200
G1 X33.829 Y149.795
G1 Z.28
G1 E.8 F1500
G1 F3000
G3 X33.170 Y149.730 I-0.659 J3.311 E1.19396
G1 X33.754 Y149.788 E.03415
G1 X35.571 Y155.122 F7200
G1 F3000
G1 X35.571 Y151.446 E.21392
G2 X35.016 Y150.857 I-1.743 J1.086 E0.04731
G1 X35.016 Y155.356 E.26182
G3 X34.461 Y155.716 I-1.185 J-1.219 E0.03868
G1 X34.461 Y150.497 E.30372
G2 X33.905 Y150.289 I-0.797 J1.283 E0.03469
G1 X33.905 Y155.925 E.32799
G3 X33.350 Y156.013 I-0.508 J-1.407 E0.03283
G1 X33.35 Y150.2 E.33829
G2 X32.794 Y150.220 I-0.227 J1.438 E0.03251
G1 X32.794 Y155.994 E.33602
G3 X32.239 Y155.865 I0.055 J-1.494 E0.03330
G1 X32.239 Y150.348 E.32106
G2 X31.683 Y150.602 I0.358 J1.519 E0.03572
G1 X31.683 Y155.612 E.29156
G3 X31.128 Y155.195 I0.772 J-1.605 E0.04053
G1 X31.128 Y151.018 E.24308
G2 X30.572 Y151.793 I1.587 J1.725 E0.05578
G1 X30.572 Y154.883 E.17982
G1 E-.64 F2100
;WIPE_START
G1 F5760
G1 X30.572 Y154.421 E-.16
;WIPE_END
G1 Z.48 F7200
G1 X217.939 Y149.795
G1 Z.28
G1 E.8 F1500
G1 F3000
G3 X217.280 Y149.730 I-0.659 J3.311 E1.19400
G1 X217.864 Y149.788 E.03415
G1 X219.983 Y154.7 F7200
G1 F3000
G1 X219.983 Y151.992 E.15759
G2 X219.428 Y151.136 I-2.401 J0.949 E0.05966
G1 X219.428 Y155.077 E.22935
G1 X219.348 Y155.174 E.00732
G1 X218.872 Y155.555 E.03548
G1 X218.872 Y150.658 E.28498
G2 X218.317 Y150.380 I-0.980 J1.264 E0.03621
G1 X218.317 Y155.833 E.31734
G3 X217.761 Y155.983 I-0.659 J-1.339 E0.03359
G1 X217.761 Y150.23 E.3348
G2 X217.206 Y150.190 I-0.381 J1.410 E0.03246
G1 X217.206 Y156.023 E.33945
G1 X216.65 Y155.956 E.03259
G1 X216.65 Y150.257 E.33165
G2 X216.095 Y150.441 I0.164 J1.424 E0.03411
G1 X216.095 Y155.773 E.3103
G3 X215.539 Y155.442 I0.557 J-1.568 E0.03779
G1 X215.539 Y150.771 E.27183
G2 X214.984 Y151.318 I1.104 J1.675 E0.04557
G1 X214.984 Y154.896 E.20822
G3 X214.429 Y153.730 I2.005 J-1.670 E0.07590
G1 X214.429 Y151.791 E.11284
G1 E-.64 F2100
;WIPE_START
G1 F5760
G1 X214.429 Y152.253 E-.16
;WIPE_END
G1 Z.48 F7200
G1 X217.981 Y56.747
G1 Z.28
G1 E.8 F1500
G1 F3000
G3 X216.581 Y56.746 I-0.703 J3.515 E1.22664
G3 X217.907 Y56.740 I0.679 J3.512 E0.07750
G1 X219.983 Y62.237 F7200
G1 F3000
G1 X219.983 Y58.706 E.20549
G2 X219.428 Y57.992 I-1.858 J0.871 E0.05294
G1 X219.428 Y62.532 E.26421
G3 X218.872 Y62.946 I-1.329 J-1.205 E0.04048
G1 X218.872 Y57.578 E.31239
G2 X218.317 Y57.319 I-0.926 J1.261 E0.03578
G1 X218.317 Y63.205 E.34254
G3 X217.761 Y63.347 I-0.639 J-1.341 E0.03350
G1 X217.761 Y57.179 E.35895
G1 X217.206 Y57.137 E.03239
G1 X217.206 Y63.387 E.36372
G1 X216.65 Y63.328 E.03254
G1 X216.65 Y57.195 E.35691
G1 X216.095 Y57.364 E.03376
G1 X216.095 Y63.16 E.3373
G1 X215.539 Y62.866 E.0366
G1 X215.539 Y57.658 E.30308
G1 X215.065 Y58.047 E.03568
G1 X214.984 Y58.146 E.00744
G1 X214.984 Y62.378 E.24628
G3 X214.429 Y61.539 I1.833 J-1.815 E0.05883
G1 X214.429 Y58.507 E.17645
G1 E-.64 F2100
;WIPE_START
G1 F5760
G1 X214.429 Y58.969 E-.16
;WIPE_END
G1 Z.48 F7200
G1 X223.004 Y159.72
G1 Z.28
G1 E.8 F1500
;TYPE:External perimeter
G1 F3000
G1 X26.996 Y159.72 E11.40667
G1 X26.996 Y50.28 E6.36885
G1 X223.004 Y50.28 E11.40667
G1 X223.004 Y159.66 E6.36536
G1 X222.61 Y159.652 F7200
G1 X222.504 Y159.22
;TYPE:Perimeter
G1 F3000
G1 X27.496 Y159.22 E11.34848
G1 X27.496 Y50.78 E6.31066
G1 X222.504 Y50.78 E11.34848
G1 X222.504 Y159.16 E6.30717
G1 E-.64 F2100
;WIPE_START
G1 F5760
G1 X222.042 Y159.16 E-.16
;WIPE_END
G1 Z.48 F7200
G1 X213.211 Y153.92
G1 Z.28
G1 E.8 F1500
;TYPE:External perimeter
M73 P1 R124
G1 F3000
G3 X213.446 Y154.695 I4.070 J-0.811 E1.46789
G1 X213.229 Y153.977 E.04365
G1 X212.832 Y153.792 F7200
G1 X212.713 Y153.973
;TYPE:Perimeter
G1 F3000
G3 X213.412 Y155.691 I4.562 J-0.855 E1.58980
G3 X212.723 Y154.032 I3.812 J-2.556 E0.10505
G1 E-.64 F2100
;WIPE_START
G1 F5760
G1 X212.676 Y153.572 E-.16
;WIPE_END
G1 Z.48 F7200
G1 X212.782 Y57.357
G1 Z.28
G1 E.8 F1500
G1 F3000
G1 X212.326 Y58.21 E.05629
G1 X212.021 Y59.216 E.06118
G1 X211.918 Y60.262 E.06117
G1 X212.021 Y61.308 E.06117
G1 X212.326 Y62.314 E.06118
G1 X212.821 Y63.241 E.06116
G1 X213.488 Y64.054 E.0612
G1 X214.301 Y64.721 E.0612
G1 X215.228 Y65.216 E.06116
G1 X216.234 Y65.522 E.06119
G1 X217.28 Y65.625 E.06117
G1 X218.327 Y65.522 E.06122
G1 X219.333 Y65.216 E.06119
G1 X220.26 Y64.721 E.06116
G1 X221.072 Y64.054 E.06115
G1 X222.004 Y62.918 E.08551
G1 X222.004 Y150.581 E5.10154
G1 X221.777 Y150.638 E.01362
G1 X221.566 Y150.243 E.02606
G2 X221.566 Y155.970 I-4.286 J2.864 E1.52890
G1 X221.777 Y155.575 E.02606
G1 X222.004 Y155.632 E.01362
G1 X222.004 Y158.72 E.17971
G1 X27.996 Y158.72 E11.29028
G1 X27.996 Y154.602 E.23965
G1 X28.252 Y154.564 E.01506
G1 X28.408 Y155.079 E.03132
G2 X28.408 Y151.134 I4.762 J-1.973 E1.64654
G1 X28.252 Y151.649 E.03132
G1 X27.996 Y151.611 E.01506
G1 X27.996 Y62.385 E5.1925
G1 X28.223 Y62.328 E.01362
G1 X28.711 Y63.241 E.06025
G1 X29.378 Y64.054 E.0612
G1 X30.191 Y64.721 E.0612
G1 X31.118 Y65.216 E.06116
G1 X32.124 Y65.522 E.06119
G1 X33.17 Y65.625 E.06117
G1 X34.216 Y65.522 E.06117
G1 X35.222 Y65.216 E.06119
G1 X36.149 Y64.721 E.06116
G1 X36.962 Y64.054 E.0612
G1 X37.629 Y63.241 E.0612
G1 X38.125 Y62.314 E.06118
G1 X38.43 Y61.308 E.06118
G1 X38.533 Y60.262 E.06117
G1 X38.43 Y59.216 E.06117
G1 X38.125 Y58.21 E.06118
G1 X37.629 Y57.282 E.06123
G1 X36.962 Y56.47 E.06115
G1 X36.149 Y55.803 E.0612
G1 X35.222 Y55.307 E.06118
G1 X34.211 Y55.001 E.06147
G1 X33.131 Y54.903 E.06311
G1 X32.124 Y55.002 E.05888
G1 X31.118 Y55.307 E.06118
G1 X30.191 Y55.803 E.06118
G1 X29.378 Y56.47 E.0612
G1 X28.711 Y57.282 E.06115
G1 X28.223 Y58.196 E.0603
G1 X27.996 Y58.139 E.01362
G1 X27.996 Y51.28 E.39916
G1 X222.004 Y51.28 E11.29028
G1 X222.004 Y57.605 E.36808
G1 X221.072 Y56.47 E.08547
G1 X220.26 Y55.803 E.06115
G1 X219.333 Y55.307 E.06118
G1 X218.322 Y55.001 E.06147
G1 X217.241 Y54.903 E.06317
G1 X216.234 Y55.002 E.05888
G1 X215.228 Y55.307 E.06118
G1 X214.301 Y55.803 E.06118
G1 X213.488 Y56.47 E.0612
G1 X212.81 Y57.304 E.06255
G1 E-.64 F2100
;WIPE_START
G1 F5760
G1 X212.592 Y57.711 E-.16
;WIPE_END
G1 Z.48 F7200
G1 X202.356 Y144.212
G1 Z.28
G1 E.8 F1500
;TYPE:External perimeter
G1 F3000
G1 X127.261 Y144.212 E4.37015
G1 X127.261 Y57.86 E5.02525
G1 X202.356 Y57.86 E4.37015
G1 X202.356 Y144.152 E5.02176
G1 X202.45 Y144.601 F7200
G1 X202.856 Y144.712
;TYPE:Perimeter
G1 F3000
G1 X126.761 Y144.712 E4.42834
G1 X126.761 Y57.36 E5.08344
G1 X202.856 Y57.36 E4.42834
G1 X202.856 Y144.652 E5.07995
G1 X203.356 Y145.212 F7200
G1 F3000
G1 X126.261 Y145.212 E4.48654
G1 X126.261 Y56.86 E5.14164
G1 X203.356 Y56.86 E4.48654
G1 X203.356 Y145.152 E5.13815
G1 E-.64 F2100
;WIPE_START
G1 F5760
G1 X202.894 Y145.152 E-.16
;WIPE_END
M73 P2 R124
G1 Z.48 F7200
G1 X108.841 Y64.364
G1 Z.28
G1 E.8 F1500
;TYPE:External perimeter
G1 F3000
G3 X108.977 Y64.816 I2.337 J-0.457 E0.84181
G1 X108.857 Y64.421 E.02402
G1 X108.462 Y64.235 F7200
G1 X108.344 Y64.426
;TYPE:Perimeter
G1 F3000
G3 X108.513 Y65.008 I2.833 J-0.507 E1.01741
G1 X108.354 Y64.485 E.03181
G1 X107.848 Y64.481 F7200
G1 F3000
G3 X108.783 Y66.299 I3.331 J-0.564 E1.11521
G3 X107.853 Y64.541 I2.379 J-2.384 E0.11730
G1 E-.64 F2100
;WIPE_START
G1 F5760
G1 X107.808 Y64.081 E-.16
;WIPE_END
G1 Z.48 F7200
G1 X97.734 Y75.208
G1 Z.28
G1 E.8 F1500
;TYPE:External perimeter
G1 F3000
G1 X94.283 Y76.626 E.21712
G1 X90.604 Y75.114 E.23148
G1 X89.347 Y72.104 E.18983
G1 X90.604 Y69.093 E.18988
G1 X94.283 Y67.582 E.23145
G1 X97.964 Y69.094 E.23158
G1 X99.219 Y72.102 E.18968
G1 X97.959 Y75.115 E.19006
G1 X97.79 Y75.185 E.01065
G1 X97.779 Y75.605 F7200
G1 X98.355 Y75.465
;TYPE:Perimeter
G1 F3000
G1 X98.341 Y75.499 E.00214
G1 X94.283 Y77.166 E.2553
G1 X90.222 Y75.498 E.25549
G1 X88.805 Y72.104 E.21404
G1 X90.222 Y68.71 E.21404
G1 X94.283 Y67.041 E.25551
G1 X98.346 Y68.711 E.25564
G1 X99.76 Y72.102 E.21381
G1 X98.378 Y75.41 E.20863
G1 X98.773 Y75.762 F7200
G1 F3000
G1 X98.722 Y75.883 E.00764
G1 X94.283 Y77.707 E.27929
G1 X89.841 Y75.882 E.27947
G1 X88.263 Y72.104 E.23827
G1 X89.841 Y68.326 E.23827
G1 X94.283 Y66.501 E.27947
G1 X98.727 Y68.327 E.2796
G1 X100.302 Y72.102 E.23804
G1 X98.796 Y75.706 E.22731
G1 E-.64 F2100
;WIPE_START
G1 F5760
G1 X98.722 Y75.883 E-.06645
G1 X98.472 Y75.986 E-.09355
;WIPE_END
G1 Z.48 F7200
G1 X90.829 Y93.977
G1 Z.28
G1 E.8 F1500
;TYPE:External perimeter
G1 F3000
G1 X90.604 Y93.885 E.01415
G1 X89.347 Y90.874 E.18988
G1 X90.604 Y87.864 E.18983
G1 X94.283 Y86.352 E.23148
G1 X97.96 Y87.863 E.23135
G1 X99.219 Y90.877 E.19009
G1 X97.963 Y93.884 E.18964
G1 X94.283 Y95.397 E.23155
G1 X90.884 Y94 E.21386
G1 X90.658 Y94.15 F7200
G1 X90.208 Y94.235
;TYPE:Perimeter
G1 F3000
G1 X88.805 Y90.874 E.21195
G1 X90.222 Y87.48 E.21404
G1 X94.283 Y85.812 E.25549
G1 X98.342 Y87.48 E.25538
G1 X99.76 Y90.877 E.21422
G1 X98.345 Y94.268 E.21383
G1 X94.283 Y95.937 E.25556
G1 X90.244 Y94.277 E.25413
G1 X89.79 Y94.531 F7200
G1 F3000
G1 X88.263 Y90.874 E.23063
G1 X89.841 Y87.097 E.23821
G1 X94.283 Y85.271 E.27949
G1 X98.723 Y87.096 E.27936
G1 X100.302 Y90.877 E.23845
G1 X98.726 Y94.651 E.23801
G1 X94.283 Y96.477 E.27954
G1 X89.841 Y94.652 E.27947
G1 X89.813 Y94.586 E.00417
G1 E-.64 F2100
;WIPE_START
G1 F5760
G1 X89.635 Y94.16 E-.16
;WIPE_END
G1 Z.48 F7200
G1 X99.163 Y110.321
G1 Z.28
G1 E.8 F1500
;TYPE:External perimeter
G1 F3000
G1 X97.986 Y113.139 E.17772
G1 X94.153 Y114.712 E.24111
G1 X90.629 Y113.262 E.22176
G1 X89.348 Y110.193 E.19353
G1 X90.605 Y107.183 E.18983
G1 X94.284 Y105.671 E.23148
G1 X97.966 Y107.184 E.23166
G1 X99.219 Y110.185 E.18925
G1 X99.186 Y110.266 E.00509
G1 X99.477 Y110.568 F7200
G1 X99.755 Y110.17
;TYPE:Perimeter
G1 F3000
G1 X98.368 Y113.523 E.21116
G1 X94.153 Y115.253 E.26515
G1 X90.247 Y113.645 E.24582
G1 X88.806 Y110.193 E.21769
G1 X90.223 Y106.799 E.21404
