; generated by PrusaSlicer 2.6.0+win64 on 2025-10-30 at 18:30:02 UTC
; Postprocessed by [ArcWelder](https://github.com/FormerLurker/ArcWelderLib)
; Copyright(C) 2021 - Brad Hochgesang
; Version: 1.2.0, Branch: HEAD, BuildDate: 2021-11-21T20:25:43Z
; resolution=0.05mm
; path_tolerance=5.0%
; max_radius=9999.00mm
; default_xyz_precision=3
; default_e_precision=5
; extrusion_rate_variance_percent=5.0%














; 

; external perimeters extrusion width = 0.42mm
; perimeters extrusion width = 0.45mm
; infill extrusion width = 0.45mm
; solid infill extrusion width = 0.50mm
; top infill extrusion width = 0.42mm
; support material extrusion width = 0.42mm
; first layer extrusion width = 0.56mm

M73 P0 R118
M201 X2500 Y2500 Z200 E2500 ; sets maximum accelerations, mm/sec^2
M203 X200 Y200 Z40 E100 ; sets maximum feedrates, mm / sec
M204 P2000 R1200 T2000 ; sets acceleration (P, T) and retract acceleration (R), mm/sec^2
M205 X8.00 Y8.00 Z2.00 E10.00 ; sets the jerk limits, mm/sec
M205 S0 T0 ; sets the minimum extruding and travel feed rate, mm/sec
;TYPE:Custom
M17 ; enable steppers
M862.3 P "MK4" ; printer model check
M862.1 P0.4 ; nozzle diameter check
M115 U5.0.1+12089

M555 X23.5558 Y42.84 W202.888 H120.32

G90 ; use absolute coordinates
M83 ; extruder relative mode

M140 S55 ; set bed temp

M104 S170 ; set extruder temp for bed leveling
M109 R170 ; wait for temp


M84 E ; turn off E motor

G28 ; home all without mesh bed level

G1 X42 Y-4 Z5 F4800

M302 S160 ; lower cold extrusion limit to 160C


G1 E-2 F2400 ; retraction


M84 E ; turn off E motor

G29 P9 X10 Y-4 W32 H4

M106 S100

G0 Z40 F10000

M190 S55 ; wait for bed temp

M107


; MBL

M84 E ; turn off E motor
G29 P1 ; invalidate mbl & probe print area
G29 P1 X0 Y0 W50 H20 C ; probe near purge place
G29 P3.2 ; interpolate mbl probes
G29 P3.13 ; extrapolate mbl outside probe area
G29 A ; activate mbl

; prepare for purge
M104 S205
G0 X0 Y-4 Z15 F4800 ; move away and ready for the purge
M109 S205

G92 E0
M569 S0 E ; set spreadcycle mode for extruder


; Extrude purge line

G92 E0 ; reset extruder position
G1 E2 F2400 ; deretraction after the initial one before nozzle cleaning
G0 E7 X15 Z0.2 F500 ; purge
G0 X25 E4 F500 ; purge
G0 X35 E4 F650 ; purge
G0 X45 E4 F800 ; purge
G0 X48 Z0.05 F8000 ; wipe, move close to the bed
G0 X51 Z0.2 F8000 ; wipe, move quickly away from the bed

G92 E0
M221 S100 ; set flow to 100%
G21 ; set units to millimeters
G90 ; use absolute coordinates
M83 ; use relative distances for extrusion
M900 K0.04 ; Filament gcode



M142 S40 ; set heatbreak target temp
M107
;LAYER_CHANGE
;Z:0.28
;HEIGHT:0.28
;BEFORE_LAYER_CHANGE
G92 E0.0
;0.28


G1 E-.8 F2100
G1 Z.2 F7200
G1 Z.28
;AFTER_LAYER_CHANGE
;0.28
G1 Z.48
G1 X25.235 Y47.47
G1 Z.28
G1 E.8 F1500
;TYPE:Skirt/Brim
;WIDTH:0.56
G1 F3000
G3 X26.427 Y47.090 I1.434 J2.440 E0.07326
G1 X223.628 Y47.095 E11.4761
G3 X226.194 Y49.710 I-0.347 J2.907 E0.23029
G1 X226.194 Y160.289 E6.43514
G3 X225.691 Y161.672 I-2.856 J-0.256 E0.08651
G3 X224.765 Y162.530 I-2.717 J-2.004 E0.07377
G3 X223.573 Y162.910 I-1.434 J-2.440 E0.07326
G1 X26.427 Y162.91 E11.4729
G3 X25.044 Y162.407 I0.250 J-2.840 E0.08651
G3 X24.185 Y161.480 I2.012 J-2.726 E0.07385
G3 X23.806 Y160.289 I2.449 J-1.435 E0.07318
G1 X23.806 Y49.711 E6.43508
G3 X24.309 Y48.328 I2.856 J0.256 E0.08651
G3 X25.187 Y47.505 I2.602 J1.896 E0.07031
G1 X25.478 Y47.91 F7200
G1 F3000
G3 X26.452 Y47.590 I1.185 J1.965 E0.06004
G1 X223.6 Y47.595 E11.47301
G3 X225.694 Y49.735 I-0.319 J2.407 E0.18775
G1 X225.694 Y160.264 E6.43223
G3 X223.548 Y162.410 I-2.414 J-0.268 E0.19081
G1 X26.452 Y162.41 E11.46999
G3 X24.306 Y160.264 I0.268 J-2.414 E0.19082
G1 X24.306 Y49.736 E6.43217
G3 X25.430 Y47.945 I2.431 J0.278 E0.12729
G1 X25.72 Y48.346 F7200
G1 F3000
G3 X26.477 Y48.090 I0.942 J1.539 E0.04679
G1 X223.573 Y48.095 E11.46999
G3 X225.194 Y49.761 I-0.293 J1.907 E0.14519
G1 X225.194 Y160.239 E6.42926
G3 X223.523 Y161.910 I-1.910 J-0.239 E0.14811
G1 X26.476 Y161.91 E11.46714
G3 X24.806 Y160.239 I0.242 J-1.912 E0.14804
G1 X24.806 Y49.761 E6.42926
G3 X25.672 Y48.381 I1.876 J0.216 E0.09785
G1 X25.959 Y48.789 F7200
G1 F3000
G3 X26.501 Y48.590 I0.689 J1.039 E0.03380
M73 P0 R117
G1 X223.545 Y48.595 E11.46696
G3 X224.694 Y49.785 I-0.267 J1.408 E0.10259
G1 X224.694 Y160.215 E6.42647
G3 X223.499 Y161.410 I-1.408 J-0.213 E0.10528
G1 X26.501 Y161.41 E11.46429
G3 X25.306 Y160.215 I0.213 J-1.408 E0.10528
G1 X25.306 Y49.785 E6.42647
G3 X25.910 Y48.823 I1.386 J0.200 E0.06791
G1 X26.207 Y49.222 F7200
G1 F3000
G1 X26.525 Y49.09 E.02004
G1 X223.475 Y49.09 E11.46149
G1 X223.752 Y49.195 E.01724
G3 X224.194 Y49.810 I-0.475 J0.808 E0.04503
G1 X224.194 Y160.19 E6.42356
G1 X224.09 Y160.468 E.01727
G3 X223.475 Y160.910 I-0.811 J-0.480 E0.04502
G1 X26.525 Y160.91 E11.46149
G1 X26.248 Y160.805 E.01724
G3 X25.806 Y160.190 I0.475 J-0.808 E0.04503
G1 X25.806 Y49.81 E6.42356
G3 X26.165 Y49.264 I0.821 J0.149 E0.03880
G1 X26.508 Y49.628 F7200
G1 F3000
G1 X26.6 Y49.59 E.00579
G1 X223.4 Y49.59 E11.45276
G3 X223.694 Y49.884 I-0.115 J0.409 E0.02508
M73 P1 R117
G1 X223.694 Y160.116 E6.41494
G3 X223.400 Y160.410 I-0.409 J-0.115 E0.02508
G1 X26.6 Y160.41 E11.45276
G3 X26.306 Y160.116 I0.115 J-0.409 E0.02508
G1 X26.306 Y49.884 E6.41494
G3 X26.465 Y49.671 I0.336 J0.085 E0.01575
G1 E-.64 F2100
;WIPE_START
G1 F5760
G1 X26.6 Y49.59 E-.05453
G1 X26.905 Y49.59 E-.10547
;WIPE_END
G1 Z.48 F7200
G1 X33.378 Y53.582
G1 Z.28
G1 E.8 F1500
;TYPE:Support material
G1 F3000
G3 X32.720 Y53.517 I-0.659 J3.311 E1.19406
G1 X33.304 Y53.575 E.03415
G1 X35.571 Y58.209 F7200
G1 F3000
G1 X35.571 Y56.27 E.11284
G2 X35.016 Y55.104 I-2.242 J0.352 E0.07590
G1 X35.016 Y58.682 E.20822
G3 X34.461 Y59.229 I-1.659 J-1.128 E0.04557
G1 X34.461 Y54.558 E.27183
G2 X33.905 Y54.227 I-1.113 J1.237 E0.03779
G1 X33.905 Y59.559 E.3103
G3 X33.350 Y59.743 I-0.719 J-1.240 E0.03411
G1 X33.35 Y54.044 E.33165
G1 X32.794 Y53.977 E.03259
G1 X32.794 Y59.81 E.33945
G3 X32.239 Y59.770 I-0.174 J-1.450 E0.03246
G1 X32.239 Y54.017 E.3348
G2 X31.683 Y54.167 I0.103 J1.489 E0.03359
G1 X31.683 Y59.62 E.31734
G3 X31.128 Y59.342 I0.425 J-1.542 E0.03621
G1 X31.128 Y54.445 E.28498
G1 X30.652 Y54.826 E.03548
G1 X30.572 Y54.923 E.00732
G1 X30.572 Y58.864 E.22935
G3 X30.017 Y58.008 I1.846 J-1.805 E0.05966
G1 X30.017 Y55.3 E.15759
G1 E-.64 F2100
;WIPE_START
G1 F5760
G1 X30.017 Y55.762 E-.16
;WIPE_END
G1 Z.48 F7200
G1 X33.421 Y146.223
G1 Z.28
G1 E.8 F1500
G1 F3000
G3 X32.020 Y146.223 I-0.700 J3.515 E1.22660
G3 X33.346 Y146.216 I0.681 J3.483 E0.07751
G1 X35.571 Y151.493 F7200
G1 F3000
G1 X35.571 Y148.461 E.17645
G2 X35.016 Y147.622 I-2.388 J0.976 E0.05883
G1 X35.016 Y151.854 E.24628
G1 X34.935 Y151.953 E.00744
G1 X34.461 Y152.342 E.03568
G1 X34.461 Y147.134 E.30308
G1 X33.905 Y146.84 E.0366
G1 X33.905 Y152.636 E.3373
G1 X33.35 Y152.805 E.03376
G1 X33.35 Y146.672 E.35691
G1 X32.794 Y146.618 E.03251
G1 X32.794 Y152.863 E.36343
G3 X32.239 Y152.823 I-0.174 J-1.450 E0.03246
G1 X32.239 Y146.653 E.35906
G2 X31.683 Y146.795 I0.083 J1.483 E0.03350
G1 X31.683 Y152.681 E.34254
G3 X31.128 Y152.422 I0.371 J-1.520 E0.03578
G1 X31.128 Y147.054 E.31239
G2 X30.572 Y147.468 I0.773 J1.619 E0.04048
G1 X30.572 Y152.008 E.26421
G1 X30.505 Y151.953 E.00504
G3 X30.017 Y151.294 I1.398 J-1.545 E0.04790
G1 X30.017 Y147.763 E.20549
G1 E-.64 F2100
;WIPE_START
G1 F5760
G1 X30.017 Y148.225 E-.16
;WIPE_END
G1 Z.48 F7200
G1 X217.531 Y146.223
G1 Z.28
G1 E.8 F1500
G1 F3000
G3 X216.131 Y146.223 I-0.700 J3.515 E1.22662
G3 X217.457 Y146.216 I0.681 J3.483 E0.07751
G1 X219.428 Y151.841 F7200
G1 F3000
G1 X219.428 Y147.99 E.22411
G2 X218.872 Y147.382 I-1.777 J1.067 E0.04814
G1 X218.872 Y152.095 E.27427
G3 X218.317 Y152.478 I-1.235 J-1.196 E0.03943
G1 X218.317 Y146.998 E.31891
G2 X217.761 Y146.763 I-0.865 J1.272 E0.03530
G1 X217.761 Y152.713 E.34626
G3 X217.206 Y152.833 I-0.578 J-1.332 E0.03320
G1 X217.206 Y146.646 E.36005
G2 X216.650 Y146.624 I-0.335 J1.430 E0.03250
G1 X216.65 Y152.853 E.3625
G3 X216.095 Y152.773 I-0.070 J-1.479 E0.03274
G1 X216.095 Y146.704 E.35319
G2 X215.539 Y146.893 I0.197 J1.492 E0.03427
G1 X215.539 Y152.583 E.33113
G3 X214.984 Y152.256 I0.544 J-1.558 E0.03761
G1 X214.984 Y147.221 E.29301
G2 X214.429 Y147.751 I1.026 J1.630 E0.04487
G1 X214.429 Y151.726 E.23132
G3 X213.873 Y150.729 I1.563 J-1.525 E0.06702
G1 X213.873 Y148.18 E.14834
G1 E-.64 F2100
;WIPE_START
G1 F5760
G1 X213.873 Y148.642 E-.16
;WIPE_END
G1 Z.48 F7200
G1 X217.489 Y53.582
G1 Z.28
G1 E.8 F1500
G1 F3000
G3 X216.830 Y53.517 I-0.659 J3.311 E1.19396
G1 X217.414 Y53.575 E.03415
G1 X219.428 Y58.67 F7200
G1 F3000
G1 X219.428 Y55.58 E.17982
G2 X218.872 Y54.805 I-2.143 J0.950 E0.05578
G1 X218.872 Y58.982 E.24308
G3 X218.317 Y59.398 I-1.294 J-1.149 E0.04051
G1 X218.317 Y54.388 E.29156
G2 X217.761 Y54.135 I-0.918 J1.281 E0.03569
G1 X217.761 Y59.652 E.32106
G3 X217.206 Y59.780 I-0.598 J-1.327 E0.03329
G1 X217.206 Y54.006 E.33602
G2 X216.650 Y53.987 I-0.325 J1.378 E0.03252
G1 X216.65 Y59.8 E.33829
G3 X216.095 Y59.711 I-0.052 J-1.453 E0.03284
G1 X216.095 Y54.075 E.32799
G2 X215.539 Y54.284 I0.250 J1.509 E0.03471
G1 X215.539 Y59.503 E.30372
G3 X214.984 Y59.143 I0.630 J-1.579 E0.03868
G1 X214.984 Y54.644 E.26182
G2 X214.429 Y55.233 I1.188 J1.675 E0.04731
G1 X214.429 Y58.909 E.21392
G1 E-.64 F2100
;WIPE_START
G1 F5760
G1 X214.429 Y58.447 E-.16
;WIPE_END
G1 Z.48 F7200
G1 X223.004 Y159.72
G1 Z.28
G1 E.8 F1500
;TYPE:External perimeter
G1 F3000
G1 X26.996 Y159.72 E11.40667
G1 X26.996 Y50.28 E6.36885
G1 X223.004 Y50.28 E11.40667
G1 X223.004 Y159.66 E6.36536
G1 X222.61 Y159.652 F7200
G1 X222.504 Y159.22
;TYPE:Perimeter
G1 F3000
G1 X27.496 Y159.22 E11.34848
G1 X27.496 Y50.78 E6.31066
G1 X222.504 Y50.78 E11.34848
G1 X222.504 Y159.16 E6.30717
G1 E-.64 F2100
;WIPE_START
M73 P1 R116
G1 F5760
G1 X222.042 Y159.16 E-.16
;WIPE_END
G1 Z.48 F7200
G1 X36.748 Y148.076
G1 Z.28
G1 E.8 F1500
;TYPE:External perimeter
G1 F3000
G3 X36.343 Y147.317 I-4.029 J1.662 E1.54088
G1 X36.721 Y148.023 E.0466
G1 X37.144 Y148.128 F7200
G1 X37.191 Y147.841
;TYPE:Perimeter
G1 F3000
G1 X37.487 Y148.79 E.05785
G3 X32.683 Y144.881 I-4.762 J0.946 E1.38408
G1 X33.665 Y144.97 E.05738
G3 X37.162 Y147.789 I-0.943 J4.748 E0.27152
G1 E-.64 F2100
;WIPE_START
G1 F5760
G1 X37.305 Y148.228 E-.16
;WIPE_END
G1 Z.48 F7200
G1 X36.555 Y58.478
G1 Z.28
G1 E.8 F1500
;TYPE:External perimeter
G1 F3000
G3 X36.790 Y57.703 I-3.835 J-1.586 E1.46789
G1 X36.572 Y58.42 E.04361
G1 X36.799 Y58.795 F7200
G1 X37.03 Y58.634
;TYPE:Perimeter
G1 F3000
G3 X37.283 Y55.986 I-4.303 J-1.747 E1.54151
G3 X37.047 Y58.576 I-4.480 J0.898 E0.15328
G1 E-.64 F2100
;WIPE_START
G1 F5760
G1 X36.837 Y58.988 E-.16
;WIPE_END
G1 Z.48 F7200
G1 X219.132 Y53.441
G1 Z.28
G1 E.8 F1500
;TYPE:External perimeter
G1 F3000
G3 X218.418 Y53.059 I-2.305 J3.451 E1.46785
G1 X219.079 Y53.413 E.04364
G1 X219.491 Y53.264 F7200
G1 X219.378 Y53.005
;TYPE:Perimeter
G1 F3000
G3 X217.738 Y52.331 I-2.553 J3.880 E1.59462
G3 X219.325 Y52.977 I-0.827 J4.305 E0.10020
G1 X219.619 Y52.568 F7200
G1 F3000
G1 X218.803 Y52.131 E.05387
G2 X221.592 Y58.866 I-1.970 J4.761 E1.41134
G1 X221.748 Y58.351 E.03132
G1 X222.004 Y58.389 E.01506
G1 X222.004 Y147.615 E5.1925
G1 X221.777 Y147.672 E.01362
G1 X221.289 Y146.759 E.06025
G1 X220.622 Y145.946 E.0612
G1 X219.809 Y145.279 E.0612
G1 X218.882 Y144.784 E.06116
G1 X217.871 Y144.477 E.06149
G1 X216.791 Y144.379 E.06311
G1 X215.784 Y144.478 E.05888
G1 X214.778 Y144.784 E.06119
G1 X213.851 Y145.279 E.06116
G1 X213.038 Y145.946 E.0612
G1 X212.371 Y146.759 E.0612
G1 X211.875 Y147.686 E.06118
G1 X211.57 Y148.692 E.06118
G1 X211.467 Y149.738 E.06117
G1 X211.57 Y150.784 E.06117
G1 X211.875 Y151.79 E.06118
G1 X212.371 Y152.718 E.06123
G1 X213.038 Y153.53 E.06115
G1 X213.851 Y154.197 E.0612
G1 X214.778 Y154.693 E.06118
G1 X215.784 Y154.998 E.06118
G1 X216.83 Y155.101 E.06117
G1 X217.876 Y154.998 E.06117
G1 X218.882 Y154.693 E.06118
G1 X219.809 Y154.197 E.06118
G1 X220.622 Y153.53 E.0612
G1 X221.289 Y152.718 E.06115
G1 X221.777 Y151.804 E.0603
G1 X222.004 Y151.861 E.01362
G1 X222.004 Y158.72 E.39916
G1 X27.996 Y158.72 E11.29028
G1 X27.996 Y152.395 E.36808
G1 X28.928 Y153.53 E.08547
G1 X29.74 Y154.197 E.06115
G1 X30.667 Y154.693 E.06118
G1 X31.673 Y154.998 E.06118
G1 X32.72 Y155.101 E.06122
G1 X33.766 Y154.998 E.06117
G1 X34.772 Y154.693 E.06118
G1 X35.699 Y154.197 E.06118
G1 X36.512 Y153.53 E.0612
G1 X37.179 Y152.718 E.06115
G1 X37.674 Y151.79 E.06121
G1 X37.979 Y150.784 E.06118
G1 X38.082 Y149.738 E.06117
G1 X37.979 Y148.692 E.06117
G1 X37.674 Y147.686 E.06118
G1 X37.179 Y146.759 E.06116
G1 X36.512 Y145.946 E.0612
G1 X35.699 Y145.279 E.0612
G1 X34.772 Y144.784 E.06116
G1 X33.761 Y144.477 E.06149
G1 X32.681 Y144.379 E.06311
G1 X31.673 Y144.478 E.05894
G1 X30.667 Y144.784 E.06119
G1 X29.74 Y145.279 E.06116
G1 X28.928 Y145.946 E.06115
G1 X27.996 Y147.082 E.08551
G1 X27.996 Y59.419 E5.10154
G1 X28.223 Y59.362 E.01362
G1 X28.434 Y59.757 E.02606
G2 X28.434 Y54.030 I4.286 J-2.864 E1.52890
G1 X28.223 Y54.425 E.02606
G1 X27.996 Y54.368 E.01362
G1 X27.996 Y51.28 E.17971
G1 X222.004 Y51.28 E11.29028
G1 X222.004 Y55.398 E.23965
G1 X221.748 Y55.436 E.01506
G1 X221.592 Y54.921 E.03132
G2 X220.475 Y53.249 I-4.756 J1.968 E0.11759
G1 X219.672 Y52.596 E.06023
G1 E-.64 F2100
;WIPE_START
G1 F5760
G1 X219.265 Y52.378 E-.16
;WIPE_END
M73 P2 R116
G1 Z.48 F7200
G1 X122.739 Y152.14
G1 Z.28
G1 E.8 F1500
;TYPE:External perimeter
G1 F3000
G1 X45.032 Y152.14 E4.52215
G1 X45.032 Y65.788 E5.02525
G1 X122.739 Y65.788 E4.52215
G1 X122.739 Y152.08 E5.02176
G1 X122.836 Y152.528 F7200
G1 X123.239 Y152.64
;TYPE:Perimeter
G1 F3000
G1 X44.532 Y152.64 E4.58035
G1 X44.532 Y65.288 E5.08344
G1 X123.239 Y65.288 E4.58035
G1 X123.239 Y152.58 E5.07995
G1 X123.739 Y153.14 F7200
G1 F3000
G1 X44.032 Y153.14 E4.63854
G1 X44.032 Y64.788 E5.14164
G1 X123.739 Y64.788 E4.63854
G1 X123.739 Y153.08 E5.13815
G1 E-.64 F2100
;WIPE_START
G1 F5760
G1 X123.277 Y153.08 E-.16
;WIPE_END
G1 Z.48 F7200
G1 X151.931 Y70.649
G1 Z.28
G1 E.8 F1500
;TYPE:External perimeter
G1 F3000
G1 X150.857 Y73.244 E.16344
M73 P2 R115
G1 X148.252 Y74.324 E.16411
G1 X145.646 Y73.244 E.16416
G1 X144.567 Y70.639 E.16409
G1 X145.646 Y68.033 E.16414
G1 X148.252 Y66.954 E.16414
G1 X150.857 Y68.033 E.16409
G1 X151.917 Y70.594 E.1613
G1 X152.278 Y70.85 F7200
G1 X152.443 Y70.721
;TYPE:Perimeter
G1 F3000
G1 X151.239 Y73.627 E.18305
G1 X148.252 Y74.865 E.18817
G1 X145.264 Y73.627 E.18822
G1 X144.026 Y70.639 E.18822
G1 X145.264 Y67.651 E.18822
G1 X148.252 Y66.413 E.18822
G1 X151.239 Y67.651 E.18817
G1 X152.477 Y70.639 E.18822
G1 X152.466 Y70.665 E.00164
G1 X152.948 Y70.808 F7200
G1 F3000
G1 X151.622 Y74.01 E.20169
G1 X148.252 Y75.406 E.21228
G1 X144.881 Y74.01 E.21233
G1 X143.485 Y70.639 E.21233
G1 X144.881 Y67.268 E.21233
G1 X148.251 Y65.872 E.21228
G1 X151.622 Y67.268 E.21233
G1 X153.018 Y70.639 E.21233
G1 X152.971 Y70.753 E.00718
G1 E-.64 F2100
;WIPE_START
G1 F5760
G1 X152.794 Y71.18 E-.16
;WIPE_END
G1 Z.48 F7200
G1 X192.361 Y77.494
G1 Z.28
G1 E.8 F1500
;TYPE:External perimeter
G1 F3000
G1 X168.501 Y77.494 E1.38853
G1 X168.501 Y63.734 E.80076
G1 X192.361 Y63.734 E1.38853
G1 X192.361 Y77.434 E.79727
G1 X192.498 Y77.87 F7200
G1 X192.861 Y77.994
;TYPE:Perimeter
G1 F3000
G1 X168.001 Y77.994 E1.44673
G1 X168.002 Y63.234 E.85896
G1 X192.861 Y63.234 E1.44667
G1 X192.861 Y77.934 E.85547
G1 X193.361 Y78.494 F7200
G1 F3000
G1 X167.501 Y78.494 E1.50492
G1 X167.502 Y62.734 E.91715
G1 X193.361 Y62.734 E1.50486
G1 X193.361 Y78.434 E.91366
G1 E-.64 F2100
;WIPE_START
G1 F5760
G1 X192.899 Y78.435 E-.16
;WIPE_END
G1 Z.48 F7200
G1 X203.06 Y148.072
G1 Z.28
G1 E.8 F1500
;TYPE:External perimeter
G1 F3000
G3 X203.476 Y148.296 I1.331 J-1.974 E0.84179
G1 X203.113 Y148.101 E.02398
G1 X202.701 Y148.249 F7200
G1 X202.753 Y148.467
;TYPE:Perimeter
G1 F3000
G3 X203.825 Y148.924 I1.643 J-2.369 E0.98451
G3 X202.801 Y148.502 I0.549 J-2.786 E0.06477
G1 X202.441 Y148.858 F7200
G1 F3000
G3 X203.727 Y149.416 I1.959 J-2.753 E1.15395
G3 X202.488 Y148.896 I0.638 J-3.257 E0.07861
G1 E-.64 F2100
;WIPE_START
G1 F5760
G1 X202.131 Y148.603 E-.16
;WIPE_END
G1 Z.48 F7200
