; generated by PrusaSlicer 2.6.0+win64 on 2025-10-30 at 20:52:24 UTC
; Postprocessed by [ArcWelder](https://github.com/FormerLurker/ArcWelderLib)
; Copyright(C) 2021 - Brad Hochgesang
; Version: 1.2.0, Branch: HEAD, BuildDate: 2021-11-21T20:25:43Z
; resolution=0.05mm
; path_tolerance=5.0%
; max_radius=9999.00mm
; default_xyz_precision=3
; default_e_precision=5
; extrusion_rate_variance_percent=5.0%














; 

; external perimeters extrusion width = 0.42mm
; perimeters extrusion width = 0.45mm
; infill extrusion width = 0.45mm
; solid infill extrusion width = 0.50mm
; top infill extrusion width = 0.42mm
; support material extrusion width = 0.42mm
; first layer extrusion width = 0.56mm

M73 P0 R53
M201 X2500 Y2500 Z200 E2500 ; sets maximum accelerations, mm/sec^2
M203 X200 Y200 Z40 E100 ; sets maximum feedrates, mm / sec
M204 P2000 R1200 T2000 ; sets acceleration (P, T) and retract acceleration (R), mm/sec^2
M205 X8.00 Y8.00 Z2.00 E10.00 ; sets the jerk limits, mm/sec
M205 S0 T0 ; sets the minimum extruding and travel feed rate, mm/sec
;TYPE:Custom
M17 ; enable steppers
M862.3 P "MK4" ; printer model check
M862.1 P0.4 ; nozzle diameter check
M115 U5.0.1+12089

M555 X81.2979 Y57.305 W87.4042 H91.397

G90 ; use absolute coordinates
M83 ; extruder relative mode

M140 S55 ; set bed temp

M104 S170 ; set extruder temp for bed leveling
M109 R170 ; wait for temp


M84 E ; turn off E motor

G28 ; home all without mesh bed level

G1 X42 Y-4 Z5 F4800

M302 S160 ; lower cold extrusion limit to 160C


G1 E-2 F2400 ; retraction


M84 E ; turn off E motor

G29 P9 X10 Y-4 W32 H4

M106 S100

G0 Z40 F10000

M190 S55 ; wait for bed temp

M107


; MBL

M84 E ; turn off E motor
G29 P1 ; invalidate mbl & probe print area
G29 P1 X0 Y0 W50 H20 C ; probe near purge place
G29 P3.2 ; interpolate mbl probes
G29 P3.13 ; extrapolate mbl outside probe area
G29 A ; activate mbl

; prepare for purge
M104 S205
G0 X0 Y-4 Z15 F4800 ; move away and ready for the purge
M109 S205

G92 E0
M569 S0 E ; set spreadcycle mode for extruder


; Extrude purge line

G92 E0 ; reset extruder position
G1 E2 F2400 ; deretraction after the initial one before nozzle cleaning
G0 E7 X15 Z0.2 F500 ; purge
G0 X25 E4 F500 ; purge
G0 X35 E4 F650 ; purge
G0 X45 E4 F800 ; purge
G0 X48 Z0.05 F8000 ; wipe, move close to the bed
G0 X51 Z0.2 F8000 ; wipe, move quickly away from the bed

G92 E0
M221 S100 ; set flow to 100%
G21 ; set units to millimeters
G90 ; use absolute coordinates
M83 ; use relative distances for extrusion
M900 K0.04 ; Filament gcode



M142 S40 ; set heatbreak target temp
M107
;LAYER_CHANGE
;Z:0.28
;HEIGHT:0.28
;BEFORE_LAYER_CHANGE
G92 E0.0
;0.28


G1 E-.8 F2100
G1 Z.2 F7200
G1 Z.28
;AFTER_LAYER_CHANGE
;0.28
G1 Z.48
G1 X91.691 Y77.103
G1 Z.28
G1 E.8 F1500
;TYPE:Skirt/Brim
;WIDTH:0.56
G1 F3000
G3 X87.184 Y83.600 I33.300 J27.912 E15.42684
G3 X91.652 Y77.149 I37.346 J21.093 E0.45729
G1 X92.035 Y77.471 F7200
G1 F3000
G3 X87.620 Y83.844 I32.954 J27.545 E15.25302
G3 X91.996 Y77.516 I37.163 J21.022 E0.44833
G1 X92.379 Y77.838 F7200
G1 F3000
G3 X89.142 Y127.723 I32.621 J27.164 E12.41137
M73 P0 R52
G3 X92.340 Y77.884 I35.852 J-22.722 E3.10716
G1 X92.723 Y78.206 F7200
G1 F3000
G3 X89.015 Y83.436 I32.268 J26.807 E14.96585
G3 X92.684 Y78.252 I35.629 J21.326 E0.36995
G1 X93.067 Y78.574 F7200
G1 F3000
G3 X137.996 Y65.638 I31.934 J26.420 E2.89074
M73 P1 R52
G3 X93.028 Y78.619 I-12.995 J39.362 E12.26222
G1 X93.41 Y78.941 F7200
G1 F3000
G3 X92.715 Y79.807 I31.588 J26.062 E14.90902
G1 X93.372 Y78.987 E.06115
G1 X94.408 Y78.828 F7200
;TYPE:External perimeter
G1 F3000
G3 X91.523 Y82.632 I30.580 J26.188 E14.44363
G3 X94.369 Y78.874 I32.912 J21.968 E0.27448
G1 X94.801 Y78.9 F7200
G1 X94.79 Y79.15
;TYPE:Perimeter
G1 F3000
G3 X91.407 Y83.727 I30.200 J25.860 E14.20632
G3 X94.751 Y79.195 I33.449 J21.181 E0.32802
G1 X95.173 Y79.471 F7200
G1 F3000
G3 X92.900 Y82.393 I29.815 J25.538 E14.13911
G3 X95.134 Y79.517 I31.445 J22.120 E0.21198
G1 E-.64 F2100
;WIPE_START
G1 F5760
G1 X95.439 Y79.17 E-.16
;WIPE_END
G1 Z.48 F7200
G1 X155.383 Y80.46
G1 Z.28
G1 E.8 F1500
;TYPE:Solid infill
;WIDTH:0.561206
G1 F3000
G2 X151.081 Y76.224 I-87.577 J84.639 E0.35222
G2 X147.746 Y73.532 I-19.916 J21.261 E0.25016
G1 X156.468 Y82.253 E.71951
G3 X157.918 Y84.412 I-21.161 J15.778 E0.15176
G1 X145.588 Y72.082 E1.01721
G2 X143.857 Y71.060 I-11.203 J16.998 E0.11730
G1 X158.94 Y86.143 E1.24433
G3 X159.728 Y87.640 I-14.796 J8.744 E0.09872
G1 X142.361 Y70.272 E1.43279
G2 X141.006 Y69.626 I-7.423 J13.826 E0.08759
G1 X160.374 Y88.994 E1.59783
G1 X160.926 Y90.255 E.0803
G1 X139.745 Y69.074 E1.7474
G1 X138.591 Y68.629 E.07215
G1 X161.371 Y91.409 E1.87932
G3 X161.763 Y92.509 I-10.868 J4.493 E0.06814
G1 X137.491 Y68.238 E2.00236
G1 X136.433 Y67.888 E.06501
G1 X162.112 Y93.567 E2.11848
G1 X162.395 Y94.559 E.06018
G1 X135.441 Y67.605 E2.22367
G1 X134.461 Y67.334 E.05931
G1 X162.666 Y95.539 E2.32687
G1 X162.873 Y96.454 E.05473
G1 X133.546 Y67.127 E2.41943
G1 X132.632 Y66.922 E.05464
G1 X163.079 Y97.368 E2.51179
G1 X163.231 Y98.229 E.051
G1 X131.771 Y66.769 E2.5954
G1 X130.913 Y66.621 E.05079
G1 X163.379 Y99.087 E2.6784
G1 X163.491 Y99.907 E.04828
M73 P2 R52
G1 X130.093 Y66.509 E2.75529
G1 X129.284 Y66.409 E.04755
G1 X163.591 Y100.716 E2.83028
G1 X163.673 Y101.506 E.04633
G1 X128.494 Y66.327 E2.90222
G1 X127.729 Y66.27 E.04475
G1 X163.729 Y102.271 E2.96999
G1 X163.786 Y103.037 E.04481
G1 X126.963 Y66.214 E3.03784
G1 X126.231 Y66.19 E.04272
G1 X163.807 Y103.766 E3.09996
G1 X163.825 Y104.493 E.04242
G1 X125.502 Y66.17 E3.16159
G1 X124.796 Y66.172 E.04118
G1 X163.832 Y105.209 E3.22045
G1 X163.815 Y105.9 E.04032
G1 X124.089 Y66.175 E3.2773
G1 X123.404 Y66.198 E.03998
G1 X163.798 Y106.592 E3.33245
G1 X163.764 Y107.266 E.03937
G1 X122.734 Y66.236 E3.38491
G1 X122.074 Y66.285 E.03861
G1 X163.715 Y107.926 E3.43532
G1 X163.666 Y108.586 E.03861
G1 X121.414 Y66.334 E3.48573
G1 X120.773 Y66.402 E.0376
G1 X163.598 Y109.227 E3.533
G1 X163.52 Y109.858 E.03709
G1 X120.142 Y66.48 E3.57862
G1 X119.511 Y66.557 E.03708
G1 X163.443 Y110.489 E3.62433
G1 X163.347 Y111.102 E.0362
G1 X118.898 Y66.653 E3.66698
G1 X118.295 Y66.758 E.03571
G1 X163.242 Y111.705 E3.70806
G1 X163.137 Y112.309 E.03576
G1 X117.691 Y66.863 E3.74923
G1 X117.101 Y66.982 E.03511
M73 P2 R51
G1 X163.018 Y112.899 E3.78808
G1 X162.888 Y113.478 E.03462
G1 X116.522 Y67.112 E3.82513
G1 X115.943 Y67.242 E.03462
G1 X162.758 Y114.057 E3.86217
G1 X162.62 Y114.627 E.03421
G1 X115.373 Y67.38 E3.89781
G1 X114.818 Y67.533 E.03358
G1 X162.467 Y115.182 E3.93097
G1 X162.313 Y115.737 E.0336
G1 X114.263 Y67.687 E3.96405
G1 X113.708 Y67.841 E.0336
G1 X162.159 Y116.292 E3.99714
G1 X161.983 Y116.824 E.03269
G1 X113.176 Y68.017 E4.02651
G1 X112.643 Y68.193 E.03274
G1 X161.807 Y117.357 E4.05596
G1 X161.631 Y117.89 E.03274
M73 P3 R51
G1 X112.11 Y68.369 E4.08541
G1 X111.591 Y68.559 E.03224
G1 X161.441 Y118.409 E4.11255
G1 X161.244 Y118.92 E.03195
G1 X111.08 Y68.756 E4.13846
G1 X110.568 Y68.953 E.032
G1 X161.047 Y119.432 E4.16444
G1 X160.846 Y119.94 E.03187
G1 X110.06 Y69.154 E4.18977
G1 X109.569 Y69.371 E.03132
G1 X160.629 Y120.431 E4.21237
G1 X160.411 Y120.922 E.03134
G1 X109.078 Y69.589 E4.2349
G1 X108.587 Y69.807 E.03134
G1 X160.193 Y121.413 E4.25742
G1 X159.964 Y121.892 E.03097
G1 X108.108 Y70.036 E4.27804
G1 X107.636 Y70.274 E.03084
G1 X159.726 Y122.364 E4.29735
G1 X159.489 Y122.835 E.03076
G1 X107.165 Y70.511 E4.31665
G1 X106.694 Y70.748 E.03076
G1 X159.252 Y123.306 E4.33596
G1 X158.996 Y123.759 E.03035
G1 X106.241 Y71.004 E4.35221
G1 X105.789 Y71.261 E.03033
G1 X158.739 Y124.211 E4.3683
G1 X158.483 Y124.664 E.03035
G1 X105.336 Y71.517 E4.38455
G1 X104.89 Y71.779 E.03017
G1 X158.221 Y125.11 E4.39973
G1 X157.946 Y125.544 E.02997
G1 X104.456 Y72.054 E4.41285
G1 X104.022 Y72.329 E.02997
G1 X157.671 Y125.978 E4.42596
G1 X157.396 Y126.412 E.02997
G1 X103.588 Y72.604 E4.43908
G1 X103.166 Y72.89 E.02974
G1 X157.11 Y126.834 E4.4503
G1 X156.817 Y127.25 E.02968
G1 X102.75 Y73.183 E4.46045
G1 X102.334 Y73.475 E.02965
M73 P4 R51
G1 X156.525 Y127.666 E4.47068
G1 X156.232 Y128.082 E.02968
G1 X101.918 Y73.768 E4.48082
G1 X101.518 Y74.077 E.02949
G1 X155.923 Y128.482 E4.48833
G1 X155.613 Y128.88 E.02943
G1 X101.12 Y74.387 E4.49559
G1 X100.722 Y74.698 E.02947
G1 X155.302 Y129.278 E4.50277
G1 X154.99 Y129.675 E.02946
G1 X100.325 Y75.01 E4.50978
G1 X99.945 Y75.338 E.02928
G1 X154.662 Y130.055 E4.51407
G1 X154.333 Y130.436 E.02937
G1 X99.564 Y75.667 E4.51836
G1 X99.184 Y75.995 E.02928
G1 X154.005 Y130.816 E4.52265
G1 X153.672 Y131.191 E.02926
G1 X98.809 Y76.328 E4.52612
G1 X98.446 Y76.674 E.02925
G1 X153.326 Y131.554 E4.52752
G1 X152.98 Y131.917 E.02925
M73 P4 R50
G1 X98.083 Y77.02 E4.52892
G1 X97.72 Y77.365 E.02921
G1 X152.635 Y132.28 E4.53041
G1 X152.28 Y132.635 E.02929
G1 X97.365 Y77.72 E4.53041
G1 X97.02 Y78.083 E.02921
G1 X151.917 Y132.98 E4.52892
G1 X151.554 Y133.326 E.02925
G1 X96.674 Y78.446 E4.52752
G1 X96.328 Y78.809 E.02925
G1 X151.191 Y133.672 E4.52612
G1 X150.816 Y134.005 E.02926
G1 X95.995 Y79.184 E4.52265
G1 X95.667 Y79.564 E.02928
G1 X150.436 Y134.333 E4.51836
G1 X150.055 Y134.662 E.02937
G1 X95.338 Y79.945 E4.51407
G1 X95.01 Y80.325 E.02928
M73 P5 R50
G1 X149.675 Y134.99 E4.50978
G1 X149.278 Y135.302 E.02946
G1 X94.698 Y80.722 E4.50277
G1 X94.387 Y81.12 E.02947
G1 X148.88 Y135.613 E4.49559
G1 X148.482 Y135.923 E.02943
G1 X94.077 Y81.518 E4.48833
G1 X93.768 Y81.918 E.02949
G1 X148.082 Y136.232 E4.48082
G1 X147.666 Y136.525 E.02968
G1 X93.475 Y82.334 E4.47068
G1 X93.182 Y82.75 E.02968
G1 X147.25 Y136.818 E4.46053
G1 X146.834 Y137.11 E.02965
G1 X92.89 Y83.166 E4.4503
G1 X92.604 Y83.588 E.02974
G1 X146.412 Y137.396 E4.43908
G1 X145.978 Y137.671 E.02997
G1 X92.329 Y84.022 E4.42596
G1 X92.054 Y84.456 E.02997
G1 X145.544 Y137.946 E4.41285
G1 X145.11 Y138.221 E.02997
G1 X91.779 Y84.89 E4.39973
G1 X91.517 Y85.336 E.03017
G1 X144.664 Y138.483 E4.38455
G1 X144.211 Y138.739 E.03035
G1 X91.261 Y85.789 E4.3683
G1 X91.004 Y86.241 E.03033
G1 X143.759 Y138.996 E4.35221
G1 X143.306 Y139.252 E.03035
G1 X90.748 Y86.694 E4.33596
G1 X90.511 Y87.165 E.03076
G1 X142.835 Y139.489 E4.31665
G1 X142.364 Y139.726 E.03076
G1 X90.274 Y87.636 E4.29735
G1 X90.036 Y88.108 E.03084
G1 X141.892 Y139.964 E4.27804
G1 X141.413 Y140.193 E.03097
G1 X89.807 Y88.587 E4.25742
G1 X89.589 Y89.078 E.03134
G1 X140.922 Y140.411 E4.2349
G1 X140.431 Y140.629 E.03134
M73 P6 R50
G1 X89.371 Y89.569 E4.21237
G1 X89.154 Y90.06 E.03132
G1 X139.94 Y140.846 E4.18977
G1 X139.432 Y141.047 E.03187
G1 X88.953 Y90.568 E4.16444
G1 X88.756 Y91.08 E.032
G1 X138.92 Y141.244 E4.13846
G1 X138.409 Y141.441 E.03195
G1 X88.559 Y91.591 E4.11255
G1 X88.369 Y92.11 E.03224
G1 X137.89 Y141.631 E4.08541
G1 X137.357 Y141.807 E.03274
G1 X88.193 Y92.643 E4.05596
G1 X88.017 Y93.176 E.03274
G1 X136.824 Y141.983 E4.02651
G1 X136.292 Y142.159 E.03269
M73 P6 R49
G1 X87.841 Y93.708 E3.99714
G1 X87.687 Y94.263 E.0336
G1 X135.737 Y142.313 E3.96405
G1 X135.182 Y142.467 E.0336
G1 X87.533 Y94.818 E3.93097
G1 X87.38 Y95.373 E.03358
G1 X134.627 Y142.62 E3.89781
G1 X134.057 Y142.758 E.03421
G1 X87.242 Y95.943 E3.86217
G1 X87.112 Y96.522 E.03462
G1 X133.478 Y142.888 E3.82513
G1 X132.899 Y143.018 E.03462
G1 X86.982 Y97.101 E3.78808
G1 X86.863 Y97.691 E.03511
G1 X132.309 Y143.137 E3.74923
G1 X131.705 Y143.242 E.03576
G1 X86.758 Y98.295 E3.70806
G1 X86.653 Y98.899 E.03576
G1 X131.101 Y143.347 E3.66689
G1 X130.489 Y143.443 E.03614
G1 X86.557 Y99.511 E3.62433
G1 X86.48 Y100.142 E.03708
G1 X129.858 Y143.52 E3.57862
G1 X129.227 Y143.598 E.03709
G1 X86.402 Y100.773 E3.533
G1 X86.334 Y101.414 E.0376
G1 X128.586 Y143.666 E3.48573
G1 X127.926 Y143.715 E.03861
M73 P7 R49
G1 X86.285 Y102.074 E3.43532
G1 X86.236 Y102.734 E.03861
G1 X127.266 Y143.764 E3.38491
G1 X126.592 Y143.798 E.03937
G1 X86.202 Y103.408 E3.33212
G1 X86.185 Y104.1 E.04038
G1 X125.9 Y143.815 E3.27643
G1 X125.209 Y143.832 E.04032
G1 X86.168 Y104.791 E3.22082
G1 X86.175 Y105.508 E.04183
G1 X124.492 Y143.825 E3.1611
G1 X123.766 Y143.807 E.04236
G1 X86.193 Y106.234 E3.09972
G1 X86.214 Y106.964 E.0426
G1 X123.036 Y143.786 E3.03776
G1 X122.271 Y143.729 E.04475
G1 X86.271 Y107.729 E2.96995
G1 X86.327 Y108.494 E.04475
G1 X121.506 Y143.673 E2.90222
G1 X120.715 Y143.591 E.04639
G1 X86.409 Y109.285 E2.83019
G1 X86.509 Y110.093 E.04749
G1 X119.907 Y143.491 E2.75529
G1 X119.086 Y143.379 E.04834
G1 X86.621 Y110.914 E2.67831
G1 X86.769 Y111.771 E.05073
G1 X118.229 Y143.231 E2.5954
G1 X117.368 Y143.079 E.051
G1 X86.922 Y112.632 E2.51179
G1 X87.127 Y113.546 E.05464
G1 X116.454 Y142.873 E2.41943
G1 X115.539 Y142.666 E.05473
G1 X87.334 Y114.461 E2.32687
G1 X87.605 Y115.441 E.05931
G1 X114.559 Y142.395 E2.22367
G1 X113.567 Y142.112 E.06018
G1 X87.888 Y116.433 E2.11848
G1 X88.238 Y117.491 E.06501
G1 X112.509 Y141.763 E2.00236
G3 X111.409 Y141.371 I3.393 J-11.260 E0.06814
G1 X88.629 Y118.591 E1.87932
G1 X89.074 Y119.745 E.07215
G1 X110.255 Y140.926 E1.7474
G1 X108.994 Y140.374 E.0803
G1 X89.626 Y121.006 E1.59783
G2 X90.272 Y122.361 I14.472 J-6.068 E0.08759
G1 X107.639 Y139.728 E1.43275
G3 X106.142 Y138.940 I7.448 J-15.966 E0.09872
G1 X91.06 Y123.858 E1.24424
G2 X92.082 Y125.588 I18.148 J-9.554 E0.11725
G1 X104.412 Y137.918 E1.01721
G3 X102.253 Y136.468 I13.619 J-22.611 E0.15176
G1 X93.532 Y127.747 E.71947
G2 X97.524 Y132.447 I30.255 J-21.652 E0.36011
G1 X100.46 Y135.383 E.24222
;LAYER_CHANGE
;Z:0.48
;HEIGHT:0.2
;BEFORE_LAYER_CHANGE
G92 E0.0
;0.48


G1 E-.64 F2100
;WIPE_START
G1 F5760
G1 X100.133 Y135.056 E-.16
;WIPE_END
G1 Z.48 F7200
;AFTER_LAYER_CHANGE
;0.48
G1 Z.68
G1 X94.273 Y78.697
G1 Z.48
G1 E.8 F1500
;TYPE:External perimeter
;WIDTH:0.42
G1 F4500
G3 X121.035 Y145.254 I30.728 J26.303 E5.20298
M73 P8 R49
G3 X94.235 Y78.743 I3.963 J-40.252 E2.76360
G1 X94.667 Y78.769 F7200
G1 X94.573 Y78.95
;TYPE:Perimeter
;WIDTH:0.45
G1 F8843.478
G3 X92.250 Y81.935 I30.415 J26.066 E8.39079
G3 X94.535 Y78.995 I31.859 J22.403 E0.12608
G1 X94.885 Y79.212 F7200
G1 F8843.478
G3 X91.502 Y83.787 I30.103 J25.798 E8.23894
G3 X94.846 Y79.258 I32.771 J20.698 E0.19071
G1 E-.64 F2100
;WIPE_START
G1 F5760
G1 X95.151 Y78.911 E-.16
;WIPE_END
G1 Z.68 F7200
G1 X98.527 Y75.792
G1 Z.48
G1 E.8 F1500
;TYPE:Solid infill
;WIDTH:0.38292
G1 F9000
G1 X97.142 Y77.142 E.05468
G1 X98.363 Y75.951 E.04822
G1 E-.64 F2100
;WIPE_START
G1 F5760
G1 X98.032 Y76.274 E-.16
;WIPE_END
G1 Z.68 F7200
G1 X102.246 Y72.775
G1 Z.48
G1 E.8 F1500
G1 F9000
G1 X101.541 Y73.369 E.02606
;WIDTH:0.415006
G1 X101.098 Y73.76 E.01828
;WIDTH:0.447092
G1 F8907.099
G1 X100.655 Y74.152 E.01988
;WIDTH:0.473546
G1 F8359.932
G1 X100.493 Y74.295 E.00774
;WIDTH:0.499999
G1 F7876.1
G1 X100.332 Y74.438 E.00818
G1 X94.438 Y80.332 E.3168
G1 X94.295 Y80.493 E.00818
;WIDTH:0.473546
G1 F8359.932
G1 X94.152 Y80.655 E.00774
;WIDTH:0.447092
G1 F8907.099
G1 X93.76 Y81.098 E.01988
;WIDTH:0.415006
G1 F9000
G1 X93.369 Y81.541 E.01828
;WIDTH:0.38292
G1 X92.775 Y82.246 E.02606
G1 X92.334 Y83.202 F7200
;WIDTH:0.426864
G1 F9000
G1 X92.287 Y83.214 E.00155
G1 X92.266 Y83.134 E.00264
G1 X92.346 Y83.155 E.00264
;WIDTH:0.463432
G1 F8561.003
G1 X92.459 Y83 E.00671
;WIDTH:0.499999
G1 F7876.1
G1 X92.571 Y82.845 E.00727
G1 X102.845 Y72.571 E.55222
G1 X103.023 Y72.452 E.00814
;WIDTH:0.463431
G1 F8561.023
G1 X103.202 Y72.334 E.0075
;WIDTH:0.426862
G1 F9000
G1 X103.155 Y72.346 E.00155
G1 X103.134 Y72.266 E.00264
G1 X103.214 Y72.287 E.00264
G1 E-.64 F2100
;WIPE_START
G1 F5760
G1 X103.134 Y72.266 E-.02865
G1 X103.155 Y72.346 E-.02865
G1 X103.202 Y72.334 E-.0168
G2 X102.995 Y72.471 I5.019 J7.809 E-0.08590
;WIPE_END
G1 Z.68 F7200
G1 X105.037 Y71.129
G1 Z.48
G1 E.8 F1500
;WIDTH:0.397628
G1 F9000
G1 X104.963 Y71.109 E.00226
G1 X104.983 Y71.183 E.00226
G1 X105.026 Y71.172 E.00131
;WIDTH:0.431752
G1 X104.907 Y71.245 E.00451
;WIDTH:0.465876
G1 F8511.537
G1 X104.789 Y71.318 E.00488
;WIDTH:0.499999
G1 F7876.1
G1 X104.671 Y71.391 E.00527
G1 X91.391 Y84.671 E.71379
G1 X91.318 Y84.789 E.00527
;WIDTH:0.465876
G1 F8511.524
G1 X91.245 Y84.907 E.00488
;WIDTH:0.431753
G1 F9000
G1 X91.172 Y85.026 E.00451
;WIDTH:0.39763
G1 X91.129 Y85.037 E.00131
