; generated by PrusaSlicer 2.6.0+win64 on 2026-04-01 at 22:51:57 UTC
; Postprocessed by [ArcWelder](https://github.com/FormerLurker/ArcWelderLib)
; Copyright(C) 2021 - Brad Hochgesang
; Version: 1.2.0, Branch: HEAD, BuildDate: 2021-11-21T20:25:43Z
; resolution=0.05mm
; path_tolerance=5.0%
; max_radius=9999.00mm
; default_xyz_precision=3
; default_e_precision=5
; extrusion_rate_variance_percent=5.0%














; 

; external perimeters extrusion width = 0.42mm
; perimeters extrusion width = 0.45mm
; infill extrusion width = 0.45mm
; solid infill extrusion width = 0.50mm
; top infill extrusion width = 0.42mm
; support material extrusion width = 0.42mm
; first layer extrusion width = 0.56mm

M73 P0 R53
M201 X2500 Y2500 Z200 E2500 ; sets maximum accelerations, mm/sec^2
M203 X200 Y200 Z40 E100 ; sets maximum feedrates, mm / sec
M204 P2000 R1200 T2000 ; sets acceleration (P, T) and retract acceleration (R), mm/sec^2
M205 X8.00 Y8.00 Z2.00 E10.00 ; sets the jerk limits, mm/sec
M205 S0 T0 ; sets the minimum extruding and travel feed rate, mm/sec
;TYPE:Custom
M17 ; enable steppers
M862.3 P "MK4" ; printer model check
M862.1 P0.4 ; nozzle diameter check
M115 U5.0.1+12089

M555 X87.0895 Y53.5288 W86.0816 H90.0724

G90 ; use absolute coordinates
M83 ; extruder relative mode

M140 S55 ; set bed temp

M104 S170 ; set extruder temp for bed leveling
M109 R170 ; wait for temp


M84 E ; turn off E motor

G28 ; home all without mesh bed level

G1 X42 Y-4 Z5 F4800

M302 S160 ; lower cold extrusion limit to 160C


G1 E-2 F2400 ; retraction


M84 E ; turn off E motor

G29 P9 X10 Y-4 W32 H4

M106 S100

G0 Z40 F10000

M190 S55 ; wait for bed temp

M107


; MBL

M84 E ; turn off E motor
G29 P1 ; invalidate mbl & probe print area
G29 P1 X0 Y0 W50 H20 C ; probe near purge place
G29 P3.2 ; interpolate mbl probes
G29 P3.13 ; extrapolate mbl outside probe area
G29 A ; activate mbl

; prepare for purge
M104 S205
G0 X0 Y-4 Z15 F4800 ; move away and ready for the purge
M109 S205

G92 E0
M569 S0 E ; set spreadcycle mode for extruder


; Extrude purge line

G92 E0 ; reset extruder position
G1 E2 F2400 ; deretraction after the initial one before nozzle cleaning
G0 E7 X15 Z0.2 F500 ; purge
G0 X25 E4 F500 ; purge
G0 X35 E4 F650 ; purge
G0 X45 E4 F800 ; purge
G0 X48 Z0.05 F8000 ; wipe, move close to the bed
G0 X51 Z0.2 F8000 ; wipe, move quickly away from the bed

G92 E0
M221 S100 ; set flow to 100%
G21 ; set units to millimeters
G90 ; use absolute coordinates
M83 ; use relative distances for extrusion
M900 K0.04 ; Filament gcode



M142 S40 ; set heatbreak target temp
M107
;LAYER_CHANGE
;Z:0.28
;HEIGHT:0.28
;BEFORE_LAYER_CHANGE
G92 E0.0
;0.28


G1 E-.8 F2100
G1 Z.2 F7200
G1 Z.28
;AFTER_LAYER_CHANGE
;0.28
G1 Z.48
G1 X96.392 Y74.24
G1 Z.28
G1 E.8 F1500
;TYPE:Skirt/Brim
;WIDTH:0.56
G1 F3000
G3 X95.755 Y75.078 I33.745 J26.312 E15.58413
G1 X96.356 Y74.288 E.05777
G1 X96.754 Y74.591 F7200
G1 F3000
G3 X94.965 Y77.068 I33.362 J25.980 E15.28492
G3 X96.717 Y74.639 I34.301 J22.894 E0.17432
G1 X97.115 Y74.941 F7200
G1 F3000
G3 X95.958 Y76.505 I33.008 J25.629 E15.16666
G1 X97.079 Y74.989 E.10972
G1 X97.477 Y75.292 F7200
G1 F3000
G3 X94.198 Y80.219 I32.644 J25.280 E14.75231
G3 X97.440 Y75.339 I35.762 J20.241 E0.34122
G1 X97.838 Y75.642 F7200
G1 F3000
G3 X167.811 Y84.939 I32.294 J24.917 E4.96423
M73 P1 R53
G3 X97.802 Y75.690 I-37.679 J15.622 E9.94656
G1 X98.2 Y75.993 F7200
G1 F3000
G3 X94.142 Y82.444 I31.918 J24.580 E14.28719
G3 X98.163 Y76.040 I35.596 J17.886 E0.44067
G1 E-.64 F2100
;WIPE_START
G1 F5760
G1 X98.454 Y75.681 E-.16
;WIPE_END
G1 Z.48 F7200
G1 X142.551 Y62.958
G1 Z.28
G1 E.8 F1500
;TYPE:External perimeter
G1 F3000
G3 X140.688 Y62.393 I-12.421 J37.602 E14.36526
G1 X142.494 Y62.941 E.10983
G1 X142.632 Y63.35 F7200
G1 X142.397 Y63.434
;TYPE:Perimeter
G1 F3000
G3 X140.552 Y62.874 I-12.275 J37.124 E14.18341
G1 X142.34 Y63.416 E.10873
G1 X142.243 Y63.91 F7200
G1 F3000
G3 X158.089 Y127.175 I-12.112 J36.651 E4.52008
M73 P1 R52
G3 X142.186 Y63.892 I-27.959 J-26.614 E9.58940
G1 E-.64 F2100
;WIPE_START
G1 F5760
G1 X142.621 Y64.047 E-.16
;WIPE_END
G1 Z.48 F7200
G1 X143.781 Y126.887
G1 Z.28
G1 E.8 F1500
;TYPE:External perimeter
G1 F3000
G3 X152.111 Y120.478 I-13.640 J-26.346 E10.23260
G3 X143.835 Y126.860 I-21.835 J-19.758 E0.61138
G1 X143.763 Y127.286 F7200
G1 X144.36 Y127.154
;TYPE:Perimeter
G1 F3000
G3 X145.638 Y126.430 I-14.227 J-26.604 E10.94485
M73 P2 R52
G1 X144.412 Y127.125 E.08201
G1 X144.606 Y127.589 F7200
G1 F3000
G3 X145.895 Y126.859 I-14.464 J-27.044 E11.12693
G1 X144.658 Y127.56 E.08274
G1 E-.64 F2100
;WIPE_START
G1 F5760
G1 X144.246 Y127.769 E-.16
;WIPE_END
G1 Z.48 F7200
G1 X160.069 Y76.528
G1 Z.28
G1 E.8 F1500
;TYPE:Solid infill
;WIDTH:0.562313
G1 F3000
G1 X156.437 Y72.897 E.30026
G2 X152.373 Y69.542 I-24.719 J25.804 E0.30835
G1 X161.149 Y78.318 E.72561
G3 X162.571 Y80.451 I-18.371 J13.787 E0.14992
G1 X150.239 Y68.118 E1.01966
G2 X148.534 Y67.124 I-10.637 J16.286 E0.11541
G1 X163.567 Y82.157 E1.24294
G1 X164.35 Y83.65 E.09856
G1 X147.033 Y66.333 E1.43178
G2 X145.711 Y65.721 I-9.297 J18.349 E0.08518
G1 X164.988 Y84.998 E1.59384
G1 X165.506 Y86.227 E.07797
G1 X144.463 Y65.184 E1.73985
G1 X143.307 Y64.738 E.07244
G1 X165.953 Y87.384 E1.87239
G1 X166.345 Y88.486 E.06838
G1 X142.204 Y64.346 E1.99596
G1 X141.18 Y64.031 E.06264
G1 X166.66 Y89.511 E2.10671
G1 X166.961 Y90.523 E.06173
G1 X140.168 Y63.729 E2.21531
G1 X139.214 Y63.485 E.05757
G1 X167.205 Y91.477 E2.31436
G1 X167.411 Y92.393 E.05489
G1 X138.298 Y63.28 E2.40709
G1 X137.394 Y63.086 E.05405
G1 X167.604 Y93.297 E2.49783
G1 X167.754 Y94.156 E.05098
G1 X136.535 Y62.937 E2.58121
G1 X135.678 Y62.79 E.05084
G1 X148.02 Y75.132 E1.02045
G3 X155.549 Y82.662 I-17.465 J24.992 E0.62574
G1 X167.9 Y95.013 E1.02119
G1 X168.012 Y95.835 E.0485
G1 X156.871 Y84.694 E.92115
G3 X157.744 Y86.277 I-16.299 J10.021 E0.10571
G1 X168.091 Y96.625 E.85554
G1 X168.169 Y97.412 E.04624
G1 X158.415 Y87.659 E.80643
G1 X158.954 Y88.908 E.07953
G1 X168.223 Y98.177 E.76637
G1 X168.26 Y98.924 E.04373
G1 X159.4 Y90.064 E.73255
G1 X159.752 Y91.126 E.06541
G1 X168.295 Y99.669 E.70634
G1 X168.295 Y100.379 E.04151
G1 X160.053 Y92.138 E.68141
G1 X160.317 Y93.112 E.059
G1 X168.295 Y101.09 E.65963
G1 X168.284 Y101.789 E.04087
G1 X160.522 Y94.028 E.64173
G1 X160.7 Y94.915 E.05289
G1 X168.258 Y102.473 E.6249
G1 X168.217 Y103.142 E.03919
G1 X160.849 Y95.775 E.60915
G1 X160.961 Y96.597 E.0485
G1 X168.16 Y103.796 E.59522
G1 X168.097 Y104.443 E.03801
G1 X161.061 Y97.407 E.58174
G1 X161.123 Y98.179 E.04528
G1 X168.033 Y105.089 E.57132
G1 X167.953 Y105.72 E.03719
G1 X161.179 Y98.946 E.56008
G1 X161.202 Y99.678 E.04282
G1 X167.862 Y106.339 E.5507
G1 X167.757 Y106.944 E.0359
G1 X161.219 Y100.407 E.54053
G1 X161.209 Y101.107 E.04093
G1 X167.652 Y107.55 E.53271
G1 X167.541 Y108.149 E.03562
G1 X161.192 Y101.8 E.52494
G1 X161.156 Y102.474 E.03946
G1 X167.411 Y108.729 E.51717
G1 X167.281 Y109.309 E.03475
G1 X161.107 Y103.136 E.51043
G1 X161.05 Y103.788 E.03826
G1 X167.149 Y109.887 E.50427
G1 X167.001 Y110.449 E.03398
G1 X160.972 Y104.421 E.49844
G1 X160.894 Y105.053 E.03723
G1 X166.844 Y111.003 E.49195
G1 X166.679 Y111.548 E.03329
G1 X160.792 Y105.661 E.48674
G1 X160.687 Y106.266 E.0359
G1 X166.513 Y112.093 E.48174
G1 X166.345 Y112.635 E.03317
G1 X160.571 Y106.861 E.4774
G1 X160.441 Y107.441 E.03475
G1 X166.163 Y113.163 E.4731
G1 X165.973 Y113.683 E.03237
G1 X160.311 Y108.021 E.46814
G1 X160.16 Y108.581 E.03391
G1 X165.776 Y114.196 E.46429
G1 X165.578 Y114.709 E.03215
G1 X160.006 Y109.137 E.4607
G1 X159.848 Y109.689 E.03357
G1 X165.378 Y115.219 E.45722
G1 X165.16 Y115.711 E.03146
G1 X159.671 Y110.223 E.45379
G1 X159.495 Y110.756 E.03282
G1 X164.942 Y116.203 E.45036
G1 X164.724 Y116.695 E.03146
G1 X159.308 Y111.28 E.44776
G1 X159.111 Y111.792 E.03207
G1 X164.496 Y117.178 E.44528
G1 X164.264 Y117.656 E.03106
G1 X158.913 Y112.305 E.44242
G1 X158.701 Y112.803 E.03164
G1 X164.018 Y118.12 E.43961
G1 X163.771 Y118.583 E.03068
G1 X158.482 Y113.295 E.43726
G1 X158.264 Y113.787 E.03146
G1 X163.523 Y119.046 E.43482
G1 X163.272 Y119.505 E.03059
G1 X158.029 Y114.262 E.4335
G1 X157.791 Y114.734 E.0309
G1 X163.01 Y119.954 E.43155
G1 X162.742 Y120.396 E.03022
G1 X157.553 Y115.207 E.42903
G1 X157.297 Y115.66 E.03042
G1 X162.467 Y120.831 E.4275
G1 X162.192 Y121.266 E.03009
G1 X157.04 Y116.114 E.42597
G1 X156.782 Y116.566 E.03043
G1 X161.916 Y121.701 E.42452
G1 X161.625 Y122.12 E.02982
G1 X156.506 Y117.001 E.42324
G1 X156.231 Y117.436 E.03009
G1 X161.332 Y122.537 E.42175
G1 X161.039 Y122.954 E.0298
G1 X155.954 Y117.869 E.42043
G1 X155.66 Y118.286 E.02983
G1 X160.743 Y123.368 E.42023
G1 X160.436 Y123.772 E.02967
G1 X155.367 Y118.702 E.41915
G1 X155.071 Y119.117 E.0298
G1 X160.124 Y124.17 E.41779
G1 X159.804 Y124.561 E.02954
G1 X154.76 Y119.516 E.41708
G1 X154.449 Y119.915 E.02958
G1 X159.484 Y124.951 E.41634
G1 X159.164 Y125.341 E.02949
G1 X154.136 Y120.313 E.41572
G1 X153.807 Y120.694 E.02943
G1 X158.836 Y125.723 E.4158
G1 X158.503 Y126.1 E.02941
G1 X153.478 Y121.075 E.41547
G1 X153.148 Y121.456 E.02947
G1 X158.16 Y126.467 E.41435
G1 X157.814 Y126.831 E.02936
G1 X152.802 Y121.819 E.4144
G1 X152.455 Y122.183 E.0294
G1 X157.467 Y127.195 E.4144
G1 X157.127 Y127.553 E.02887
G1 X152.109 Y122.547 E.4144
G1 X151.745 Y122.893 E.02936
G1 X156.757 Y127.905 E.4144
G1 X156.393 Y128.252 E.0294
G1 X151.381 Y123.24 E.4144
G1 X151.017 Y123.586 E.02936
G1 X156.029 Y128.598 E.4144
G3 X155.661 Y128.941 I-4.358 J-4.307 E0.02942
G1 X150.636 Y123.915 E.41551
G1 X150.255 Y124.244 E.02943
G1 X155.285 Y129.274 E.41588
G1 X154.902 Y129.601 E.02944
G1 X149.873 Y124.573 E.41576
G1 X149.475 Y124.885 E.02957
G1 X154.512 Y129.922 E.41646
G1 X154.122 Y130.242 E.02949
G1 X149.076 Y125.197 E.41717
G1 X148.677 Y125.508 E.02958
G1 X153.731 Y130.562 E.41787
G3 X153.332 Y130.873 I-4.083 J-4.827 E0.02959
G1 X148.262 Y125.803 E.41919
G1 X147.845 Y126.096 E.0298
G1 X152.929 Y131.18 E.42035
G1 X152.514 Y131.475 E.02977
G1 X147.428 Y126.39 E.42047
G1 X146.995 Y126.666 E.03002
G1 X152.097 Y131.769 E.42188
G1 X151.681 Y132.062 E.02975
G1 X146.56 Y126.941 E.42341
G1 X146.125 Y127.217 E.03012
G1 X151.261 Y132.353 E.42465
G1 X150.826 Y132.628 E.03009
G1 X145.672 Y127.474 E.42614
G1 X145.218 Y127.731 E.0305
G1 X150.391 Y132.903 E.42767
G1 X149.956 Y133.179 E.03012
G1 X144.764 Y127.987 E.42928
G1 X144.292 Y128.225 E.0309
G1 X149.514 Y133.447 E.43176
G1 X149.065 Y133.708 E.03036
G1 X143.819 Y128.462 E.43374
G1 X143.344 Y128.697 E.03098
G1 X148.605 Y133.959 E.43502
G1 X148.143 Y134.206 E.03063
G1 X142.852 Y128.915 E.43746
G1 X142.359 Y129.133 E.03151
G1 X147.68 Y134.454 E.43994
G1 X147.215 Y134.699 E.03073
G1 X141.861 Y129.345 E.44267
G1 X141.348 Y129.543 E.03215
M73 P3 R52
G1 X146.737 Y134.932 E.44557
G1 X146.254 Y135.159 E.0312
G1 X140.836 Y129.74 E.44801
G1 X140.311 Y129.926 E.03256
G1 X145.762 Y135.377 E.45069
G1 X145.27 Y135.595 E.03146
G1 X139.777 Y130.103 E.45412
G1 X139.243 Y130.279 E.03287
G1 X144.778 Y135.813 E.4576
G1 X144.267 Y136.013 E.03208
G1 X138.691 Y130.437 E.46103
G1 X138.135 Y130.591 E.03373
G1 X143.754 Y136.21 E.46458
G1 X143.242 Y136.408 E.03209
G1 X137.574 Y130.74 E.46863
G1 X136.994 Y130.87 E.03475
G1 X142.721 Y136.598 E.47355
G1 X142.193 Y136.779 E.03263
G1 X136.414 Y131.001 E.47777
G1 X135.818 Y131.115 E.03548
G1 X141.65 Y136.947 E.48219
G1 X141.105 Y137.112 E.03329
G1 X135.213 Y131.22 E.48716
G1 X134.604 Y131.321 E.03609
G1 X140.56 Y137.278 E.49249
G1 X140.006 Y137.434 E.03365
G1 X133.972 Y131.399 E.49894
G1 X133.339 Y131.477 E.03729
G1 X139.444 Y137.582 E.50477
G1 X138.865 Y137.714 E.03472
G1 X132.685 Y131.534 E.51097
G1 X132.024 Y131.583 E.03875
G1 X138.285 Y137.844 E.51766
G1 X137.705 Y137.974 E.03475
G1 X131.349 Y131.617 E.52556
G1 X130.655 Y131.634 E.04059
G1 X137.106 Y138.085 E.53337
G1 X136.5 Y138.19 E.03596
G1 X129.954 Y131.643 E.54127
G1 X129.226 Y131.625 E.04257
G1 X135.895 Y138.295 E.55144
G1 X135.275 Y138.385 E.03663
G1 X128.492 Y131.602 E.56082
G1 X127.725 Y131.545 E.04497
G1 X134.644 Y138.464 E.57207
G1 X133.998 Y138.528 E.03795
G1 X126.951 Y131.482 E.58261
G1 X126.141 Y131.382 E.04772
G1 X133.351 Y138.592 E.59613
G1 X132.697 Y138.648 E.03838
G1 X125.317 Y131.267 E.61023
G1 X124.457 Y131.118 E.05103
G1 X132.028 Y138.689 E.62598
G1 X131.335 Y138.707 E.04053
G1 X123.567 Y130.939 E.64226
G1 X122.651 Y130.733 E.05489
G1 X130.642 Y138.724 E.6607
G3 X129.940 Y138.732 I-0.441 J-7.870 E0.04105
G1 X121.675 Y130.467 E.68336
G3 X120.660 Y130.162 I2.486 J-10.116 E0.06198
G1 X129.212 Y138.714 E.70709
G1 X128.483 Y138.696 E.04263
G1 X119.595 Y129.807 E.73491
G1 X118.439 Y129.361 E.07244
G1 X127.736 Y138.658 E.76868
G1 X126.964 Y138.597 E.04527
G1 X117.185 Y128.817 E.80858
G3 X115.797 Y128.140 I6.200 J-14.473 E0.09031
G1 X126.176 Y138.52 E.85819
G1 X125.386 Y138.44 E.04642
G1 X113.492 Y126.545 E.98345
G1 E-.64 F2100
;WIPE_START
G1 F5760
G1 X113.819 Y126.872 E-.16
;WIPE_END
G1 Z.48 F7200
G1 X146.69 Y74.513
G1 Z.28
G1 E.8 F1500
G1 F3000
G1 X134.856 Y62.679 E.97844
G1 X134.066 Y62.599 E.04642
G1 X144.404 Y72.938 E.8548
G2 X143.023 Y72.266 I-7.522 J13.703 E0.08981
G1 X133.278 Y62.522 E.80568
G1 X132.508 Y62.462 E.04515
G1 X141.773 Y71.727 E.76604
G1 X140.617 Y71.281 E.07244
G1 X131.759 Y62.423 E.73239
G1 X131.025 Y62.399 E.04294
G1 X139.555 Y70.93 E.70531
G2 X138.544 Y70.628 I-3.613 J10.254 E0.06170
G1 X130.31 Y62.395 E.68075
G1 X129.601 Y62.396 E.04145
G1 X137.57 Y70.365 E.65888
G1 X136.654 Y70.159 E.05489
G1 X128.905 Y62.41 E.64069
G1 X128.228 Y62.443 E.03963
G1 X135.766 Y69.981 E.62325
G1 X134.907 Y69.832 E.05097
G1 X127.551 Y62.477 E.60816
G1 X126.895 Y62.531 E.03848
G1 X134.084 Y69.72 E.59439
G1 X133.274 Y69.62 E.04772
G1 X126.248 Y62.594 E.58092
G1 X125.602 Y62.658 E.03795
G1 X132.502 Y69.558 E.5705
G1 X131.735 Y69.502 E.04496
G1 X124.977 Y62.743 E.5588
G1 X124.358 Y62.835 E.03659
G1 X130.995 Y69.472 E.54875
G1 X130.278 Y69.465 E.04192
G1 X123.74 Y62.927 E.54057
G2 X123.141 Y63.039 I0.764 J5.746 E0.03564
G1 X129.572 Y69.469 E.53168
G1 X128.881 Y69.488 E.04041
G1 X122.549 Y63.156 E.52353
G1 X121.956 Y63.274 E.03535
G1 X128.207 Y69.525 E.51684
G1 X127.546 Y69.574 E.03875
G1 X121.381 Y63.409 E.50973
G1 X120.813 Y63.551 E.03423
G1 X126.893 Y69.631 E.5027
G1 X126.261 Y69.709 E.03723
G1 X120.245 Y63.693 E.49741
G1 X119.688 Y63.847 E.03379
G1 X125.628 Y69.787 E.49112
G1 X125.02 Y69.89 E.03605
G1 X119.143 Y64.012 E.48596
G1 X118.598 Y64.177 E.03329
G1 X124.415 Y69.995 E.481
G1 X123.82 Y70.11 E.03543
M73 P3 R51
G1 X118.056 Y64.346 E.47657
G1 X117.527 Y64.527 E.03269
G1 X123.24 Y70.24 E.47236
G1 X122.66 Y70.371 E.03476
G1 X117.004 Y64.715 E.46764
G1 X116.487 Y64.907 E.03224
G1 X122.101 Y70.521 E.46417
G1 X121.544 Y70.675 E.03379
G1 X115.982 Y65.112 E.45991
G1 X115.479 Y65.32 E.03182
G1 X120.993 Y70.833 E.45586
G1 X120.459 Y71.01 E.03289
G1 X114.977 Y65.528 E.45326
G1 X114.483 Y65.744 E.03152
G1 X119.925 Y71.186 E.44995
G1 X119.401 Y71.373 E.03253
G1 X114 Y65.972 E.44656
G1 X113.518 Y66.2 E.03117
G1 X118.889 Y71.571 E.44408
G1 X118.376 Y71.768 E.03213
G1 X113.036 Y66.428 E.44152
G1 X112.57 Y66.673 E.03078
G1 X117.878 Y71.981 E.43887
G1 X117.386 Y72.199 E.03146
G1 X112.108 Y66.92 E.43643
G1 X111.645 Y67.168 E.03071
G1 X116.894 Y72.417 E.43399
G1 X116.419 Y72.652 E.03098
G1 X111.186 Y67.419 E.43267
G1 X110.737 Y67.68 E.03036
G1 X115.947 Y72.89 E.43077
G1 X115.474 Y73.128 E.03096
G1 X110.295 Y67.948 E.42825
G1 X109.86 Y68.224 E.03012
G1 X115.021 Y73.385 E.42672
G1 X114.567 Y73.642 E.0305
G1 X109.425 Y68.499 E.42519
G1 X108.99 Y68.775 E.03012
G1 X114.115 Y73.9 E.42374
G1 X113.68 Y74.175 E.03009
G1 X108.571 Y69.065 E.42246
G1 X108.154 Y69.359 E.02983
G1 X113.245 Y74.45 E.42093
G1 X112.812 Y74.727 E.03005
G1 X107.737 Y69.652 E.4196
G1 X107.322 Y69.948 E.0298
G1 X112.396 Y75.021 E.41948
G1 X111.979 Y75.315 E.02983
G1 X106.919 Y70.255 E.41836
G2 X106.520 Y70.566 I4.724 J6.472 E0.02958
G1 X111.564 Y75.61 E.41704
G1 X111.165 Y75.921 E.02958
G1 X106.13 Y70.886 E.4163
G1 X105.74 Y71.206 E.02949
G1 X110.766 Y76.233 E.41559
G1 X110.369 Y76.545 E.02952
G1 X105.35 Y71.527 E.41493
