; generated by PrusaSlicer 2.6.0+win64 on 2025-10-24 at 11:38:30 UTC
; Postprocessed by [ArcWelder](https://github.com/FormerLurker/ArcWelderLib)
; Copyright(C) 2021 - Brad Hochgesang
; Version: 1.2.0, Branch: HEAD, BuildDate: 2021-11-21T20:25:43Z
; resolution=0.05mm
; path_tolerance=5.0%
; max_radius=9999.00mm
; default_xyz_precision=3
; default_e_precision=5
; extrusion_rate_variance_percent=5.0%














; 

; external perimeters extrusion width = 0.42mm
; perimeters extrusion width = 0.45mm
; infill extrusion width = 0.45mm
; solid infill extrusion width = 0.50mm
; top infill extrusion width = 0.42mm
; support material extrusion width = 0.42mm
; first layer extrusion width = 0.56mm

; external perimeters extrusion width = 0.42mm
; perimeters extrusion width = 0.45mm
; infill extrusion width = 0.45mm
; solid infill extrusion width = 0.50mm
; top infill extrusion width = 0.42mm
; support material extrusion width = 0.42mm
; first layer extrusion width = 0.56mm

M73 P0 R55
M201 X2500 Y2500 Z200 E2500 ; sets maximum accelerations, mm/sec^2
M203 X200 Y200 Z40 E100 ; sets maximum feedrates, mm / sec
M204 P2000 R1200 T2000 ; sets acceleration (P, T) and retract acceleration (R), mm/sec^2
M205 X8.00 Y8.00 Z2.00 E10.00 ; sets the jerk limits, mm/sec
M205 S0 T0 ; sets the minimum extruding and travel feed rate, mm/sec
;TYPE:Custom
M17 ; enable steppers
M862.3 P "MK4" ; printer model check
M862.1 P0.4 ; nozzle diameter check
M115 U5.0.1+12089

M555 X100.657 Y64.3057 W91.2994 H77.3887

G90 ; use absolute coordinates
M83 ; extruder relative mode

M140 S55 ; set bed temp

M104 S170 ; set extruder temp for bed leveling
M109 R170 ; wait for temp


M84 E ; turn off E motor

G28 ; home all without mesh bed level

G1 X42 Y-4 Z5 F4800

M302 S160 ; lower cold extrusion limit to 160C


G1 E-2 F2400 ; retraction


M84 E ; turn off E motor

G29 P9 X10 Y-4 W32 H4

M106 S100

G0 Z40 F10000

M190 S55 ; wait for bed temp

M107


; MBL

M84 E ; turn off E motor
G29 P1 ; invalidate mbl & probe print area
G29 P1 X0 Y0 W50 H20 C ; probe near purge place
G29 P3.2 ; interpolate mbl probes
G29 P3.13 ; extrapolate mbl outside probe area
G29 A ; activate mbl

; prepare for purge
M104 S205
G0 X0 Y-4 Z15 F4800 ; move away and ready for the purge
M109 S205

G92 E0
M569 S0 E ; set spreadcycle mode for extruder


; Extrude purge line

G92 E0 ; reset extruder position
G1 E2 F2400 ; deretraction after the initial one before nozzle cleaning
G0 E7 X15 Z0.2 F500 ; purge
G0 X25 E4 F500 ; purge
G0 X35 E4 F650 ; purge
G0 X45 E4 F800 ; purge
G0 X48 Z0.05 F8000 ; wipe, move close to the bed
G0 X51 Z0.2 F8000 ; wipe, move quickly away from the bed

G92 E0
M221 S100 ; set flow to 100%
G21 ; set units to millimeters
G90 ; use absolute coordinates
M83 ; use relative distances for extrusion
M900 K0.04 ; Filament gcode



M142 S40 ; set heatbreak target temp
M107
;LAYER_CHANGE
;Z:0.28
;HEIGHT:0.28
;BEFORE_LAYER_CHANGE
G92 E0.0
;0.28


G1 E-.8 F2100
G1 Z.2 F7200
G1 Z.28
;AFTER_LAYER_CHANGE
;0.28
G1 Z.48
G1 X101.34 Y69.936
G1 Z.28
G1 E.8 F1500
;TYPE:Skirt/Brim
;WIDTH:0.56
G1 F3000
G3 X103.554 Y68.556 I2.592 J1.692 E0.15706
G1 X146.527 Y68.561 E2.50081
G3 X149.094 Y71.202 I-0.341 J2.900 E0.23176
G1 X149.068 Y73.85 E.15411
G3 X148.432 Y75.376 I-2.704 J-0.232 E0.09755
G1 X147.868 Y75.914 E.04536
G3 X147.092 Y76.303 I-1.490 J-2.004 E0.05071
G1 X147.092 Y77.249 E.05505
G3 X148.095 Y79.185 I-1.754 J2.136 E0.13021
G1 X148.068 Y81.825 E.15364
G1 X148.006 Y82.228 E.02373
G1 X147.727 Y82.932 E.04407
G3 X147.092 Y83.693 I-2.298 J-1.272 E0.05793
G1 X147.093 Y136.415 E3.06815
G1 X147.057 Y138.95 E.14754
G3 X146.396 Y140.416 I-2.622 J-0.300 E0.09485
G1 X145.824 Y140.948 E.04546
G3 X144.448 Y141.444 I-1.608 J-2.304 E0.08597
G1 X103.562 Y141.444 E2.37936
G3 X100.941 Y138.817 I0.294 J-2.915 E0.23395
G1 X100.941 Y136.988 E.10644
G1 X100.908 Y136.76 E.01341
G1 X100.908 Y73.248 E3.69608
G1 X100.933 Y73.05 E.01161
G1 X100.949 Y71.019 E.1182
G3 X101.315 Y69.991 I2.747 J0.399 E0.06382
G1 X101.759 Y70.211 F7200
G1 F3000
G3 X103.578 Y69.056 I2.157 J1.388 E0.12970
G1 X146.499 Y69.061 E2.49778
G3 X148.594 Y71.221 I-0.309 J2.395 E0.18889
G1 X148.568 Y73.82 E.15126
G3 X146.592 Y75.954 I-2.540 J-0.370 E0.18026
G1 X146.592 Y77.452 E.08718
G1 X147.153 Y78.028 E.04679
G3 X147.595 Y79.205 I-1.840 J1.362 E0.07400
G1 X147.568 Y81.801 E.15108
G3 X146.593 Y83.483 I-2.464 J-0.305 E0.11620
G1 X146.593 Y136.41 E3.08008
G1 X146.563 Y138.868 E.14305
G3 X144.424 Y140.944 I-2.406 J-0.340 E0.18680
G1 X103.586 Y140.944 E2.37656
G3 X101.440 Y138.795 I0.267 J-2.413 E0.19102
G1 X101.44 Y136.947 E.10754
G1 X101.408 Y136.739 E.01225
G1 X101.408 Y73.267 E3.69375
G1 X101.433 Y73.087 E.01058
G1 X101.443 Y71.102 E.11552
G3 X101.734 Y70.266 I2.182 J0.291 E0.05177
G1 X102.18 Y70.481 F7200
G1 F3000
G3 X103.603 Y69.556 I1.729 J1.104 E0.10210
G1 X146.472 Y69.561 E2.49476
G3 X148.094 Y71.241 I-0.285 J1.898 E0.14599
G1 X148.069 Y73.791 E.1484
G3 X146.093 Y75.451 I-1.883 J-0.236 E0.16493
G1 X146.093 Y77.735 E.13292
G3 X147.095 Y79.225 I-1.067 J1.800 E0.10830
G1 X147.069 Y81.775 E.1484
G3 X146.093 Y83.218 I-1.979 J-0.287 E0.10477
G1 X146.093 Y136.407 E3.09533
G1 X146.069 Y138.791 E.13874
G3 X144.399 Y140.444 I-1.891 J-0.241 E0.14712
G1 X103.611 Y140.444 E2.37365
G3 X101.940 Y138.773 I0.223 J-1.894 E0.14810
G1 X101.94 Y136.901 E.10894
G1 X101.907 Y136.715 E.01099
G1 X101.907 Y73.289 E3.69107
G1 X101.932 Y73.128 E.00948
G1 X101.937 Y71.18 E.11336
G3 X102.156 Y70.536 I1.689 J0.215 E0.03978
G1 X102.605 Y70.745 F7200
G1 F3000
G3 X103.627 Y70.056 I1.233 J0.727 E0.07401
G1 X146.443 Y70.061 E2.49167
G3 X147.594 Y71.261 I-0.253 J1.395 E0.10320
G1 X147.569 Y73.762 E.14555
G3 X146.378 Y74.944 I-1.398 J-0.218 E0.10441
G1 X145.593 Y74.944 E.04568
G1 X145.593 Y78.076 E.18227
G3 X146.594 Y79.245 I-0.417 J1.370 E0.09443
G1 X146.569 Y81.747 E.14561
G3 X145.593 Y82.882 I-1.426 J-0.239 E0.09146
G1 X145.593 Y136.403 E3.11465
G1 X145.569 Y138.762 E.13729
G3 X144.375 Y139.944 I-1.397 J-0.217 E0.10458
G1 X103.635 Y139.944 E2.37086
G3 X102.440 Y138.752 I0.206 J-1.402 E0.10510
G1 X102.44 Y136.847 E.11086
G1 X102.407 Y136.686 E.00956
G1 X102.407 Y73.314 E3.68793
G1 X102.432 Y73.175 E.00822
G1 X102.432 Y71.251 E.11197
G3 X102.582 Y70.800 I1.131 J0.126 E0.02780
G1 X103.037 Y70.998 F7200
G1 F3000
G3 X103.652 Y70.556 I0.808 J0.475 E0.04503
G1 X146.373 Y70.556 E2.48615
G1 X146.691 Y70.688 E.02004
G1 X146.989 Y71 E.02511
G1 X147.094 Y71.281 E.01746
G1 X147.069 Y73.732 E.14264
G1 X146.963 Y74.007 E.01715
G3 X146.399 Y74.435 I-0.818 J-0.493 E0.04193
G1 X145.093 Y74.444 E.076
G1 X145.093 Y78.508 E.2365
G3 X146.094 Y79.265 I0.063 J0.957 E0.07918
G1 X146.059 Y81.762 E.14533
G3 X145.093 Y82.460 I-0.936 J-0.278 E0.07423
G1 X145.093 Y136.402 E3.13915
G1 X145.069 Y138.733 E.13566
G3 X144.351 Y139.444 I-0.906 J-0.197 E0.06182
G1 X103.66 Y139.444 E2.36801
G3 X102.940 Y138.725 I0.190 J-0.910 E0.06227
G1 X102.94 Y136.779 E.11325
G1 X102.907 Y136.649 E.00781
G1 X102.907 Y73.347 E3.68386
G1 X102.932 Y73.237 E.00656
G1 X102.932 Y71.275 E.11418
G1 X103.014 Y71.053 E.01377
G1 X103.47 Y71.258 F7200
G1 F3000
G3 X103.726 Y71.056 I0.371 J0.207 E0.01929
G1 X146.299 Y71.056 E2.47753
G3 X146.593 Y71.352 I-0.112 J0.406 E0.02518
G1 X146.57 Y73.654 E.13397
G3 X146.277 Y73.944 I-0.405 J-0.116 E0.02488
G1 X144.593 Y73.944 E.098
G1 X144.593 Y79.037 E.29639
M73 P1 R55
G1 X145.299 Y79.037 E.04109
G3 X145.594 Y79.334 I-0.121 J0.415 E0.02524
G1 X145.57 Y81.635 E.13391
G3 X145.277 Y81.926 I-0.412 J-0.122 E0.02490
G1 X144.593 Y81.926 E.03981
G1 X144.593 Y136.4 E3.17011
G1 X144.57 Y138.654 E.13118
G3 X144.277 Y138.944 I-0.405 J-0.116 E0.02488
G1 X103.734 Y138.944 E2.3594
G3 X103.440 Y138.650 I0.115 J-0.409 E0.02508
G1 X103.44 Y136.661 E.11575
G1 X103.407 Y136.582 E.00498
G1 X103.407 Y73.418 E3.67582
G1 X103.432 Y73.358 E.00378
G1 X103.432 Y71.35 E.11686
G1 X103.447 Y71.313 E.00232
G1 E-.64 F2100
;WIPE_START
G1 F5760
G1 X103.634 Y71.094 E-.09974
G3 X103.800 Y71.056 I0.129 J0.182 E-0.06026
;WIPE_END
G1 Z.48 F7200
G1 X104.858 Y81.926
G1 Z.28
G1 E.8 F1500
G1 F3000
G1 X143.142 Y81.926 E2.22793
G1 X143.142 Y136.056 E3.15009
G1 X104.858 Y136.056 E2.22793
G1 X104.858 Y81.986 E3.1466
G1 X105.358 Y82.426 F7200
G1 F3000
G1 X142.642 Y82.426 E2.16974
G1 X142.642 Y135.556 E3.0919
G1 X105.358 Y135.556 E2.16974
G1 X105.358 Y82.486 E3.08841
G1 X105.858 Y82.926 F7200
G1 F3000
G1 X142.142 Y82.926 E2.11154
G1 X142.142 Y135.056 E3.0337
G1 X105.858 Y135.056 E2.11154
G1 X105.858 Y82.986 E3.03021
G1 X106.358 Y83.425 F7200
G1 F3000
G1 X141.642 Y83.425 E2.05335
G1 X141.642 Y134.556 E2.97557
G1 X106.358 Y134.556 E2.05335
G1 X106.358 Y83.485 E2.97207
G1 X106.858 Y83.925 F7200
G1 F3000
G1 X141.142 Y83.925 E1.99516
G1 X141.142 Y134.056 E2.91737
G1 X106.858 Y134.056 E1.99516
G1 X106.858 Y83.985 E2.91388
G1 X107.358 Y84.425 F7200
G1 F3000
G1 X140.642 Y84.425 E1.93696
G1 X140.642 Y133.556 E2.85918
G1 X107.358 Y133.556 E1.93696
G1 X107.358 Y84.485 E2.85568
M73 P1 R54
G1 E-.64 F2100
;WIPE_START
G1 F5760
G1 X107.82 Y84.484 E-.16
;WIPE_END
G1 Z.48 F7200
G1 X155.047 Y84.485
G1 Z.28
G1 E.8 F1500
G1 F3000
G1 X155.047 Y75.618 E.51601
G3 X155.706 Y74.043 I2.743 J0.222 E0.10083
G1 X156.285 Y73.501 E.04615
G3 X157.668 Y72.998 I1.611 J2.277 E0.08652
G1 X189.141 Y73.003 E1.83157
G3 X191.706 Y75.618 I-0.346 J2.905 E0.23027
G1 X191.706 Y134.382 E3.41977
G3 X191.047 Y135.957 I-2.743 J-0.222 E0.10083
G1 X190.468 Y136.499 E.04615
G3 X189.085 Y137.002 I-1.608 J-2.269 E0.08652
G1 X157.667 Y137.002 E1.82837
G3 X156.092 Y136.343 I0.222 J-2.743 E0.10083
G1 X155.55 Y135.764 E.04615
G3 X155.047 Y134.381 I2.295 J-1.618 E0.08651
G1 X155.047 Y84.545 E2.9002
G1 X155.547 Y84.545 F7200
G1 F3000
G1 X155.547 Y75.642 E.51811
G3 X157.693 Y73.498 I2.413 J0.269 E0.19071
G1 X189.113 Y73.503 E1.82848
G3 X191.206 Y75.642 I-0.318 J2.405 E0.18765
G1 X191.206 Y134.358 E3.41697
G3 X189.061 Y136.502 I-2.413 J-0.270 E0.19066
G1 X157.692 Y136.502 E1.82552
G3 X155.547 Y134.356 I0.268 J-2.413 E0.19077
G1 X155.547 Y84.605 E2.89526
G1 X156.047 Y84.605 F7200
M73 P2 R54
G1 F3000
G1 X156.047 Y75.668 E.52009
G3 X157.717 Y73.998 I1.893 J0.223 E0.14799
G1 X189.086 Y74.003 E1.82552
G3 X190.706 Y75.668 I-0.295 J1.907 E0.14510
G1 X190.706 Y134.332 E3.41395
G3 X189.036 Y136.002 I-1.911 J-0.241 E0.14801
G1 X157.717 Y136.002 E1.82261
G3 X156.047 Y134.332 I0.223 J-1.893 E0.14800
G1 X156.047 Y84.665 E2.89037
G1 X156.547 Y84.665 F7200
G1 F3000
G1 X156.547 Y75.693 E.52212
G3 X157.742 Y74.498 I1.397 J0.202 E0.10530
G1 X189.057 Y74.503 E1.82237
G3 X190.206 Y75.693 I-0.267 J1.408 E0.10260
G1 X190.206 Y134.307 E3.41104
G3 X189.011 Y135.502 I-1.395 J-0.200 E0.10529
G1 X157.742 Y135.502 E1.8197
G3 X156.547 Y134.307 I0.203 J-1.398 E0.10528
G1 X156.547 Y84.725 E2.88542
G1 X157.047 Y84.725 F7200
G1 F3000
G1 X157.047 Y75.717 E.52422
G3 X157.718 Y75.007 I0.922 J0.200 E0.05945
G1 X188.987 Y74.998 E1.8197
G3 X189.706 Y75.717 I-0.192 J0.911 E0.06224
G1 X189.706 Y134.283 E3.40824
G1 X189.575 Y134.601 E.02001
G1 X189.264 Y134.898 E.02503
G1 X188.987 Y135.002 E.01722
G1 X157.766 Y135.002 E1.8169
G3 X157.047 Y134.283 I0.192 J-0.911 E0.06222
G1 X157.047 Y84.785 E2.88053
G1 X157.547 Y84.785 F7200
G1 F3000
G1 X157.547 Y75.792 E.52335
G3 X157.841 Y75.498 I0.409 J0.115 E0.02508
G1 X188.913 Y75.498 E1.80823
G3 X189.207 Y75.792 I-0.122 J0.416 E0.02506
G1 X189.207 Y134.208 E3.39952
G3 X188.913 Y134.502 I-0.413 J-0.119 E0.02506
G1 X157.841 Y134.502 E1.80823
G3 X157.547 Y134.208 I0.115 J-0.409 E0.02508
G1 X157.547 Y84.845 E2.87268
G1 E-.64 F2100
;WIPE_START
G1 F5760
G1 X157.547 Y84.383 E-.16
;WIPE_END
G1 Z.48 F7200
G1 X188.517 Y133.812
G1 Z.28
G1 E.8 F1500
;TYPE:External perimeter
G1 F3000
G1 X158.237 Y133.812 E1.76214
G1 X158.237 Y76.188 E3.35342
G1 X188.517 Y76.188 E1.76214
G1 X188.517 Y133.752 E3.34993
G1 X188.143 Y133.671 F7200
G1 X188.017 Y133.313
;TYPE:Perimeter
G1 F3000
G1 X158.737 Y133.313 E1.70395
G1 X158.737 Y76.687 E3.29535
G1 X188.017 Y76.687 E1.70395
G1 X188.017 Y133.253 E3.29185
G1 X187.517 Y132.813 F7200
G1 F3000
G1 X159.237 Y132.813 E1.64575
G1 X159.237 Y77.187 E3.23715
G1 X187.517 Y77.187 E1.64575
G1 X187.517 Y132.753 E3.23366
G1 E-.64 F2100
;WIPE_START
G1 F5760
G1 X187.055 Y132.754 E-.16
;WIPE_END
G1 Z.48 F7200
G1 X186.3 Y77.387
G1 Z.28
G1 E.8 F1500
;TYPE:Solid infill
;WIDTH:0.562953
G1 F3000
G1 X187.092 Y78.179 E.06557
G1 X187.092 Y78.89 E.04162
G1 X185.814 Y77.612 E.1058
G1 X185.103 Y77.612 E.04162
G1 X187.092 Y79.602 E.1647
G1 X187.092 Y80.313 E.04162
G1 X184.391 Y77.612 E.22361
G1 X183.68 Y77.612 E.04162
G1 X187.092 Y81.024 E.28247
G1 X187.092 Y81.735 E.04162
G1 X182.969 Y77.612 E.34133
G1 X182.258 Y77.612 E.04162
G1 X187.092 Y82.446 E.40019
G1 X187.092 Y83.157 E.04162
G1 X181.547 Y77.612 E.45905
G1 X180.836 Y77.612 E.04162
G1 X187.092 Y83.868 E.51791
G1 X187.092 Y84.58 E.04168
G1 X180.125 Y77.612 E.57681
G1 X179.413 Y77.612 E.04168
G1 X187.092 Y85.291 E.63571
G1 X187.092 Y86.002 E.04162
G1 X178.702 Y77.612 E.69458
G1 X177.991 Y77.612 E.04162
G1 X187.092 Y86.713 E.75344
G1 X187.092 Y87.424 E.04162
G1 X177.28 Y77.612 E.8123
G1 X176.569 Y77.612 E.04162
G1 X187.092 Y88.135 E.87116
G1 X187.092 Y88.847 E.04168
G1 X175.858 Y77.612 E.93006
G1 X175.146 Y77.612 E.04168
G1 X187.092 Y89.558 E.98896
G1 X187.092 Y90.269 E.04162
G1 X174.435 Y77.612 E1.04782
G1 X173.724 Y77.612 E.04162
G1 X187.092 Y90.98 E1.10669
G1 X187.092 Y91.691 E.04162
G1 X173.013 Y77.612 E1.16555
G1 X172.302 Y77.612 E.04162
G1 X187.092 Y92.402 E1.22441
G1 X187.092 Y93.114 E.04168
G1 X171.591 Y77.612 E1.28331
G1 X170.879 Y77.612 E.04168
G1 X187.092 Y93.825 E1.34221
G1 X187.092 Y94.536 E.04162
G1 X170.168 Y77.612 E1.40107
G1 X169.457 Y77.612 E.04162
G1 X187.092 Y95.247 E1.45993
G1 X187.092 Y95.958 E.04162
M73 P3 R54
G1 X168.746 Y77.612 E1.51879
G1 X168.035 Y77.612 E.04162
G1 X187.092 Y96.669 E1.57766
G1 X187.092 Y97.38 E.04162
G1 X167.324 Y77.612 E1.63652
G1 X166.613 Y77.612 E.04162
G1 X187.092 Y98.092 E1.69542
G1 X187.092 Y98.803 E.04162
G1 X165.901 Y77.612 E1.75432
G1 X165.19 Y77.612 E.04162
G1 X187.092 Y99.514 E1.81318
G1 X187.092 Y100.225 E.04162
G1 X164.479 Y77.612 E1.87204
G1 X163.768 Y77.612 E.04162
G1 X187.092 Y100.936 E1.9309
G1 X187.092 Y101.647 E.04162
G1 X163.057 Y77.612 E1.98976
G1 X162.346 Y77.612 E.04162
G1 X187.092 Y102.359 E2.04867
G1 X187.092 Y103.07 E.04162
G1 X161.634 Y77.612 E2.10757
G1 X160.923 Y77.612 E.04162
G1 X187.092 Y103.781 E2.16643
G1 X187.092 Y104.492 E.04162
G1 X160.212 Y77.612 E2.22529
G1 X159.662 Y77.612 E.0322
G1 X159.662 Y77.773 E.00942
G1 X187.092 Y105.203 E2.27082
G1 X187.092 Y105.914 E.04162
G1 X159.662 Y78.484 E2.27082
G1 X159.662 Y79.195 E.04162
G1 X187.092 Y106.625 E2.27082
G1 X187.092 Y107.337 E.04168
G1 X159.662 Y79.906 E2.27087
G1 X159.662 Y80.618 E.04168
G1 X187.092 Y108.048 E2.27082
G1 X187.092 Y108.759 E.04162
G1 X159.662 Y81.329 E2.27082
G1 X159.662 Y82.04 E.04162
G1 X187.092 Y109.47 E2.27082
G1 X187.092 Y110.181 E.04162
M73 P3 R53
G1 X159.662 Y82.751 E2.27082
G1 X159.662 Y83.462 E.04162
G1 X187.092 Y110.892 E2.27082
G1 X187.092 Y111.604 E.04168
G1 X159.662 Y84.173 E2.27087
G1 X159.662 Y84.884 E.04162
G1 X187.092 Y112.315 E2.27087
G1 X187.092 Y113.026 E.04162
G1 X159.662 Y85.596 E2.27082
G1 X159.662 Y86.307 E.04162
G1 X187.092 Y113.737 E2.27082
G1 X187.092 Y114.448 E.04162
G1 X159.662 Y87.018 E2.27082
G1 X159.662 Y87.729 E.04162
G1 X187.092 Y115.159 E2.27082
G1 X187.092 Y115.871 E.04168
G1 X159.662 Y88.44 E2.27087
G1 X159.662 Y89.151 E.04162
G1 X187.092 Y116.582 E2.27087
G1 X187.092 Y117.293 E.04162
G1 X159.662 Y89.863 E2.27082
G1 X159.662 Y90.574 E.04162
G1 X187.092 Y118.004 E2.27082
G1 X187.092 Y118.715 E.04162
G1 X159.662 Y91.285 E2.27082
G1 X159.662 Y91.996 E.04162
G1 X187.092 Y119.426 E2.27082
G1 X187.092 Y120.137 E.04162
G1 X159.662 Y92.707 E2.27082
G1 X159.662 Y93.418 E.04162
G1 X187.092 Y120.849 E2.27087
G1 X187.092 Y121.56 E.04162
G1 X159.662 Y94.13 E2.27082
G1 X159.662 Y94.841 E.04162
G1 X187.092 Y122.271 E2.27082
G1 X187.092 Y122.982 E.04162
G1 X159.662 Y95.552 E2.27082
G1 X159.662 Y96.263 E.04162
G1 X187.092 Y123.693 E2.27082
G1 X187.092 Y124.404 E.04162
