; generated by PrusaSlicer 2.6.0+win64 on 2025-10-24 at 14:27:10 UTC
; Postprocessed by [ArcWelder](https://github.com/FormerLurker/ArcWelderLib)
; Copyright(C) 2021 - Brad Hochgesang
; Version: 1.2.0, Branch: HEAD, BuildDate: 2021-11-21T20:25:43Z
; resolution=0.05mm
; path_tolerance=5.0%
; max_radius=9999.00mm
; default_xyz_precision=3
; default_e_precision=5
; extrusion_rate_variance_percent=5.0%














; 

; external perimeters extrusion width = 0.42mm
; perimeters extrusion width = 0.45mm
; infill extrusion width = 0.45mm
; solid infill extrusion width = 0.50mm
; top infill extrusion width = 0.42mm
; support material extrusion width = 0.42mm
; first layer extrusion width = 0.56mm

M73 P0 R42
M201 X2500 Y2500 Z200 E2500 ; sets maximum accelerations, mm/sec^2
M203 X200 Y200 Z40 E100 ; sets maximum feedrates, mm / sec
M204 P2000 R1200 T2000 ; sets acceleration (P, T) and retract acceleration (R), mm/sec^2
M205 X8.00 Y8.00 Z2.00 E10.00 ; sets the jerk limits, mm/sec
M205 S0 T0 ; sets the minimum extruding and travel feed rate, mm/sec
;TYPE:Custom
M17 ; enable steppers
M862.3 P "MK4" ; printer model check
M862.1 P0.4 ; nozzle diameter check
M115 U5.0.1+12089

M555 X111.405 Y68.1149 W32 H69.6531

G90 ; use absolute coordinates
M83 ; extruder relative mode

M140 S55 ; set bed temp

M104 S170 ; set extruder temp for bed leveling
M109 R170 ; wait for temp


M84 E ; turn off E motor

G28 ; home all without mesh bed level

G1 X42 Y-4 Z5 F4800

M302 S160 ; lower cold extrusion limit to 160C


G1 E-2 F2400 ; retraction


M84 E ; turn off E motor

G29 P9 X10 Y-4 W32 H4

M106 S100

G0 Z40 F10000

M190 S55 ; wait for bed temp

M107


; MBL

M84 E ; turn off E motor
G29 P1 ; invalidate mbl & probe print area
G29 P1 X0 Y0 W50 H20 C ; probe near purge place
G29 P3.2 ; interpolate mbl probes
G29 P3.13 ; extrapolate mbl outside probe area
G29 A ; activate mbl

; prepare for purge
M104 S205
G0 X0 Y-4 Z15 F4800 ; move away and ready for the purge
M109 S205

G92 E0
M569 S0 E ; set spreadcycle mode for extruder


; Extrude purge line

G92 E0 ; reset extruder position
G1 E2 F2400 ; deretraction after the initial one before nozzle cleaning
G0 E7 X15 Z0.2 F500 ; purge
G0 X25 E4 F500 ; purge
G0 X35 E4 F650 ; purge
G0 X45 E4 F800 ; purge
G0 X48 Z0.05 F8000 ; wipe, move close to the bed
G0 X51 Z0.2 F8000 ; wipe, move quickly away from the bed

G92 E0
M221 S100 ; set flow to 100%
G21 ; set units to millimeters
G90 ; use absolute coordinates
M83 ; use relative distances for extrusion
M900 K0.04 ; Filament gcode



M142 S40 ; set heatbreak target temp
M107
;LAYER_CHANGE
;Z:0.28
;HEIGHT:0.28
;BEFORE_LAYER_CHANGE
G92 E0.0
;0.28


G1 E-.8 F2100
G1 Z.2 F7200
G1 Z.28
;AFTER_LAYER_CHANGE
;0.28
G1 Z.48
G1 X114.722 Y75.464
G1 Z.28
G1 E.8 F1500
;TYPE:Skirt/Brim
;WIDTH:0.56
G1 F3000
G1 X115.277 Y74.861 E.04769
G3 X116.608 Y74.238 I1.792 J2.095 E0.08644
G1 X135.656 Y72.472 E1.11325
G3 X138.288 Y75.085 I-0.292 J2.927 E0.23344
G1 X138.288 Y134.897 E3.48076
G3 X137.786 Y136.279 I-2.831 J-0.246 E0.08644
G1 X137.162 Y136.927 E.05235
G3 X135.667 Y137.518 I-1.725 J-2.178 E0.09476
G1 X114.324 Y137.518 E1.24205
G3 X112.909 Y136.988 I0.255 J-2.836 E0.08888
G1 X112.256 Y136.332 E.05387
G3 X111.701 Y134.777 I2.210 J-1.665 E0.09739
G1 X114.246 Y76.721 E3.38181
G3 X114.691 Y75.516 I2.715 J0.318 E0.07536
G1 X115.12 Y75.772 F7200
G1 F3000
G3 X116.247 Y74.854 I2.080 J1.402 E0.08568
G1 X116.677 Y74.734 E.02598
G1 X135.607 Y72.97 E1.1064
G3 X137.788 Y75.110 I-0.242 J2.428 E0.19209
G1 X137.788 Y134.872 E3.47785
G3 X137.373 Y135.996 I-2.325 J-0.220 E0.07044
G1 X136.861 Y136.527 E.04293
G3 X135.643 Y137.018 I-1.423 J-1.773 E0.07741
G1 X114.349 Y137.018 E1.2392
G3 X113.199 Y136.580 I0.228 J-2.327 E0.07238
G1 X112.664 Y136.041 E.0442
G3 X112.202 Y134.774 I1.795 J-1.372 E0.07957
G1 X114.745 Y76.765 E3.37907
G3 X115.089 Y75.824 I2.112 J0.239 E0.05876
G1 X115.515 Y76.083 F7200
G1 F3000
G3 X116.746 Y75.230 I1.636 J1.046 E0.08939
G1 X135.562 Y73.469 E1.09978
G3 X137.289 Y75.138 I-0.195 J1.930 E0.15071
G1 X137.289 Y134.847 E3.47476
G3 X135.618 Y136.518 I-1.913 J-0.242 E0.14809
G1 X114.375 Y136.518 E1.23623
G3 X112.703 Y134.771 I0.247 J-1.910 E0.15221
G1 X115.243 Y76.809 E3.37633
G3 X115.484 Y76.135 I1.714 J0.233 E0.04188
G1 X115.906 Y76.399 F7200
G1 F3000
G3 X116.815 Y75.725 I1.214 J0.687 E0.06761
G1 X135.523 Y73.968 E1.0935
G3 X136.789 Y75.164 I-0.150 J1.426 E0.10888
G1 X136.789 Y134.823 E3.47185
G3 X135.594 Y136.018 I-1.412 J-0.217 E0.10524
G1 X114.4 Y136.018 E1.23338
G3 X113.203 Y134.767 I0.221 J-1.410 E0.10826
G1 X115.742 Y76.854 E3.37348
G3 X115.878 Y76.451 I1.157 J0.166 E0.02485
G1 X116.338 Y76.647 F7200
G1 F3000
G3 X116.884 Y76.221 I0.809 J0.474 E0.04103
G1 X135.495 Y74.467 E1.08787
G3 X136.278 Y75.139 I-0.121 J0.933 E0.06316
G1 X136.289 Y134.798 E3.47185
G3 X135.617 Y135.508 I-0.916 J-0.194 E0.05953
G1 X114.425 Y135.518 E1.23327
G3 X113.712 Y134.814 I0.198 J-0.914 E0.06117
G1 X116.24 Y76.898 E3.37363
G1 X116.315 Y76.702 E.01221
G1 X116.772 Y76.904 F7200
G1 F3000
G3 X116.999 Y76.712 I0.372 J0.210 E0.01753
M73 P1 R42
G1 X135.463 Y74.972 E1.07927
G3 X135.789 Y75.269 I-0.086 J0.421 E0.02670
G1 X135.789 Y134.724 E3.45998
G3 X135.495 Y135.018 I-0.409 J-0.115 E0.02508
G1 X114.502 Y135.018 E1.22169
G3 X114.206 Y134.709 I0.118 J-0.410 E0.02587
G1 X116.749 Y76.959 E3.36401
G1 E-.64 F2100
;WIPE_START
G1 F5760
G3 X117.103 Y76.702 I0.355 J0.116 E-0.16000
;WIPE_END
G1 Z.48 F7200
G1 X135.099 Y75.7
G1 Z.28
G1 E.8 F1500
;TYPE:External perimeter
G1 F3000
G1 X135.099 Y134.328 E3.41185
G1 X114.914 Y134.328 E1.17466
G1 X117.411 Y77.366 E3.31808
G1 X135.039 Y75.705 E1.0304
G1 X135.055 Y76.097 F7200
G1 X134.599 Y76.249
;TYPE:Perimeter
G1 F3000
G1 X134.599 Y133.828 E3.35081
G1 X115.436 Y133.828 E1.11519
G1 X117.891 Y77.823 E3.26234
G1 X134.539 Y76.254 E.97312
G1 X134.099 Y76.798 F7200
M73 P1 R41
G1 F3000
G1 X134.099 Y133.328 E3.28976
G1 X115.958 Y133.328 E1.05571
G1 X118.371 Y78.28 E3.20659
G1 X134.039 Y76.804 E.91584
G1 X133.899 Y78.032 F7200
;TYPE:Solid infill
;WIDTH:0.562854
G1 F3000
G1 X133.179 Y77.312 E.05959
G1 X132.529 Y77.373 E.03821
G1 X133.674 Y78.518 E.09477
G1 X133.674 Y79.229 E.04161
G1 X131.879 Y77.434 E.14857
G1 X131.229 Y77.495 E.03821
G1 X133.674 Y79.94 E.20237
G1 X133.674 Y80.651 E.04161
G1 X130.58 Y77.557 E.25609
G1 X129.93 Y77.618 E.03821
G1 X133.674 Y81.362 E.30989
G1 X133.674 Y82.073 E.04161
G1 X129.28 Y77.679 E.36369
G1 X128.63 Y77.74 E.03821
G1 X133.674 Y82.784 E.41749
G1 X133.674 Y83.495 E.04161
G1 X127.98 Y77.801 E.47129
G1 X127.331 Y77.863 E.03816
G1 X133.674 Y84.206 E.52501
G1 X133.674 Y84.917 E.04161
G1 X126.681 Y77.924 E.57881
G1 X126.031 Y77.985 E.03821
G1 X133.674 Y85.628 E.63261
G1 X133.674 Y86.339 E.04161
G1 X125.381 Y78.046 E.68641
G1 X124.732 Y78.108 E.03816
G1 X133.674 Y87.05 E.74013
G1 X133.674 Y87.761 E.04161
G1 X124.082 Y78.169 E.79393
G1 X123.432 Y78.23 E.03821
G1 X133.674 Y88.472 E.84773
G1 X133.674 Y89.183 E.04161
G1 X122.782 Y78.291 E.90153
G1 X122.132 Y78.353 E.03822
G1 X133.674 Y89.894 E.95529
G1 X133.674 Y90.605 E.04161
G1 X121.483 Y78.414 E1.00905
G1 X120.833 Y78.475 E.03821
G1 X133.674 Y91.316 E1.06285
G1 X133.674 Y92.027 E.04161
G1 X120.183 Y78.536 E1.11665
G1 X119.533 Y78.597 E.03821
G1 X133.674 Y92.738 E1.17045
G1 X133.674 Y93.449 E.04161
G1 X118.883 Y78.659 E1.22421
G1 X118.78 Y78.668 E.00605
G1 X118.755 Y79.241 E.03357
G1 X133.674 Y94.16 E1.23484
G1 X133.674 Y94.871 E.04161
G1 X118.725 Y79.922 E1.23733
G1 X118.695 Y80.603 E.0399
G1 X133.674 Y95.582 E1.23981
G1 X133.674 Y96.293 E.04161
G1 X118.665 Y81.284 E1.24229
G1 X118.635 Y81.966 E.03995
G1 X133.674 Y97.004 E1.24473
G1 X133.674 Y97.715 E.04161
G1 X118.605 Y82.647 E1.24722
G1 X118.576 Y83.328 E.03989
G1 X133.674 Y98.426 E1.24966
G1 X133.674 Y99.137 E.04161
G1 X118.546 Y84.009 E1.25214
G1 X118.516 Y84.69 E.0399
G1 X133.674 Y99.849 E1.25467
G1 X133.674 Y100.56 E.04161
G1 X118.486 Y85.371 E1.25715
G1 X118.456 Y86.053 E.03995
G1 X133.674 Y101.271 E1.25959
G1 X133.674 Y101.982 E.04161
G1 X118.426 Y86.734 E1.26207
G1 X118.396 Y87.415 E.0399
G1 X133.674 Y102.693 E1.26456
G1 X133.674 Y103.404 E.04161
G1 X118.366 Y88.096 E1.26704
G1 X118.337 Y88.777 E.03989
G1 X133.674 Y104.115 E1.26948
G1 X133.674 Y104.826 E.04161
G1 X118.307 Y89.458 E1.27197
G1 X118.277 Y90.139 E.0399
M73 P2 R41
G1 X133.674 Y105.537 E1.27445
G1 X133.674 Y106.248 E.04161
G1 X118.247 Y90.821 E1.27689
G1 X118.217 Y91.502 E.0399
G1 X133.674 Y106.959 E1.27937
G1 X133.674 Y107.67 E.04161
G1 X118.187 Y92.183 E1.28186
G1 X118.157 Y92.864 E.0399
G1 X133.674 Y108.381 E1.28434
G1 X133.674 Y109.092 E.04161
G1 X118.128 Y93.545 E1.28678
G1 X118.098 Y94.226 E.0399
G1 X133.674 Y109.803 E1.28926
G1 X133.674 Y110.514 E.04161
G1 X118.068 Y94.908 E1.29171
G1 X118.038 Y95.589 E.0399
G1 X133.674 Y111.225 E1.29419
G1 X133.674 Y111.936 E.04161
G1 X118.008 Y96.27 E1.29667
G1 X117.978 Y96.951 E.0399
G1 X133.674 Y112.647 E1.29916
G1 X133.674 Y113.358 E.04161
G1 X117.948 Y97.632 E1.30164
G1 X117.919 Y98.313 E.03989
G1 X133.674 Y114.069 E1.30408
G1 X133.674 Y114.78 E.04161
G1 X117.889 Y98.995 E1.30652
G1 X117.859 Y99.676 E.0399
G1 X133.674 Y115.491 E1.309
G1 X133.674 Y116.202 E.04161
G1 X117.829 Y100.357 E1.31149
G1 X117.799 Y101.038 E.0399
G1 X133.674 Y116.913 E1.31397
G1 X133.674 Y117.624 E.04161
G1 X117.769 Y101.719 E1.31645
G1 X117.739 Y102.4 E.0399
G1 X133.674 Y118.335 E1.31894
G1 X133.674 Y119.046 E.04161
G1 X117.71 Y103.081 E1.32138
G1 X117.68 Y103.763 E.03995
G1 X133.674 Y119.757 E1.32382
G1 X133.674 Y120.468 E.04161
G1 X117.65 Y104.444 E1.3263
G1 X117.62 Y105.125 E.0399
G1 X133.674 Y121.179 E1.32879
G1 X133.674 Y121.89 E.04161
G1 X117.59 Y105.806 E1.33127
G1 X117.56 Y106.487 E.0399
G1 X133.674 Y122.601 E1.33375
G1 X133.674 Y123.312 E.04161
G1 X117.53 Y107.168 E1.33624
G1 X117.501 Y107.85 E.03995
G1 X133.674 Y124.023 E1.33864
G1 X133.674 Y124.734 E.04161
G1 X117.471 Y108.531 E1.34112
G1 X117.441 Y109.212 E.0399
G1 X133.674 Y125.445 E1.3436
G1 X133.674 Y126.156 E.04161
G1 X117.411 Y109.893 E1.34609
G1 X117.381 Y110.574 E.0399
G1 X133.674 Y126.867 E1.34857
G1 X133.674 Y127.578 E.04161
G1 X117.351 Y111.255 E1.35105
G1 X117.321 Y111.936 E.0399
G1 X133.674 Y128.289 E1.35354
G1 X133.674 Y129 E.04161
G1 X117.292 Y112.618 E1.35594
G1 X117.262 Y113.299 E.0399
G1 X133.674 Y129.711 E1.35842
G1 X133.674 Y130.422 E.04161
G1 X117.232 Y113.98 E1.3609
G1 X117.202 Y114.661 E.0399
G1 X133.674 Y131.133 E1.36338
G1 X133.674 Y131.844 E.04161
G1 X117.172 Y115.342 E1.36587
G1 X117.142 Y116.023 E.0399
G1 X133.674 Y132.555 E1.36835
G1 X133.674 Y132.903 E.02037
G1 X133.311 Y132.903 E.02125
G1 X117.112 Y116.705 E1.34075
G1 X117.083 Y117.386 E.03989
G1 X132.6 Y132.903 E1.28434
G1 X131.889 Y132.903 E.04161
G1 X117.053 Y118.067 E1.22797
G1 X117.023 Y118.748 E.0399
G1 X131.178 Y132.903 E1.17161
G1 X130.467 Y132.903 E.04161
G1 X116.993 Y119.429 E1.11524
G1 X116.963 Y120.11 E.0399
G1 X129.756 Y132.903 E1.05887
G1 X129.045 Y132.903 E.04161
G1 X116.933 Y120.792 E1.00247
G1 X116.903 Y121.473 E.0399
G1 X128.334 Y132.903 E.9461
G1 X127.623 Y132.903 E.04161
G1 X116.874 Y122.154 E.88969
G1 X116.844 Y122.835 E.0399
G1 X126.912 Y132.903 E.83333
G1 X126.201 Y132.903 E.04161
G1 X116.814 Y123.516 E.77696
G1 X116.784 Y124.197 E.0399
G1 X125.49 Y132.903 E.72059
G1 X124.779 Y132.903 E.04161
G1 X116.754 Y124.878 E.66423
G1 X116.724 Y125.56 E.03995
G1 X124.068 Y132.903 E.60782
G1 X123.357 Y132.903 E.04161
M73 P3 R41
G1 X116.694 Y126.241 E.55145
G1 X116.664 Y126.922 E.0399
G1 X122.646 Y132.903 E.49509
G1 X121.935 Y132.903 E.04161
G1 X116.635 Y127.603 E.43868
G1 X116.605 Y128.284 E.0399
G1 X121.224 Y132.903 E.38231
G1 X120.513 Y132.903 E.04161
G1 X116.575 Y128.965 E.32595
G1 X116.545 Y129.647 E.03995
G1 X119.802 Y132.903 E.26954
G1 X119.091 Y132.903 E.04161
G1 X116.515 Y130.328 E.21317
G1 X116.485 Y131.009 E.0399
G1 X118.38 Y132.903 E.15681
G1 X117.669 Y132.903 E.04161
G1 X116.455 Y131.69 E.10044
G1 X116.426 Y132.371 E.03989
G1 X117.183 Y133.128 E.06266
;LAYER_CHANGE
;Z:0.48
;HEIGHT:0.2
;BEFORE_LAYER_CHANGE
G92 E0.0
;0.48


G1 E-.64 F2100
;WIPE_START
G1 F5760
G1 X116.856 Y132.801 E-.16
;WIPE_END
G1 Z.48 F7200
;AFTER_LAYER_CHANGE
;0.48
G1 Z.68
G1 X135.169 Y75.623
G1 Z.48
G1 E.8 F1500
;TYPE:External perimeter
;WIDTH:0.42
G1 F4500
G1 X135.169 Y134.398 E1.84285
G1 X114.841 Y134.398 E.63737
G1 X117.343 Y77.302 E1.79192
G1 X135.109 Y75.628 E.55951
G1 X135.125 Y76.02 F7200
G1 X134.777 Y76.053
;TYPE:Perimeter
;WIDTH:0.45
G1 F8843.478
G1 X134.777 Y134.006 E1.96164
G1 X115.25 Y134.006 E.66097
G1 X117.72 Y77.661 E1.90904
G1 X134.717 Y76.059 E.57788
G1 X134.37 Y76.501 F7200
G1 F8843.478
G1 X134.37 Y133.599 E1.9327
G1 X115.676 Y133.599 E.63277
G1 X118.111 Y78.033 E1.88265
G1 X134.31 Y76.506 E.55075
G1 E-.64 F2100
;WIPE_START
G1 F5760
G1 X134.31 Y76.968 E-.16
;WIPE_END
G1 Z.68 F7200
G1 X118.599 Y78.41
G1 Z.48
G1 E.8 F1500
;TYPE:Solid infill
;WIDTH:0.63252
G1 F6105.834
G2 X118.580 Y78.481 I-0.071 J0.019 E0.01802
;WIDTH:0.499999
G1 F7876.1
G1 X118.425 Y79.272 E.03063
G1 X119.488 Y78.22 E.05684
;WIDTH:0.460973
G1 F8611.355
G1 X119.557 Y78.162 E.00313
;WIDTH:0.421947
G1 F9000
G1 X119.626 Y78.104 E.00284
;WIDTH:0.38292
G1 X119.585 Y78.115 E.0012
G1 X119.566 Y78.044 E.00208
G1 X119.637 Y78.063 E.00208
;WIDTH:0.499999
G1 F7876.1
G1 X120.132 Y78.211 E.01964
G1 X118.395 Y79.948 E.09336
G1 X118.365 Y80.625 E.02576
G1 X120.846 Y78.144 E.13335
G1 X121.56 Y78.077 E.02726
G1 X118.336 Y81.301 E.17329
G1 X118.306 Y81.977 E.02572
G1 X122.273 Y78.01 E.21322
G1 X122.987 Y77.942 E.02726
G1 X118.276 Y82.653 E.25321
G1 X118.247 Y83.329 E.02572
G1 X123.701 Y77.875 E.29315
G1 X124.414 Y77.808 E.02722
G1 X118.217 Y84.005 E.33308
G1 X118.188 Y84.681 E.02572
G1 X125.128 Y77.741 E.37302
G1 X125.841 Y77.673 E.02722
G1 X118.158 Y85.357 E.41298
G1 X118.128 Y86.033 E.02572
G1 X126.555 Y77.606 E.45294
G1 X127.269 Y77.539 E.02726
G1 X118.099 Y86.709 E.49288
G1 X118.069 Y87.385 E.02572
G1 X127.982 Y77.472 E.53281
G1 X128.696 Y77.404 E.02726
G1 X118.039 Y88.061 E.5728
G1 X118.01 Y88.737 E.02572
G1 X129.41 Y77.337 E.61274
G1 X130.123 Y77.27 E.02722
G1 X117.98 Y89.413 E.65267
G1 X117.95 Y90.089 E.02572
G1 X130.837 Y77.203 E.69264
G1 X131.551 Y77.135 E.02726
G1 X117.921 Y90.765 E.7326
G1 X117.891 Y91.441 E.02572
G1 X132.264 Y77.068 E.77253
G1 X132.978 Y77.001 E.02726
G1 X117.862 Y92.117 E.81247
G1 X117.832 Y92.793 E.02572
G1 X133.692 Y76.934 E.85243
G1 X134.002 Y77.269 E.01735
G1 X117.802 Y93.469 E.87073
G1 X117.773 Y94.145 E.02572
G1 X134.002 Y77.916 E.87229
G1 X134.002 Y78.562 E.02455
G1 X117.743 Y94.821 E.8739
G1 X117.713 Y95.497 E.02572
G1 X134.002 Y79.208 E.87552
G1 X134.002 Y79.855 E.02459
G1 X117.684 Y96.173 E.87708
G1 X117.654 Y96.85 E.02576
G1 X134.002 Y80.501 E.87872
G1 X134.002 Y81.148 E.02459
G1 X117.624 Y97.526 E.8803
G1 X117.595 Y98.202 E.02572
G1 X134.002 Y81.794 E.88189
G1 X134.002 Y82.44 E.02455
G1 X117.565 Y98.878 E.8835
G1 X117.536 Y99.554 E.02572
G1 X134.002 Y83.087 E.88506
G1 X134.002 Y83.733 E.02455
G1 X117.506 Y100.23 E.88667
G1 X117.476 Y100.906 E.02572
G1 X134.002 Y84.38 E.88826
G1 X134.002 Y85.026 E.02455
G1 X117.447 Y101.582 E.88984
G1 X117.417 Y102.258 E.02572
G1 X134.002 Y85.673 E.89143
G1 X134.002 Y86.319 E.02455
G1 X117.387 Y102.934 E.89304
G1 X117.358 Y103.61 E.02572
G1 X134.002 Y86.965 E.89463
G1 X134.002 Y87.612 E.02459
G1 X117.328 Y104.286 E.89621
G1 X117.299 Y104.962 E.02572
G1 X134.002 Y88.258 E.8978
G1 X134.002 Y88.905 E.02459
G1 X117.269 Y105.638 E.89938
M73 P3 R40
G1 X117.239 Y106.314 E.02572
G1 X134.002 Y89.551 E.90099
G1 X134.002 Y90.197 E.02455
G1 X117.21 Y106.99 E.90258
G1 X117.18 Y107.666 E.02572
G1 X134.002 Y90.844 E.90417
G1 X134.002 Y91.49 E.02455
G1 X117.15 Y108.342 E.90578
G1 X117.121 Y109.018 E.02572
G1 X134.002 Y92.137 E.90734
G1 X134.002 Y92.783 E.02455
G1 X117.091 Y109.694 E.90895
G1 X117.061 Y110.37 E.02572
G1 X134.002 Y93.429 E.91056
G1 X134.002 Y94.076 E.02459
G1 X117.032 Y111.046 E.91212
G1 X117.002 Y111.722 E.02572
G1 X134.002 Y94.722 E.91373
G1 X134.002 Y95.369 E.02459
G1 X116.973 Y112.399 E.91532
G1 X116.943 Y113.075 E.02572
G1 X134.002 Y96.015 E.91693
