; generated by PrusaSlicer 2.6.0+win64 on 2025-10-30 at 18:15:56 UTC
; Postprocessed by [ArcWelder](https://github.com/FormerLurker/ArcWelderLib)
; Copyright(C) 2021 - Brad Hochgesang
; Version: 1.2.0, Branch: HEAD, BuildDate: 2021-11-21T20:25:43Z
; resolution=0.05mm
; path_tolerance=5.0%
; max_radius=9999.00mm
; default_xyz_precision=3
; default_e_precision=5
; extrusion_rate_variance_percent=5.0%














; 

; external perimeters extrusion width = 0.42mm
; perimeters extrusion width = 0.45mm
; infill extrusion width = 0.45mm
; solid infill extrusion width = 0.50mm
; top infill extrusion width = 0.42mm
; support material extrusion width = 0.42mm
; first layer extrusion width = 0.56mm

M73 P0 R1
M201 X2500 Y2500 Z200 E2500 ; sets maximum accelerations, mm/sec^2
M203 X200 Y200 Z40 E100 ; sets maximum feedrates, mm / sec
M204 P2000 R1200 T2000 ; sets acceleration (P, T) and retract acceleration (R), mm/sec^2
M205 X8.00 Y8.00 Z2.00 E10.00 ; sets the jerk limits, mm/sec
M205 S0 T0 ; sets the minimum extruding and travel feed rate, mm/sec
;TYPE:Custom
M17 ; enable steppers
M862.3 P "MK4" ; printer model check
M862.1 P0.4 ; nozzle diameter check
M115 U5.0.1+12089

M555 X91.187 Y62.2014 W67.6654 H81.6321

G90 ; use absolute coordinates
M83 ; extruder relative mode

M140 S55 ; set bed temp

M104 S170 ; set extruder temp for bed leveling
M109 R170 ; wait for temp


M84 E ; turn off E motor

G28 ; home all without mesh bed level

G1 X42 Y-4 Z5 F4800

M302 S160 ; lower cold extrusion limit to 160C


G1 E-2 F2400 ; retraction


M84 E ; turn off E motor

G29 P9 X10 Y-4 W32 H4

M106 S100

G0 Z40 F10000

M190 S55 ; wait for bed temp

M107


; MBL

M84 E ; turn off E motor
G29 P1 ; invalidate mbl & probe print area
G29 P1 X0 Y0 W50 H20 C ; probe near purge place
G29 P3.2 ; interpolate mbl probes
G29 P3.13 ; extrapolate mbl outside probe area
G29 A ; activate mbl

; prepare for purge
M104 S205
G0 X0 Y-4 Z15 F4800 ; move away and ready for the purge
M109 S205

G92 E0
M569 S0 E ; set spreadcycle mode for extruder


; Extrude purge line

G92 E0 ; reset extruder position
M73 P1 R1
G1 E2 F2400 ; deretraction after the initial one before nozzle cleaning
G0 E7 X15 Z0.2 F500 ; purge
G0 X25 E4 F500 ; purge
G0 X35 E4 F650 ; purge
G0 X45 E4 F800 ; purge
G0 X48 Z0.05 F8000 ; wipe, move close to the bed
G0 X51 Z0.2 F8000 ; wipe, move quickly away from the bed

G92 E0
M221 S100 ; set flow to 100%
G21 ; set units to millimeters
G90 ; use absolute coordinates
M83 ; use relative distances for extrusion
M900 K0.04 ; Filament gcode



M142 S40 ; set heatbreak target temp
M107
;LAYER_CHANGE
;Z:0.28
;HEIGHT:0.28
;BEFORE_LAYER_CHANGE
G92 E0.0
;0.28


G1 E-.8 F2100
M73 P2 R1
G1 Z.2 F7200
M73 P3 R1
G1 Z.28
;AFTER_LAYER_CHANGE
;0.28
G1 Z.48
M73 P7 R1
G1 X92.54 Y68.899
M73 P8 R1
G1 Z.28
M73 P10 R1
G1 E.8 F1500
;TYPE:Skirt/Brim
;WIDTH:0.56
M73 P11 R1
G1 F3000
G1 X93.3 Y68.034 E.06701
G1 X94.214 Y67.335 E.06696
G1 X95.244 Y66.828 E.06681
G1 X96.325 Y66.535 E.06518
G3 X98.056 Y66.511 I0.939 J5.300 E0.10107
M73 P12 R1
G3 X99.490 Y66.872 I-0.562 J5.261 E0.08626
G1 X100.569 Y67.442 E.07102
G1 X101.457 Y68.171 E.06686
G1 X102.011 Y68.83 E.0501
G1 X148.566 Y68.698 E2.70928
G1 X148.882 Y68.333 E.0281
G1 X149.795 Y67.591 E.06847
G1 X150.803 Y67.069 E.06606
G1 X151.829 Y66.771 E.06218
G1 X152.873 Y66.671 E.06103
G1 X154.063 Y66.795 E.06963
G1 X155.232 Y67.179 E.07161
G1 X156.181 Y67.728 E.0638
G1 X156.885 Y68.325 E.05372
M73 P14 R1
G1 X157.491 Y69.039 E.0545
G1 X158.083 Y70.091 E.07025
G1 X158.427 Y71.178 E.06635
G1 X158.545 Y72.317 E.06664
G1 X158.44 Y73.416 E.06425
G1 X158.118 Y74.485 E.06497
G1 X157.558 Y75.522 E.06859
G1 X156.862 Y76.356 E.06322
G1 X156.333 Y76.79 E.03982
G1 X156.333 Y133.349 E3.29145
G1 X156.932 Y133.859 E.04578
G1 X157.641 Y134.723 E.06504
G1 X158.2 Y135.787 E.06994
G1 X158.512 Y136.886 E.06648
G1 X158.599 Y137.993 E.06462
G1 X158.456 Y139.166 E.06877
G1 X158.089 Y140.247 E.06644
G1 X157.538 Y141.202 E.06416
G1 X156.936 Y141.911 E.05413
M73 P16 R1
G1 X156.216 Y142.522 E.05495
G1 X155.109 Y143.139 E.07375
G1 X154.012 Y143.474 E.06675
G1 X152.865 Y143.582 E.06704
G1 X151.761 Y143.466 E.0646
G1 X150.692 Y143.134 E.06514
G1 X149.684 Y142.583 E.06685
G1 X148.856 Y141.891 E.0628
G1 X148.405 Y141.34 E.04144
G1 X101.715 Y141.34 E2.71712
G1 X101.277 Y141.852 E.03921
G1 X100.426 Y142.551 E.06409
G1 X99.376 Y143.102 E.06901
G1 X98.292 Y143.41 E.06558
G1 X97.202 Y143.495 E.06363
G1 X96.045 Y143.353 E.06784
G1 X94.979 Y142.991 E.06552
G1 X94.04 Y142.448 E.06312
G1 X93.343 Y141.857 E.05318
M73 P17 R1
G1 X92.743 Y141.149 E.05401
G1 X92.175 Y140.151 E.06683
G1 X91.824 Y139.072 E.06603
G1 X91.697 Y137.867 E.07051
G1 X91.815 Y136.739 E.066
G1 X92.144 Y135.692 E.06387
G1 X92.677 Y134.717 E.06466
M73 P18 R1
G1 X93.367 Y133.892 E.06259
G1 X93.871 Y133.474 E.03811
G1 X93.871 Y77.069 E3.28249
G1 X93.159 Y76.475 E.05396
G1 X92.428 Y75.584 E.06707
G1 X91.851 Y74.486 E.07218
G1 X91.524 Y73.322 E.07036
G1 X91.442 Y72.125 E.06982
G1 X91.593 Y70.984 E.06698
G1 X91.964 Y69.895 E.06695
G1 X92.51 Y68.951 E.06346
G1 X92.934 Y69.208 F7200
M73 P19 R1
G1 F3000
G1 X93.626 Y68.414 E.06129
G1 X94.459 Y67.771 E.06124
G1 X95.4 Y67.303 E.06116
G1 X96.394 Y67.03 E.05999
G1 X97.212 Y66.953 E.04781
M73 P20 R1
G3 X101.775 Y69.331 I0.012 J5.544 E0.31163
G1 X148.8 Y69.197 E2.73663
G1 X149.217 Y68.706 E.03749
G1 X150.089 Y67.996 E.06544
G1 X151.009 Y67.525 E.06015
G3 X152.850 Y67.171 I1.880 J4.813 E0.10956
G1 X153.935 Y67.279 E.06345
G1 X155.007 Y67.626 E.06557
G3 X156.545 Y68.692 I-2.102 J4.676 E0.10936
M73 P21 R1
G1 X157.094 Y69.343 E.04956
G1 X157.615 Y70.268 E.06178
G1 X157.933 Y71.258 E.06051
G1 X158.045 Y72.298 E.06087
G1 X157.953 Y73.299 E.0585
G1 X157.665 Y74.273 E.05911
G1 X157.158 Y75.221 E.06256
G1 X156.494 Y76.016 E.06028
G1 X155.833 Y76.55 E.04945
G1 X155.833 Y133.582 E3.31897
G1 X156.56 Y134.195 E.05534
G1 X157.237 Y135.019 E.06206
G1 X157.744 Y135.995 E.064
M73 P22 R1
G3 X158.100 Y137.960 I-4.829 J1.890 E0.11676
G1 X157.973 Y139.033 E.06288
G1 X157.643 Y140.021 E.06062
G3 X156.569 Y141.572 I-4.725 J-2.124 E0.11025
M73 P23 R0
G1 X155.913 Y142.124 E.04989
G1 X154.935 Y142.669 E.06516
G1 X153.936 Y142.979 E.06087
G1 X152.89 Y143.082 E.06117
G1 X151.883 Y142.98 E.0589
G1 X150.907 Y142.682 E.05939
G1 X149.985 Y142.183 E.06101
G1 X149.196 Y141.524 E.05982
G1 X148.646 Y140.84 E.05108
G1 X101.482 Y140.84 E2.74471
G1 X100.941 Y141.481 E.04881
G1 X100.129 Y142.147 E.06112
M73 P24 R0
G1 X99.168 Y142.647 E.06304
G3 X97.235 Y142.996 I-1.855 J-4.745 E0.11485
G1 X96.178 Y142.871 E.06194
G1 X95.206 Y142.545 E.05966
G3 X93.683 Y141.489 I2.092 J-4.643 E0.10831
M73 P25 R0
G1 X93.14 Y140.846 E.04898
G1 X92.623 Y139.928 E.06131
G1 X92.308 Y138.945 E.06007
G1 X92.197 Y137.891 E.06168
G1 X92.3 Y136.862 E.06018
G3 X93.077 Y135.018 I5.047 J1.041 E0.11700
G1 X93.734 Y134.231 E.05966
G1 X94.371 Y133.713 E.04778
G1 X94.371 Y76.833 E3.31013
G1 X93.53 Y76.138 E.06349
G1 X92.831 Y75.288 E.06404
G1 X92.307 Y74.279 E.06616
G1 X92.021 Y73.26 E.06159
G1 X91.941 Y72.163 E.06401
G1 X92.075 Y71.119 E.06125
G1 X92.41 Y70.121 E.06126
G1 X92.904 Y69.26 E.05777
G1 X93.329 Y69.515 F7200
M73 P27 R0
G1 F3000
G3 X101.482 Y69.832 I3.973 J2.818 E0.56290
G1 X149.036 Y69.697 E2.76741
G1 X149.552 Y69.077 E.04694
G1 X150.383 Y68.401 E.06234
G3 X152.871 Y67.671 I2.503 J3.926 E0.15269
G1 X153.857 Y67.773 E.05769
G1 X154.782 Y68.074 E.05661
G3 X156.177 Y69.031 I-1.880 J4.235 E0.09886
M73 P29 R0
G1 X156.696 Y69.647 E.04688
G3 X157.194 Y74.104 I-3.817 J2.683 E0.27181
G1 X156.731 Y74.96 E.05663
G1 X156.129 Y75.674 E.05435
G1 X155.333 Y76.309 E.05926
G1 X155.333 Y133.883 E3.35052
G3 X156.189 Y134.530 I-1.599 J3.005 E0.06260
G1 X156.834 Y135.315 E.05913
G1 X157.288 Y136.199 E.05783
G3 X157.600 Y137.929 I-4.391 J1.685 E0.10275
G1 X157.49 Y138.902 E.05698
G3 X156.744 Y140.593 I-4.607 J-1.022 E0.10808
M73 P31 R0
G3 X150.286 Y141.783 I-3.839 J-2.713 E0.42248
G1 X149.537 Y141.157 E.05681
G1 X148.888 Y140.34 E.06072
G1 X101.203 Y140.34 E2.77503
G3 X100.605 Y141.110 I-2.996 J-1.709 E0.05684
G1 X99.833 Y141.744 E.05813
G1 X98.964 Y142.19 E.05684
G3 X97.267 Y142.496 I-1.648 J-4.279 E0.10080
G1 X96.309 Y142.388 E.0561
G3 X94.649 Y141.654 I1.016 J-4.541 E0.10613
M73 P32 R0
G3 X93.072 Y139.708 I2.655 J-3.763 E0.14740
M73 P33 R0
G3 X94.100 Y134.573 I4.239 J-1.822 E0.32354
G1 X94.871 Y133.954 E.05754
G1 X94.871 Y76.52 E3.34237
G3 X93.901 Y75.803 I1.663 J-3.265 E0.07041
G1 X93.235 Y74.991 E.06112
G1 X92.764 Y74.074 E.05999
G3 X93.299 Y69.567 I4.513 J-1.750 E0.27445
M73 P34 R0
G1 X93.725 Y69.821 F7200
G1 F3000
G1 X94.282 Y69.17 E.04986
M73 P35 R0
G3 X101.185 Y70.333 I3.021 J3.136 E0.47270
G1 X149.33 Y70.196 E2.80181
G3 X149.889 Y69.447 I2.749 J1.468 E0.05452
G1 X150.636 Y68.833 E.05627
G3 X155.269 Y68.920 I2.252 J3.497 E0.28557
M73 P36 R0
G3 X154.833 Y75.990 I-2.378 J3.402 E0.49363
G1 X154.833 Y134.177 E3.38619
G1 X155.308 Y134.447 E.0318
M73 P37 R0
G3 X156.346 Y140.289 I-2.402 J3.440 E0.38288
M73 P38 R0
G3 X149.206 Y139.840 I-3.433 J-2.399 E0.49883
G1 X100.909 Y139.84 E2.81064
G3 X100.236 Y140.772 I-2.979 J-1.442 E0.06714
M73 P39 R0
G3 X94.953 Y141.256 I-2.928 J-2.887 E0.33501
M73 P40 R0
G3 X95.371 Y134.272 I2.351 J-3.364 E0.48723
G1 X95.371 Y76.226 E3.37798
G3 X93.666 Y74.737 I1.814 J-3.798 E0.13323
G3 X93.696 Y69.873 I3.632 J-2.410 E0.29990
M73 P42 R0
G1 X94.124 Y70.124 F7200
G1 F3000
G3 X100.887 Y70.833 I3.187 J2.205 E0.48187
G1 X149.627 Y70.695 E2.83643
G3 X154.968 Y69.320 I3.264 J1.616 E0.36371
M73 P44 R0
G3 X154.333 Y75.691 I-2.084 J3.009 E0.45279
G1 X154.333 Y134.472 E3.42076
G3 X155.946 Y139.988 I-1.436 J3.414 E0.38212
M73 P46 R0
G3 X149.505 Y139.340 I-3.041 J-2.104 E0.45801
G1 X100.613 Y139.34 E2.84527
G3 X95.253 Y140.856 I-3.306 J-1.454 E0.36961
M73 P47 R0
G3 X94.329 Y135.845 I2.057 J-2.970 E0.32860
M73 P48 R0
G3 X95.871 Y134.571 I2.997 J2.057 E0.11776
G1 X95.871 Y75.93 E3.41261
G3 X94.094 Y70.176 I1.508 J-3.617 E0.40042
M73 P49 R0
G1 X94.524 Y70.424 F7200
G1 F3000
G3 X99.194 Y69.529 I2.785 J1.898 E0.30664
M73 P50 R0
G3 X100.521 Y71.334 I-1.813 J2.723 E0.13289
G1 X149.925 Y71.194 E2.87507
G3 X154.667 Y69.720 I2.967 J1.179 E0.33101
M73 P51 R0
G3 X153.833 Y75.335 I-1.773 J2.606 E0.41066
G1 X153.833 Y134.838 E3.46277
G3 X155.846 Y139.139 I-0.914 J3.049 E0.31157
M73 P53 R0
G3 X149.864 Y138.841 I-2.936 J-1.245 E0.45209
G1 X100.264 Y138.841 E2.88647
G3 X96.089 Y140.748 I-2.956 J-0.947 E0.30025
M73 P55 R0
G3 X96.371 Y134.925 I1.213 J-2.860 E0.43976
G1 X96.371 Y75.545 E3.45562
G3 X94.207 Y71.004 I0.916 J-3.223 E0.33089
M73 P57 R0
G1 X94.495 Y70.477 E.03495
G1 E-.64 F2100
;WIPE_START
G1 F5760
G1 X94.786 Y70.118 E-.16
;WIPE_END
G1 Z.48 F7200
G1 X98.203 Y74.839
G1 Z.28
G1 E.8 F1500
;TYPE:External perimeter
G1 F3000
G1 X98.099 Y74.588 E.01581
G1 X98.752 Y74.238 E.04312
G1 X98.903 Y74.464 E.01582
G3 X98.260 Y74.821 I-0.752 J-0.597 E0.04364
G1 X98.229 Y74.568 F7200
G1 X98.967 Y74.81
;WIDTH:0.640626
G1 F3000
G1 X98.863 Y75.228 E.02911
G1 X104.748 Y86.151 E.83851
G1 X105.034 Y86.031 F7200
;WIDTH:0.581474
G1 F3000
G1 X105.38 Y86.169 E.02261
G1 X106.517 Y85.694 E.07479
;WIDTH:0.632378
G3 X106.728 Y85.671 I0.122 J0.143 E0.01458
G1 X109.029 Y86.632 E.16613
;WIDTH:0.700753
G1 X109.201 Y86.742 E.01523
G1 X110.046 Y88.795 E.16557
M73 P58 R0
G1 E-.64 F2100
;WIPE_START
G1 F5760
G1 X109.871 Y88.368 E-.16
;WIPE_END
G1 Z.48 F7200
G1 X106.838 Y92.85
G1 Z.28
G1 E.8 F1500
;WIDTH:0.880246
G1 F3000
G1 X106.8 Y92.848 E.00363
;WIDTH:0.816414
G1 X106.673 Y92.829 E.01131
;WIDTH:0.741709
G1 X106.493 Y92.795 E.01454
;WIDTH:0.667328
G1 X104.167 Y91.823 E.1782
G1 X104.052 Y91.644 E.01504
;WIDTH:0.600609
G1 X103.084 Y89.283 E.16056
G1 X103.122 Y89.117 E.01072
G1 X104.076 Y86.797 E.15784
G3 X104.215 Y86.655 I0.179 J0.036 E0.01304
;WIDTH:0.540102
G3 X104.419 Y86.615 I0.124 J0.091 E0.01229
;WIDTH:0.457362
G1 X104.505 Y86.626 E.00401
;WIDTH:0.368077
G1 X104.618 Y86.627 E.00405
;WIDTH:0.306934
G1 X104.674 Y86.628 E.00161
M73 P59 R0
G1 X104.941 Y86.501 E.0085
;WIDTH:0.383641
G2 X105.312 Y86.248 I-0.105 J-0.553 E0.01726
;WIDTH:0.482557
G1 X105.536 Y85.988 E.01688
;WIDTH:0.581473
G1 X105.761 Y85.727 E.02092
G1 E-.64 F2100
;WIPE_START
G1 F5760
G3 X105.459 Y86.077 I-98.720 J-84.876 E-0.16000
;WIPE_END
G1 Z.48 F7200
G1 X97.068 Y135.45
G1 Z.28
G1 E.8 F1500
;WIDTH:0.777977
G1 F3000
G1 X96.941 Y135.507 E.01163
;WIDTH:0.690372
G2 X94.910 Y137.858 I0.384 J2.384 E0.24716
M73 P60 R0
G2 X99.695 Y138.262 I2.409 J0.008 E0.52699
;WIDTH:0.743771
G1 X99.747 Y138.134 E.011
G1 X99.467 Y136.732 F7200
;WIDTH:0.740333
G1 F3000
G1 X99.37 Y136.629 E.0112
;WIDTH:0.667076
G2 X97.279 Y135.485 I-2.072 J1.304 E0.17539
;WIDTH:0.731599
G1 X97.068 Y135.45 E.01672
G1 X97.058 Y135.342 E.00848
;WIDTH:0.63884
G1 X97.047 Y135.235 E.00725
;WIDTH:0.558252
G1 X97.045 Y75.573 E3.45989
G1 X97.308 Y75.3 E.02198
G1 X97.445 Y74.989 F7200
;WIDTH:0.56
G1 F3000
G3 X96.703 Y74.919 I-0.283 J-0.967 E0.04416
G1 X96.754 Y74.65 E.01593
G1 X97.445 Y74.718 E.04041
G1 X97.445 Y74.929 E.01228
G1 X97.076 Y74.957 F7200
M73 P62 R0
G1 X96.455 Y74.723
;WIDTH:0.917384
G1 F2999.467
G3 X96.340 Y69.986 I0.882 J-2.391 E0.60665
G3 X99.685 Y71.426 I0.964 J2.365 E0.40390
G1 X99.897 Y71.669 F7200
;WIDTH:0.56
G1 F3000
G3 X99.975 Y72.459 I-0.909 J0.489 E0.04712
G1 X99.703 Y72.459 E.01583
G1 X99.631 Y71.722 E.04309
G1 X99.838 Y71.68 E.01229
G1 X99.944 Y72.066 F7200
G1 X100.282 Y72.323
;WIDTH:0.654419
G1 F3000
G1 X100.588 Y72.033 E.02917
G1 X150.249 Y71.9 E3.43587
;WIDTH:0.746429
G1 X150.351 Y71.917 E.00826
;WIDTH:0.83844
G1 X150.453 Y71.934 E.00937
G1 E-.64 F2100
;WIPE_START
G1 F5760
G2 X150.152 Y71.892 I-0.591 J3.138 E-0.10535
M73 P64 R0
G1 X149.994 Y71.892 E-.05465
;WIPE_END
G1 Z.48 F7200
G1 X146.58 Y86.505
G1 Z.28
G1 E.8 F1500
;WIDTH:0.452943
G1 F3000
G1 X144.782 Y85.754 E.08911
G1 X144.657 Y85.724 E.00588
G1 X142.322 Y86.698 E.1157
;WIDTH:0.517803
G1 X142.192 Y86.781 E.00822
G1 X141.228 Y89.125 E.13504
;WIDTH:0.583576
G1 X141.19 Y89.324 E.01235
;WIDTH:0.670146
G1 X141.177 Y89.411 E.00625
;WIDTH:0.761762
G1 X141.163 Y89.499 E.00728
;WIDTH:0.853379
G1 X141.156 Y89.542 E.00402
G1 X141.216 Y89.583 E.00671
;WIDTH:0.772831
G1 X141.307 Y89.688 E.01153
;WIDTH:0.684465
G1 X141.398 Y89.793 E.0101
;WIDTH:0.596099
G1 X141.444 Y89.846 E.00438
G1 X142.177 Y91.631 E.1204
G1 X142.701 Y92.406 E.05837
G1 X141.948 Y91.719 F7200
;WIDTH:0.755774
G1 F3000
G1 X144.398 Y92.742 E.21502
G1 X144.855 Y92.962 E.04108
G1 E-.64 F2100
;WIPE_START
G1 F5760
G1 X144.439 Y92.762 E-.16
;WIPE_END
G1 Z.48 F7200
G1 X141.156 Y89.542
G1 Z.28
G1 E.8 F1500
;WIDTH:0.853379
G1 F3000
M73 P65 R0
G1 X140.929 Y89.578 E.02122
;WIDTH:0.782144
G1 X129.644 Y89.578 E.94856
G2 X129.381 Y89.635 I-0.108 J0.139 E0.02483
;WIDTH:0.728653
G1 X129.29 Y89.74 E.01081
;WIDTH:0.640286
G1 X129.199 Y89.846 E.00944
;WIDTH:0.551918
G1 X128.465 Y91.631 E.1105
G1 X128.203 Y92.018 E.02676
;WIDTH:0.636299
G1 X127.941 Y92.406 E.0314
G1 X128.695 Y91.719 F7200
;WIDTH:0.747744
G1 F3000
G1 X126.377 Y92.687 E.20109
G1 X125.936 Y92.802 F7200
;WIDTH:0.56
G1 F3000
G1 X126.097 Y92.734 E.01017
G1 X126.097 Y107.974 E.88689
G1 X125.936 Y107.907 E.01015
G1 X125.708 Y108.002 E.01437
G1 X125.708 Y92.707 E.89009
G1 X125.881 Y92.779 E.0109
G1 X126.105 Y92.847 F7200
M73 P66 R0
G1 X125.428 Y92.715
;WIDTH:0.851076
G1 F3000
G1 X123.108 Y91.746 E.23151
G1 X123.975 Y92.537 F7200
;WIDTH:0.722889
G1 F3000
G1 X123.674 Y92.091 E.04152
;WIDTH:0.668173
G1 X123.373 Y91.645 E.03809
G1 X122.672 Y89.94 E.1305
G1 X122.628 Y89.89 E.00471
;WIDTH:0.752864
G1 X122.541 Y89.789 E.01075
;WIDTH:0.837555
G1 X122.454 Y89.688 E.01206
;WIDTH:0.919085
G1 F2993.526
M73 P67 R0
G1 X122.381 Y89.618 E.01011
G1 X122.39 Y89.58 E.0039
;WIDTH:0.826838
G1 F3000
G1 X122.408 Y89.503 E.00706
;WIDTH:0.734592
G1 X122.427 Y89.426 E.00623
;WIDTH:0.642345
G1 X122.445 Y89.349 E.00536
;WIDTH:0.55007
G1 X122.47 Y89.224 E.00727
;WIDTH:0.47931
G1 X122.487 Y89.137 E.00433
G1 X123.394 Y86.929 E.11649
G1 X123.44 Y86.882 E.00321
;WIDTH:0.379374
G1 X123.582 Y86.771 E.0067
G1 X125.936 Y85.794 E.09473
G1 X128.29 Y86.771 E.09473
G1 X128.385 Y86.836 E.00428
;WIDTH:0.47931
