; generated by PrusaSlicer 2.6.0+win64 on 2025-10-24 at 23:37:01 UTC
; Postprocessed by [ArcWelder](https://github.com/FormerLurker/ArcWelderLib)
; Copyright(C) 2021 - Brad Hochgesang
; Version: 1.2.0, Branch: HEAD, BuildDate: 2021-11-21T20:25:43Z
; resolution=0.05mm
; path_tolerance=5.0%
; max_radius=9999.00mm
; default_xyz_precision=3
; default_e_precision=5
; extrusion_rate_variance_percent=5.0%














; 

; external perimeters extrusion width = 0.42mm
; perimeters extrusion width = 0.45mm
; infill extrusion width = 0.45mm
; solid infill extrusion width = 0.50mm
; top infill extrusion width = 0.42mm
; support material extrusion width = 0.42mm
; first layer extrusion width = 0.56mm

M73 P0 R3
M201 X2500 Y2500 Z200 E2500 ; sets maximum accelerations, mm/sec^2
M203 X200 Y200 Z40 E100 ; sets maximum feedrates, mm / sec
M204 P2000 R1200 T2000 ; sets acceleration (P, T) and retract acceleration (R), mm/sec^2
M205 X8.00 Y8.00 Z2.00 E10.00 ; sets the jerk limits, mm/sec
M205 S0 T0 ; sets the minimum extruding and travel feed rate, mm/sec
;TYPE:Custom
M17 ; enable steppers
M862.3 P "MK4" ; printer model check
M862.1 P0.4 ; nozzle diameter check
M115 U5.0.1+12089

M555 X84.4474 Y58.6499 W81.1051 H88.7001

G90 ; use absolute coordinates
M83 ; extruder relative mode

M140 S55 ; set bed temp

M104 S170 ; set extruder temp for bed leveling
M109 R170 ; wait for temp


M84 E ; turn off E motor

G28 ; home all without mesh bed level

G1 X42 Y-4 Z5 F4800

M302 S160 ; lower cold extrusion limit to 160C


G1 E-2 F2400 ; retraction


M84 E ; turn off E motor

G29 P9 X10 Y-4 W32 H4

M106 S100

G0 Z40 F10000

M190 S55 ; wait for bed temp

M107


; MBL

M84 E ; turn off E motor
G29 P1 ; invalidate mbl & probe print area
G29 P1 X0 Y0 W50 H20 C ; probe near purge place
G29 P3.2 ; interpolate mbl probes
G29 P3.13 ; extrapolate mbl outside probe area
G29 A ; activate mbl

; prepare for purge
M104 S205
G0 X0 Y-4 Z15 F4800 ; move away and ready for the purge
M109 S205

G92 E0
M569 S0 E ; set spreadcycle mode for extruder


; Extrude purge line

G92 E0 ; reset extruder position
G1 E2 F2400 ; deretraction after the initial one before nozzle cleaning
G0 E7 X15 Z0.2 F500 ; purge
G0 X25 E4 F500 ; purge
G0 X35 E4 F650 ; purge
G0 X45 E4 F800 ; purge
G0 X48 Z0.05 F8000 ; wipe, move close to the bed
G0 X51 Z0.2 F8000 ; wipe, move quickly away from the bed

G92 E0
M221 S100 ; set flow to 100%
G21 ; set units to millimeters
G90 ; use absolute coordinates
M83 ; use relative distances for extrusion
M900 K0.04 ; Filament gcode



M142 S40 ; set heatbreak target temp
M107
;LAYER_CHANGE
;Z:0.28
;HEIGHT:0.28
;BEFORE_LAYER_CHANGE
G92 E0.0
;0.28


G1 E-.8 F2100
G1 Z.2 F7200
M73 P1 R3
G1 Z.28
;AFTER_LAYER_CHANGE
;0.28
G1 Z.48
M73 P2 R3
G1 X85.35 Y63.953
M73 P3 R3
G1 Z.28
G1 E.8 F1500
;TYPE:Skirt/Brim
;WIDTH:0.56
G1 F3000
G3 X86.186 Y63.247 I2.417 J2.014 E0.06393
M73 P4 R3
G3 X87.265 Y62.905 I1.368 J2.444 E0.06622
G1 X97.156 Y62.924 E.57561
G1 X97.275 Y62.941 E.007
G3 X98.565 Y63.547 I-0.591 J2.934 E0.08354
G1 X99.174 Y64.232 E.05334
G1 X99.296 Y64.444 E.01423
G1 X100.514 Y67.545 E.19388
G1 X148.984 Y67.545 E2.82071
G1 X150.232 Y64.389 E.1975
G3 X150.872 Y63.600 I2.894 J1.693 E0.05927
G1 X151.797 Y63.058 E.06239
G1 X152.527 Y62.9 E.04347
G1 X162.733 Y62.905 E.59394
G3 X164.257 Y63.559 I-0.266 J2.722 E0.09788
M73 P5 R3
G3 X165.286 Y65.365 I-1.788 J2.215 E0.12361
G1 X165.302 Y76.364 E.64009
G3 X163.681 Y78.753 I-2.920 J-0.237 E0.17547
G1 X160.906 Y79.67 E.17008
G1 X160.906 Y132.252 E3.06001
G1 X163.719 Y133.189 E.17255
G3 X164.492 Y133.758 I-1.434 J2.758 E0.05602
G1 X165.01 Y134.5 E.05266
G1 X165.133 Y134.779 E.01774
G1 X165.302 Y135.524 E.04446
G1 X165.302 Y144.479 E.52114
G3 X162.680 Y147.100 I-2.907 J-0.286 E0.23363
G1 X152.461 Y147.088 E.59469
G1 X152.178 Y147.051 E.01661
M73 P6 R3
G3 X150.926 Y146.446 I0.655 J-2.953 E0.08147
G1 X150.352 Y145.804 E.05012
G1 X150.204 Y145.556 E.01681
G1 X149.421 Y143.566 E.12445
G1 X100.079 Y143.566 E2.87145
G1 X99.296 Y145.556 E.12445
G1 X99.148 Y145.804 E.01681
G1 X98.574 Y146.446 E.05012
G3 X97.039 Y147.088 I-1.835 J-2.232 E0.09808
G1 X87.32 Y147.1 E.5656
G3 X84.698 Y144.479 I0.283 J-2.905 E0.23361
G1 X84.724 Y135.32 E.53301
G3 X85.846 Y133.462 I2.892 J0.479 E0.12917
G1 X86.553 Y133.067 E.04713
G1 X88.781 Y132.438 E.13473
G1 X88.781 Y79.486 E3.08154
G1 X86.597 Y78.87 E.13206
G1 X86.155 Y78.668 E.02828
G1 X85.45 Y78.103 E.05258
G3 X84.698 Y76.370 I2.148 J-1.962 E0.11176
G1 X84.703 Y65.465 E.63462
G1 X84.8 Y64.972 E.02924
M73 P7 R3
G3 X85.316 Y64.002 I2.496 J0.705 E0.06430
G1 X85.719 Y64.29 F7200
G1 F3000
G3 X87.292 Y63.405 I1.848 J1.444 E0.10758
G1 X97.172 Y63.43 E.57497
G3 X98.264 Y63.948 I-0.476 J2.414 E0.07088
G1 X98.779 Y64.539 E.04562
G1 X98.837 Y64.642 E.00688
G1 X100.173 Y68.045 E.21275
G1 X149.325 Y68.045 E2.8604
G1 X150.654 Y64.659 E.21168
G3 X151.199 Y63.978 I2.384 J1.349 E0.05088
G1 X151.946 Y63.537 E.05048
G1 X152.556 Y63.4 E.03638
G1 X162.707 Y63.405 E.59074
G3 X163.916 Y63.926 I-0.239 J2.217 E0.07763
M73 P8 R3
G3 X164.792 Y65.446 I-1.448 J1.847 E0.10442
G1 X164.802 Y76.342 E.63409
G3 X163.492 Y78.289 I-2.421 J-0.214 E0.14237
G1 X160.406 Y79.309 E.18915
G1 X160.406 Y132.614 E3.10208
G1 X163.476 Y133.628 E.18815
G3 X164.135 Y134.109 I-1.132 J2.242 E0.04763
G1 X164.584 Y134.763 E.04617
G3 X164.802 Y135.554 I-2.010 J0.979 E0.04788
G1 X164.802 Y144.454 E.51793
G3 X164.528 Y145.353 I-2.284 J-0.205 E0.05499
M73 P9 R3
G3 X162.655 Y146.600 I-2.185 J-1.251 E0.13593
G1 X152.48 Y146.588 E.59213
G3 X151.229 Y146.046 I0.289 J-2.383 E0.08034
G1 X150.744 Y145.493 E.04281
G1 X150.662 Y145.355 E.00934
G1 X149.762 Y143.066 E.14313
G1 X99.739 Y143.066 E2.91109
G1 X98.838 Y145.355 E.14316
G1 X98.756 Y145.493 E.00934
G1 X98.271 Y146.046 E.04281
G3 X97.021 Y146.588 I-1.541 J-1.842 E0.08028
G1 X87.345 Y146.6 E.56309
G3 X86.084 Y146.074 I0.183 J-2.214 E0.08064
M73 P10 R3
G3 X85.198 Y144.454 I1.439 J-1.839 E0.11023
G1 X85.215 Y135.418 E.52585
G3 X86.717 Y133.540 I2.409 J0.387 E0.14610
G1 X89.281 Y132.817 E.15503
G1 X89.281 Y79.108 E3.12559
G1 X86.749 Y78.394 E.1531
G1 X86.437 Y78.254 E.0199
G1 X85.834 Y77.782 E.04456
G3 X85.198 Y76.351 I1.681 J-1.604 E0.09263
G1 X85.203 Y65.492 E.63194
G3 X85.685 Y64.340 I2.123 J0.212 E0.07358
G1 X86.088 Y64.628 F7200
G1 F3000
G3 X87.318 Y63.905 I1.486 J1.120 E0.08500
G1 X97.071 Y63.923 E.56758
G3 X98.361 Y64.813 I-0.363 J1.906 E0.09358
G1 X99.832 Y68.545 E.23345
G1 X149.667 Y68.545 E2.90014
G1 X151.076 Y64.929 E.22584
G3 X151.523 Y64.360 I1.801 J0.954 E0.04221
G1 X152.1 Y64.014 E.03915
M73 P11 R3
G1 X152.585 Y63.9 E.02899
G1 X162.679 Y63.905 E.58742
G3 X164.297 Y65.523 I-0.281 J1.899 E0.14253
G1 X164.302 Y76.322 E.62845
G3 X163.300 Y77.826 I-1.919 J-0.193 E0.10933
G1 X159.906 Y78.948 E.20803
G1 X159.906 Y132.976 E3.14416
G1 X163.234 Y134.066 E.2038
G3 X163.774 Y134.456 I-0.841 J1.734 E0.03890
G1 X164.173 Y135.059 E.04208
G1 X164.302 Y135.586 E.03157
G1 X164.302 Y144.429 E.51462
G3 X163.910 Y145.373 I-1.720 J-0.161 E0.06027
M73 P12 R3
G3 X162.631 Y146.100 I-1.478 J-1.111 E0.08783
G1 X152.5 Y146.088 E.58957
G3 X151.140 Y145.186 I0.283 J-1.903 E0.09784
G1 X150.102 Y142.566 E.164
G1 X99.398 Y142.566 E2.95072
G1 X98.361 Y145.186 E.16398
G3 X97.000 Y146.088 I-1.645 J-1.004 E0.09789
G1 X87.369 Y146.1 E.56048
G3 X86.424 Y145.708 I0.160 J-1.720 E0.06033
M73 P13 R3
G3 X85.698 Y144.430 I1.116 J-1.479 E0.08776
G1 X85.706 Y135.516 E.51875
G3 X86.884 Y134.012 I1.907 J0.281 E0.11607
G1 X89.781 Y133.195 E.17517
G1 X89.781 Y78.729 E3.16965
G1 X86.899 Y77.917 E.17425
G1 X86.714 Y77.837 E.01173
G1 X86.214 Y77.455 E.03662
G3 X85.698 Y76.330 I1.314 J-1.284 E0.07320
G1 X85.703 Y65.521 E.62903
G3 X85.922 Y64.867 I1.801 J0.239 E0.04032
M73 P14 R3
G1 X86.054 Y64.678 E.01342
G1 X86.456 Y64.967 F7200
G1 F3000
G3 X87.347 Y64.405 I1.134 J0.811 E0.06267
G1 X96.959 Y64.411 E.55937
G3 X97.936 Y65.085 I-0.239 J1.391 E0.07103
G1 X99.492 Y69.045 E.2476
G1 X150.009 Y69.045 E2.93983
G1 X151.529 Y65.144 E.24364
G3 X152.617 Y64.400 I1.248 J0.657 E0.07945
G1 X162.607 Y64.4 E.58137
G3 X163.802 Y65.595 I-0.202 J1.397 E0.10530
G1 X163.802 Y76.302 E.62309
G1 X163.775 Y76.463 E.0095
M73 P15 R3
G3 X163.052 Y77.391 I-1.397 J-0.343 E0.07041
G1 X159.406 Y78.585 E.22327
G1 X159.406 Y133.34 E3.18646
G1 X162.993 Y134.505 E.21948
G3 X163.408 Y134.797 I-0.557 J1.233 E0.02962
G1 X163.705 Y135.247 E.03138
G1 X163.802 Y135.619 E.02237
G1 X163.802 Y144.405 E.5113
G3 X162.607 Y145.600 I-1.398 J-0.203 E0.10529
G1 X152.485 Y145.582 E.58905
G3 X151.563 Y144.915 I0.306 J-1.393 E0.06786
G1 X150.443 Y142.066 E.17815
G1 X99.058 Y142.066 E2.99035
G1 X97.937 Y144.915 E.17817
G3 X97.015 Y145.582 I-1.240 J-0.743 E0.06788
G1 X87.393 Y145.6 E.55995
G3 X86.766 Y145.342 I0.123 J-1.189 E0.03989
M73 P16 R3
G3 X86.198 Y144.405 I0.789 J-1.119 E0.06541
G1 X86.198 Y135.614 E.51159
G1 X86.306 Y135.212 E.02422
G3 X86.710 Y134.688 I1.334 J0.611 E0.03866
G1 X87.053 Y134.484 E.02322
G1 X90.28 Y133.574 E.19512
G1 X90.28 Y78.351 E3.2137
G1 X87.053 Y77.441 E.19512
G3 X86.198 Y76.307 I0.554 J-1.307 E0.08637
G1 X86.202 Y65.549 E.62606
G1 X86.234 Y65.407 E.00847
M73 P16 R2
G1 X86.371 Y65.089 E.02015
M73 P17 R2
G1 X86.422 Y65.016 E.00518
G1 X86.829 Y65.301 F7200
G1 F3000
G3 X87.417 Y64.900 I0.782 J0.515 E0.04222
G1 X96.912 Y64.911 E.55256
G3 X97.520 Y65.363 I-0.199 J0.902 E0.04528
G1 X99.149 Y69.545 E.26118
G1 X150.351 Y69.545 E2.9797
G1 X151.98 Y65.363 E.26118
G3 X152.653 Y64.900 I0.794 J0.433 E0.04906
G1 X162.583 Y64.9 E.57788
G3 X163.302 Y65.620 I-0.187 J0.906 E0.06229
G1 X163.297 Y76.317 E.62251
M73 P18 R2
G3 X162.803 Y76.956 I-0.895 J-0.181 E0.04845
G1 X158.906 Y78.221 E.23843
G1 X158.906 Y133.703 E3.22877
G1 X162.803 Y134.969 E.23845
G3 X163.302 Y135.656 I-0.404 J0.818 E0.05118
G1 X163.302 Y144.38 E.50769
G3 X162.583 Y145.100 I-0.910 J-0.190 E0.06229
G1 X152.588 Y145.089 E.58166
G1 X152.376 Y145.014 E.01309
M73 P19 R2
G3 X151.980 Y144.636 I0.406 J-0.821 E0.03223
G1 X150.785 Y141.567 E.19166
G1 X98.715 Y141.567 E3.03021
G1 X97.521 Y144.636 E.19164
G3 X96.912 Y145.089 I-0.807 J-0.449 E0.04537
G1 X87.417 Y145.1 E.55256
G3 X86.698 Y144.380 I0.187 J-0.906 E0.06229
G1 X86.698 Y135.652 E.50793
G3 X87.225 Y134.955 I0.889 J0.124 E0.05280
G1 X90.78 Y133.952 E.21496
G1 X90.78 Y77.972 E3.25775
G1 X87.211 Y76.966 E.21579
G3 X86.703 Y76.323 I0.422 J-0.856 E0.04911
M73 P20 R2
G1 X86.698 Y65.62 E.62286
G1 X86.798 Y65.352 E.01665
G1 X87.236 Y65.602 F7200
G1 F3000
G3 X87.491 Y65.400 I0.373 J0.209 E0.01924
G1 X96.805 Y65.4 E.54203
G3 X97.068 Y65.580 I-0.089 J0.412 E0.01894
G1 X98.808 Y70.045 E.27887
G1 X150.693 Y70.045 E3.01944
G1 X152.432 Y65.58 E.27885
G3 X152.695 Y65.400 I0.348 J0.226 E0.01894
G1 X162.509 Y65.4 E.57113
G3 X162.803 Y65.694 I-0.122 J0.416 E0.02506
G1 X162.803 Y76.224 E.61279
M73 P21 R2
G3 X162.606 Y76.494 I-0.418 J-0.098 E0.01988
G1 X158.406 Y77.858 E.25699
G1 X158.406 Y134.067 E3.27108
G1 X162.606 Y135.431 E.25699
G3 X162.803 Y135.701 I-0.214 J0.363 E0.01991
G1 X162.803 Y144.306 E.50077
G3 X162.509 Y144.600 I-0.413 J-0.119 E0.02506
G1 X152.695 Y144.6 E.57113
M73 P22 R2
G3 X152.432 Y144.420 I0.089 J-0.412 E0.01894
G1 X151.127 Y141.067 E.20939
G1 X98.373 Y141.067 E3.07002
G1 X97.068 Y144.42 E.20939
G3 X96.805 Y144.600 I-0.348 J-0.226 E0.01894
G1 X87.491 Y144.6 E.54203
G3 X87.197 Y144.306 I0.122 J-0.416 E0.02506
G1 X87.197 Y135.698 E.50094
M73 P23 R2
G3 X87.405 Y135.423 I0.414 J0.097 E0.02056
G1 X91.28 Y134.331 E.23429
G1 X91.28 Y77.594 E3.30181
G1 X87.405 Y76.501 E.2343
G3 X87.197 Y76.227 I0.203 J-0.370 E0.02051
G1 X87.197 Y65.694 E.61297
G1 X87.213 Y65.658 E.00229
G1 E-.64 F2100
;WIPE_START
G1 F5760
G1 X87.4 Y65.438 E-.10001
G3 X87.566 Y65.400 I0.128 J0.180 E-0.05999
;WIPE_END
G1 Z.48 F7200
G1 X92.355 Y134.853
G1 Z.28
G1 E.8 F1500
;TYPE:External perimeter
G1 F3000
G1 X96.508 Y136.024 E.25111
G1 X97.901 Y139.606 E.22366
G1 X151.599 Y139.606 E3.12495
G1 X152.995 Y136.017 E.22411
M73 P24 R2
G1 X157.587 Y134.526 E.28096
G1 X162.113 Y135.996 E.27693
G1 X162.113 Y143.91 E.46055
G1 X152.974 Y143.91 E.53184
G1 X151.599 Y140.377 E.22062
G1 X97.901 Y140.377 E3.12495
G1 X96.526 Y143.91 E.22062
G1 X87.887 Y143.91 E.50275
G1 X87.887 Y136.004 E.46009
G1 X91.97 Y134.853 E.24687
M73 P25 R2
G1 X91.97 Y77.072 E3.36256
G1 X87.887 Y75.92 E.24689
G1 X87.887 Y66.09 E.57206
G1 X96.526 Y66.09 E.50275
G1 X98.336 Y70.735 E.29011
G1 X151.164 Y70.735 E3.07432
G1 X152.974 Y66.09 E.29011
G1 X162.113 Y66.09 E.53184
M73 P26 R2
G1 X162.113 Y75.929 E.57258
G1 X157.587 Y77.398 E.27692
G1 X152.995 Y75.907 E.28096
G1 X151.164 Y71.208 E.29348
G1 X98.336 Y71.208 E3.07432
G1 X96.508 Y75.901 E.2931
G1 X92.355 Y77.072 E.25111
M73 P27 R2
G1 X92.355 Y134.793 E3.35907
G1 X92.273 Y135.244 F7200
G1 E-.64 F2100
;WIPE_START
G1 F5760
G1 X92.798 Y134.924 E-.16
;WIPE_END
G1 Z.48 F7200
G1 X88.387 Y75.542
M73 P28 R2
G1 Z.28
G1 E.8 F1500
;TYPE:Perimeter
G1 F3000
G1 X88.387 Y66.59 E.52096
G1 X96.185 Y66.59 E.4538
G1 X97.892 Y70.971 E.27362
G1 X96.132 Y75.487 E.28206
G1 X92.163 Y76.606 E.23998
M73 P29 R2
G1 X88.445 Y75.558 E.2248
G1 E-.64 F2100
;WIPE_START
G1 F5760
G1 X88.442 Y75.096 E-.16
;WIPE_END
G1 Z.48 F7200
G1 X89.143 Y69.135
G1 Z.28
G1 E.8 F1500
G1 F3000
G1 X88.887 Y69.097 E.01506
G1 X88.887 Y67.09 E.1168
G1 X90.722 Y67.09 E.10679
G1 X89.98 Y67.699 E.05586
G2 X89.161 Y69.078 I2.220 J2.251 E0.09431
G1 E-.64 F2100
;WIPE_START
G1 F5760
G1 X88.887 Y69.097 E-.09513
G1 X88.887 Y68.91 E-.06487
;WIPE_END
G1 Z.48 F7200
G1 X90.174 Y71.005
G1 Z.28
G1 E.8 F1500
;TYPE:External perimeter
G1 F3000
G3 X92.835 Y67.757 I2.199 J-0.912 E0.29860
M73 P30 R2
G3 X90.202 Y71.057 I-0.458 J2.335 E0.56726
G1 X89.777 Y70.952 F7200
G1 X89.73 Y71.234
;TYPE:Perimeter
G1 F3000
G3 X90.335 Y72.132 I2.651 J-1.133 E0.98932
G3 X89.758 Y71.287 I1.828 J-1.868 E0.05983
G1 E-.64 F2100
;WIPE_START
G1 F5760
G1 X89.611 Y70.849 E-.16
;WIPE_END
G1 Z.48 F7200
G1 X88.887 Y75.163
G1 Z.28
G1 E.8 F1500
G1 F3000
G1 X88.887 Y71.089 E.23709
G1 X89.143 Y71.051 E.01506
G2 X94.768 Y67.699 I3.241 J-0.956 E0.71585
G1 X94.026 Y67.09 E.05586
G1 X95.843 Y67.09 E.10574
G1 X97.355 Y70.971 E.24239
G1 X95.757 Y75.074 E.25624
G1 X92.163 Y76.087 E.2173
G1 X88.945 Y75.18 E.19457
G1 E-.64 F2100
;WIPE_START
G1 F5760
G1 X88.938 Y74.718 E-.16
;WIPE_END
G1 Z.48 F7200
G1 X153.375 Y75.505
G1 Z.28
G1 E.8 F1500
G1 F3000
G1 X151.609 Y70.971 E.28316
G1 X153.316 Y66.59 E.27362
G1 X161.613 Y66.59 E.48284
G1 X161.613 Y75.566 E.52236
G1 X157.587 Y76.873 E.24633
G1 X153.432 Y75.523 E.25424
M73 P31 R2
G1 E-.64 F2100
;WIPE_START
G1 F5760
G1 X153.26 Y75.094 E-.16
;WIPE_END
G1 Z.48 F7200
G1 X160.886 Y68.766
G1 Z.28
G1 E.8 F1500
G1 F3000
G2 X160.168 Y67.699 I-3.023 J1.259 E0.07521
G1 X159.426 Y67.09 E.05586
G1 X161.113 Y67.09 E.09817
G1 X161.113 Y68.709 E.09422
G1 X160.944 Y68.752 E.01015
G1 E-.64 F2100
;WIPE_START
G1 F5760
G1 X160.691 Y68.366 E-.16
;WIPE_END
G1 Z.48 F7200
G1 X157.774 Y72.475
G1 Z.28
G1 E.8 F1500
;TYPE:External perimeter
G1 F3000
G3 X159.754 Y71.416 I-0.001 J-2.381 E0.73342
M73 P32 R2
G3 X157.834 Y72.469 I-1.964 J-1.304 E0.13233
G1 X157.574 Y72.821 F7200
G1 X157.732 Y72.973
;TYPE:Perimeter
G1 F3000
G3 X158.878 Y72.757 I0.050 J-2.882 E0.98440
G3 X157.792 Y72.975 I-1.083 J-2.582 E0.06479
G1 X157.69 Y73.471 F7200
G1 F3000
G1 X157.774 Y73.479 E.00491
G2 X160.886 Y71.420 I0.004 J-3.375 E0.22974
G1 X161.113 Y71.477 E.01362
G1 X161.113 Y75.202 E.21678
G1 X157.587 Y76.347 E.21574
G1 X153.755 Y75.102 E.23448
G1 X152.145 Y70.971 E.25802
G1 X153.657 Y67.09 E.24239
G1 X156.122 Y67.09 E.14345
G1 X155.38 Y67.699 E.05586
G2 X157.630 Y73.465 I2.383 J2.392 E0.45511
G1 E-.64 F2100
;WIPE_START
G1 F5760
G2 X158.090 Y73.448 I0.187 J-1.175 E-0.16000
;WIPE_END
G1 Z.48 F7200
G1 X151.986 Y139.991
G1 Z.28
G1 E.8 F1500
G1 F3000
G1 X153.375 Y136.42 E.22298
G1 X157.587 Y135.052 E.25772
G1 X161.613 Y136.359 E.24633
G1 X161.613 Y143.41 E.41033
G1 X153.316 Y143.41 E.48284
G1 X152.007 Y140.047 E.21001
G1 E-.64 F2100
;WIPE_START
M73 P33 R2
G1 F5760
G1 X152.17 Y139.615 E-.16
;WIPE_END
G1 Z.48 F7200
G1 X160.886 Y141.424
G1 Z.28
G1 E.8 F1500
G1 F3000
G1 X161.113 Y141.481 E.01362
G1 X161.113 Y142.91 E.08316
