; generated by PrusaSlicer 2.6.0+win64 on 2025-10-23 at 10:45:54 UTC
; Postprocessed by [ArcWelder](https://github.com/FormerLurker/ArcWelderLib)
; Copyright(C) 2021 - Brad Hochgesang
; Version: 1.2.0, Branch: HEAD, BuildDate: 2021-11-21T20:25:43Z
; resolution=0.05mm
; path_tolerance=5.0%
; max_radius=9999.00mm
; default_xyz_precision=3
; default_e_precision=5
; extrusion_rate_variance_percent=5.0%














; 

; external perimeters extrusion width = 0.42mm
; perimeters extrusion width = 0.45mm
; infill extrusion width = 0.45mm
; solid infill extrusion width = 0.50mm
; top infill extrusion width = 0.42mm
; support material extrusion width = 0.42mm
; first layer extrusion width = 0.56mm

; external perimeters extrusion width = 0.42mm
; perimeters extrusion width = 0.45mm
; infill extrusion width = 0.45mm
; solid infill extrusion width = 0.50mm
; top infill extrusion width = 0.42mm
; support material extrusion width = 0.42mm
; first layer extrusion width = 0.56mm

; external perimeters extrusion width = 0.42mm
; perimeters extrusion width = 0.45mm
; infill extrusion width = 0.45mm
; solid infill extrusion width = 0.50mm
; top infill extrusion width = 0.42mm
; support material extrusion width = 0.42mm
; first layer extrusion width = 0.56mm

; external perimeters extrusion width = 0.42mm
; perimeters extrusion width = 0.45mm
; infill extrusion width = 0.45mm
; solid infill extrusion width = 0.50mm
; top infill extrusion width = 0.42mm
; support material extrusion width = 0.42mm
; first layer extrusion width = 0.56mm

; external perimeters extrusion width = 0.42mm
; perimeters extrusion width = 0.45mm
; infill extrusion width = 0.45mm
; solid infill extrusion width = 0.50mm
; top infill extrusion width = 0.42mm
; support material extrusion width = 0.42mm
; first layer extrusion width = 0.56mm

M73 P0 R114
M201 X2500 Y2500 Z200 E2500 ; sets maximum accelerations, mm/sec^2
M203 X200 Y200 Z40 E100 ; sets maximum feedrates, mm / sec
M204 P2000 R1200 T2000 ; sets acceleration (P, T) and retract acceleration (R), mm/sec^2
M205 X8.00 Y8.00 Z2.00 E10.00 ; sets the jerk limits, mm/sec
M205 S0 T0 ; sets the minimum extruding and travel feed rate, mm/sec
;TYPE:Custom
M17 ; enable steppers
M862.3 P "MK4" ; printer model check
M862.1 P0.4 ; nozzle diameter check
M115 U5.0.1+12089

M555 X95.8959 Y41.0419 W78.6272 H107.193

G90 ; use absolute coordinates
M83 ; extruder relative mode

M140 S55 ; set bed temp

M104 S170 ; set extruder temp for bed leveling
M109 R170 ; wait for temp


M84 E ; turn off E motor

G28 ; home all without mesh bed level

G1 X42 Y-4 Z5 F4800

M302 S160 ; lower cold extrusion limit to 160C


G1 E-2 F2400 ; retraction


M84 E ; turn off E motor

G29 P9 X10 Y-4 W32 H4

M106 S100

G0 Z40 F10000

M190 S55 ; wait for bed temp

M107


; MBL

M84 E ; turn off E motor
G29 P1 ; invalidate mbl & probe print area
G29 P1 X0 Y0 W50 H20 C ; probe near purge place
G29 P3.2 ; interpolate mbl probes
G29 P3.13 ; extrapolate mbl outside probe area
G29 A ; activate mbl

; prepare for purge
M104 S205
G0 X0 Y-4 Z15 F4800 ; move away and ready for the purge
M109 S205

G92 E0
M569 S0 E ; set spreadcycle mode for extruder


; Extrude purge line

G92 E0 ; reset extruder position
G1 E2 F2400 ; deretraction after the initial one before nozzle cleaning
G0 E7 X15 Z0.2 F500 ; purge
G0 X25 E4 F500 ; purge
G0 X35 E4 F650 ; purge
G0 X45 E4 F800 ; purge
G0 X48 Z0.05 F8000 ; wipe, move close to the bed
G0 X51 Z0.2 F8000 ; wipe, move quickly away from the bed

G92 E0
M221 S100 ; set flow to 100%
G21 ; set units to millimeters
G90 ; use absolute coordinates
M83 ; use relative distances for extrusion
M900 K0.04 ; Filament gcode



M142 S40 ; set heatbreak target temp
M107
;LAYER_CHANGE
;Z:0.28
;HEIGHT:0.28
;BEFORE_LAYER_CHANGE
G92 E0.0
;0.28


G1 E-.8 F2100
G1 Z.2 F7200
G1 Z.28
;AFTER_LAYER_CHANGE
;0.28
G1 Z.48
G1 X101.987 Y46.93
G1 Z.28
G1 E.8 F1500
;TYPE:Skirt/Brim
;WIDTH:0.56
G1 F3000
G3 X104.143 Y45.362 I2.664 J1.396 E0.16070
G1 X138.102 Y45.344 E1.97624
G1 X151.461 Y45.316 E.77743
G3 X153.861 Y47.924 I-0.526 J2.892 E0.22128
G1 X153.833 Y54.038 E.35581
G3 X152.352 Y56.248 I-2.929 J-0.362 E0.16042
G1 X151.512 Y56.62 E.05346
G1 X152.476 Y57.066 E.06181
G3 X153.861 Y59.292 I-1.576 J2.525 E0.15790
G1 X153.833 Y65.407 E.35587
G3 X151.778 Y67.890 I-3.071 J-0.449 E0.19740
G3 X153.861 Y70.447 I-0.947 J2.898 E0.20286
G1 X153.833 Y76.562 E.35587
G3 X151.388 Y79.101 I-2.919 J-0.364 E0.21995
G1 X104.314 Y79.124 E2.73947
G3 X101.712 Y76.675 I0.297 J-2.923 E0.22351
G1 X101.71 Y70.326 E.36948
G3 X103.828 Y67.919 I3.074 J0.570 E0.19612
G3 X101.719 Y65.577 I0.944 J-2.971 E0.19229
G1 X101.704 Y59.221 E.36989
G3 X103.165 Y57.068 I2.936 J0.420 E0.15658
G1 X104.097 Y56.656 E.0593
G1 X103.191 Y56.258 E.05759
G3 X101.718 Y54.209 I1.497 J-2.630 E0.15147
G1 X101.704 Y47.852 E.36995
G3 X101.965 Y46.986 I2.551 J0.297 E0.05284
G1 X102.428 Y47.174 F7200
G1 F3000
G3 X104.174 Y45.862 I2.159 J1.055 E0.13156
G1 X138.103 Y45.844 E1.9745
G1 X151.371 Y45.809 E.77213
G3 X153.361 Y47.946 I-0.430 J2.395 E0.18218
G1 X153.333 Y54.012 E.35301
G3 X151.357 Y56.077 I-2.426 J-0.344 E0.17761
G1 X104.339 Y56.1 E2.73621
G3 X102.211 Y54.118 I0.272 J-2.425 E0.18131
G1 X102.204 Y47.881 E.36296
G3 X102.405 Y47.229 I1.974 J0.252 E0.03985
G1 X102.866 Y47.42 F7200
G1 F3000
G3 X104.261 Y46.355 I1.720 J0.806 E0.10583
G2 X151.286 Y46.302 I14.250 J-8217.934 E2.73662
G3 X152.861 Y47.968 I-0.344 J1.902 E0.14279
G1 X152.833 Y53.983 E.35005
G3 X151.270 Y55.584 I-1.919 J-0.310 E0.13875
G1 X104.363 Y55.6 E2.72975
G3 X102.704 Y54.031 I0.248 J-1.923 E0.14212
G1 X102.704 Y47.912 E.35609
G3 X102.843 Y47.476 I1.416 J0.211 E0.02672
G1 X103.305 Y47.667 F7200
G1 F3000
G3 X104.342 Y46.849 I1.303 J0.586 E0.07988
G2 X151.207 Y46.796 I15.894 J-6665.565 E2.72732
G3 X152.361 Y47.991 I-0.261 J1.407 E0.10310
G1 X152.333 Y53.95 E.34679
G3 X151.189 Y55.090 I-1.415 J-0.276 E0.09972
G1 X104.388 Y55.1 E2.72358
G3 X103.197 Y53.951 I0.218 J-1.417 E0.10263
G1 X103.197 Y47.993 E.34673
G3 X103.282 Y47.722 I0.865 J0.122 E0.01659
G1 X103.744 Y47.914 F7200
G1 F3000
G3 X104.412 Y47.344 I0.852 J0.322 E0.05310
G2 X151.138 Y47.292 I16.847 J-5855.153 E2.71922
G3 X151.861 Y48.014 I-0.187 J0.910 E0.06258
G1 X151.838 Y53.878 E.34126
G3 X151.119 Y54.595 I-0.907 J-0.190 E0.06215
G1 X104.412 Y54.6 E2.71811
G3 X103.693 Y53.880 I0.187 J-0.906 E0.06229
G1 X103.693 Y48.063 E.33852
G1 X103.721 Y47.969 E.00571
G1 X104.192 Y48.138 F7200
G1 F3000
G3 X104.486 Y47.844 I0.413 J0.119 E0.02506
G2 X151.066 Y47.792 I16.810 J-5804.163 E2.71072
G3 X151.361 Y48.087 I-0.112 J0.407 E0.02518
G1 X151.339 Y53.802 E.33259
G3 X151.045 Y54.095 I-0.409 J-0.117 E0.02504
G1 X104.486 Y54.1 E2.7095
G3 X104.192 Y53.806 I0.122 J-0.416 E0.02506
G1 X104.192 Y48.198 E.32636
G1 E-.64 F2100
;WIPE_START
G1 F5760
G3 X104.462 Y47.854 I0.384 J0.024 E-0.16000
;WIPE_END
G1 Z.48 F7200
G1 X104.197 Y57.231
G1 Z.28
G1 E.8 F1500
G1 F3000
M73 P0 R113
G1 X138.103 Y57.213 E1.97316
G1 X151.371 Y57.178 E.77213
G3 X153.361 Y59.315 I-0.430 J2.395 E0.18219
G1 X153.333 Y65.38 E.35296
G3 X151.357 Y67.446 I-2.429 J-0.345 E0.17766
G1 X104.339 Y67.468 E2.73621
G3 X102.211 Y65.487 I0.275 J-2.429 E0.18125
G1 X102.204 Y59.249 E.36302
G3 X104.138 Y57.240 I2.416 J0.390 E0.17269
G1 X104.255 Y57.725 F7200
G1 F3000
G2 X151.286 Y57.671 I13.980 J-8304.566 E2.73697
G3 X152.861 Y59.337 I-0.344 J1.902 E0.14280
G1 X152.833 Y65.351 E.34999
G3 X151.270 Y66.953 I-1.922 J-0.312 E0.13877
G1 X104.364 Y66.968 E2.72969
G3 X102.704 Y65.400 I0.244 J-1.921 E0.14214
G1 X102.704 Y59.281 E.35609
G3 X104.196 Y57.739 I1.912 J0.357 E0.13225
G1 X104.306 Y58.226 F7200
G1 F3000
G2 X151.207 Y58.165 I14.149 J-7151.903 E2.72941
G3 X152.361 Y59.360 I-0.261 J1.407 E0.10310
G1 X152.333 Y65.319 E.34679
G3 X151.189 Y66.459 I-1.415 J-0.276 E0.09972
G1 X104.388 Y66.469 E2.72358
G3 X103.198 Y65.319 I0.219 J-1.417 E0.10264
G1 X103.198 Y59.362 E.34667
G3 X104.247 Y58.239 I1.416 J0.271 E0.09422
G1 X104.364 Y58.722 F7200
G1 F3000
G2 X151.138 Y58.660 I15.229 J-6154.216 E2.72201
G3 X151.861 Y59.382 I-0.187 J0.910 E0.06256
G1 X151.838 Y65.247 E.34132
G3 X151.119 Y65.964 I-0.911 J-0.195 E0.06212
G1 X104.413 Y65.969 E2.71805
G3 X103.693 Y65.249 I0.190 J-0.910 E0.06232
G1 X103.693 Y59.432 E.33852
G3 X104.309 Y58.745 I0.880 J0.169 E0.05599
G1 X104.487 Y59.212 F7200
G1 F3000
G2 X151.066 Y59.160 I16.810 J-5804.038 E2.71066
G3 X151.361 Y59.455 I-0.116 J0.411 E0.02516
G1 X151.339 Y65.171 E.33264
G3 X151.045 Y65.464 I-0.409 J-0.117 E0.02504
G1 X104.487 Y65.469 E2.70944
G3 X104.193 Y65.175 I0.115 J-0.409 E0.02508
G1 X104.193 Y59.506 E.32991
G3 X104.431 Y59.235 I0.362 J0.078 E0.02155
G1 E-.64 F2100
;WIPE_START
G1 F5760
G1 X104.893 Y59.235 E-.16
;WIPE_END
G1 Z.48 F7200
G1 X104.436 Y68.386
G1 Z.28
G1 E.8 F1500
G1 F3000
G1 X138.103 Y68.369 E1.95925
G1 X151.371 Y68.333 E.77213
G3 X153.361 Y70.470 I-0.432 J2.398 E0.18215
G1 X153.333 Y76.536 E.35301
G3 X151.357 Y78.601 I-2.426 J-0.344 E0.17764
G1 X104.339 Y78.624 E2.73621
G3 X102.211 Y76.643 I0.275 J-2.429 E0.18123
G1 X102.204 Y70.405 E.36302
G3 X104.376 Y68.386 I2.353 J0.354 E0.18663
G1 X104.376 Y68.879 F7200
G1 F3000
G2 X151.286 Y68.827 I14.457 J-8116.868 E2.72993
G3 X152.861 Y70.493 I-0.344 J1.902 E0.14282
G1 X152.833 Y76.507 E.34999
G3 X151.270 Y78.108 I-1.919 J-0.310 E0.13876
G1 X104.364 Y78.124 E2.72969
G3 X102.704 Y76.556 I0.244 J-1.921 E0.14213
G1 X102.704 Y70.437 E.35609
G3 X104.316 Y68.879 I1.890 J0.343 E0.13928
G1 X104.342 Y69.373 F7200
G1 F3000
G2 X151.207 Y69.321 I15.872 J-6813.491 E2.72731
G3 X152.361 Y70.515 I-0.261 J1.407 E0.10307
G1 X152.333 Y76.475 E.34685
G3 X151.189 Y77.615 I-1.415 J-0.276 E0.09972
G1 X104.388 Y77.624 E2.72358
G3 X103.198 Y76.475 I0.219 J-1.417 E0.10259
G1 X103.198 Y70.518 E.34667
G3 X104.284 Y69.386 I1.413 J0.268 E0.09649
G1 X104.381 Y69.875 F7200
G1 F3000
G2 X151.138 Y69.816 I15.580 J-6180.544 E2.72102
G3 X151.861 Y70.538 I-0.187 J0.910 E0.06256
G1 X151.838 Y76.403 E.34132
G3 X151.119 Y77.119 I-0.907 J-0.192 E0.06209
G1 X104.413 Y77.124 E2.71805
G3 X103.693 Y76.405 I0.190 J-0.910 E0.06229
G1 X103.693 Y70.588 E.33852
G3 X104.324 Y69.894 I0.894 J0.179 E0.05697
G1 X104.487 Y70.368 F7200
G1 F3000
G2 X151.066 Y70.316 I16.810 J-5804.038 E2.71066
G3 X151.361 Y70.611 I-0.116 J0.411 E0.02516
G1 X151.339 Y76.327 E.33264
G3 X151.045 Y76.620 I-0.409 J-0.117 E0.02503
G1 X104.487 Y76.624 E2.70944
G3 X104.193 Y76.331 I0.117 J-0.411 E0.02503
G1 X104.193 Y70.662 E.32991
G3 X104.431 Y70.391 I0.362 J0.078 E0.02156
G1 E-.64 F2100
;WIPE_START
G1 F5760
G1 X104.893 Y70.391 E-.16
;WIPE_END
G1 Z.48 F7200
G1 X136.224 Y89.688
G1 Z.28
G1 E.8 F1500
G1 F3000
G1 X136.783 Y89.105 E.047
G3 X138.293 Y88.474 I1.769 J2.110 E0.09655
G1 X140.365 Y88.514 E.1206
G1 X158.678 Y88.514 E1.06572
G3 X160.204 Y89.130 I-0.218 J2.738 E0.09708
G1 X160.779 Y89.706 E.04736
G1 X171.652 Y89.706 E.63275
G3 X174.273 Y92.325 I-0.291 J2.912 E0.23347
G1 X174.273 Y118.277 E1.51027
G3 X171.653 Y120.898 I-2.914 J-0.293 E0.23351
G1 X160.779 Y120.898 E.63281
G3 X159.794 Y121.752 I-2.738 J-2.163 E0.07618
G3 X158.678 Y122.089 I-1.348 J-2.447 E0.06822
G1 X140.365 Y122.089 E1.06572
G1 X138.394 Y122.137 E.11474
G3 X135.706 Y119.516 I0.224 J-2.919 E0.23715
G1 X135.717 Y90.988 E1.66019
G3 X136.193 Y89.739 I2.706 J0.316 E0.07849
G1 X136.619 Y90.001 F7200
G1 F3000
G1 X137.121 Y89.474 E.04236
G3 X138.358 Y88.970 I1.437 J1.757 E0.07877
G1 X140.359 Y89.014 E.11648
G1 X158.655 Y89.014 E1.06473
G3 X160.486 Y90.205 I-0.262 J2.406 E0.13179
G1 X171.627 Y90.205 E.64835
G3 X173.773 Y92.351 I-0.266 J2.412 E0.19080
G1 X173.773 Y118.252 E1.50731
G3 X171.627 Y120.398 I-2.412 J-0.266 E0.19083
G1 X160.486 Y120.398 E.64835
G3 X158.655 Y121.589 I-2.064 J-1.171 E0.13181
G1 X140.359 Y121.589 E1.06473
G1 X138.407 Y121.637 E.11363
G3 X136.206 Y119.489 I0.212 J-2.419 E0.19383
G1 X136.211 Y91.065 E1.65413
G3 X136.587 Y90.052 I2.146 J0.220 E0.06345
G1 X137.01 Y90.317 F7200
G1 F3000
G1 X137.042 Y90.265 E.00355
G3 X138.419 Y89.467 I1.591 J1.158 E0.09531
G1 X140.352 Y89.514 E.11252
G1 X158.629 Y89.514 E1.06363
G3 X160.200 Y90.705 I-0.326 J2.062 E0.11975
G1 X171.603 Y90.705 E.6636
G3 X173.273 Y92.376 I-0.240 J1.910 E0.14803
G1 X173.273 Y118.228 E1.50446
G3 X171.602 Y119.898 I-1.910 J-0.240 E0.14803
G1 X160.2 Y119.898 E.66354
G3 X158.629 Y121.089 I-1.893 J-0.865 E0.11977
G1 X140.352 Y121.089 E1.06363
G1 X138.419 Y121.136 E.11252
G3 X136.706 Y119.465 I0.196 J-1.915 E0.15033
G1 X136.706 Y91.139 E1.64843
G3 X136.978 Y90.368 I1.599 J0.131 E0.04799
G1 X137.396 Y90.638 F7200
G1 F3000
G3 X138.432 Y89.967 I1.200 J0.718 E0.07415
G1 X140.346 Y90.014 E.11142
G1 X158.605 Y90.014 E1.06258
G3 X159.838 Y91.205 I-0.286 J1.530 E0.10566
G1 X171.578 Y91.205 E.68321
G3 X172.773 Y92.400 I-0.213 J1.408 E0.10525
G1 X172.773 Y118.203 E1.5016
G3 X171.578 Y119.398 I-1.408 J-0.213 E0.10527
G1 X159.838 Y119.398 E.68321
G3 X158.605 Y120.589 I-1.516 J-0.336 E0.10568
G1 X140.346 Y120.589 E1.06258
G1 X138.432 Y120.636 E.11142
G3 X137.206 Y119.440 I0.182 J-1.413 E0.10691
G1 X137.206 Y91.164 E1.64552
G3 X137.364 Y90.688 I1.282 J0.161 E0.02932
G1 X137.814 Y90.907 F7200
G1 F3000
G1 X138.119 Y90.596 E.02535
G1 X138.445 Y90.468 E.02038
G1 X140.34 Y90.514 E.11031
G1 X158.58 Y90.514 E1.06148
G3 X159.300 Y91.234 I-0.190 J0.910 E0.06232
G1 X159.3 Y91.705 E.02741
G1 X171.553 Y91.705 E.71306
G3 X172.273 Y92.425 I-0.190 J0.910 E0.06232
G1 X172.273 Y118.179 E1.49875
G3 X171.553 Y118.898 I-0.910 J-0.191 E0.06227
G1 X159.3 Y118.898 E.71306
G1 X159.3 Y119.37 E.02747
G1 X159.195 Y119.647 E.01724
G3 X158.580 Y120.089 I-0.808 J-0.475 E0.04503
G1 X140.34 Y120.089 E1.06148
G1 X138.445 Y120.136 E.11031
G3 X137.706 Y119.415 I0.173 J-0.916 E0.06327
G1 X137.706 Y91.189 E1.64261
G1 X137.791 Y90.963 E.01405
G1 X138.245 Y91.171 F7200
G1 F3000
G3 X138.508 Y90.969 I0.371 J0.211 E0.01963
G1 X140.334 Y91.014 E.1063
G1 X158.506 Y91.014 E1.05752
G3 X158.800 Y91.308 I-0.115 J0.409 E0.02508
G1 X158.8 Y92.205 E.0522
G1 X171.479 Y92.205 E.73785
G3 X171.773 Y92.499 I-0.115 J0.409 E0.02508
G1 X171.773 Y118.104 E1.49008
G3 X171.479 Y118.398 I-0.409 J-0.115 E0.02508
G1 X158.8 Y118.398 E.73785
G1 X158.8 Y119.296 E.05226
G3 X158.506 Y119.589 I-0.409 J-0.117 E0.02503
G1 X140.334 Y119.589 E1.05752
G1 X138.508 Y119.634 E.1063
G3 X138.206 Y119.339 I0.107 J-0.412 E0.02550
G1 X138.206 Y91.264 E1.63382
G1 X138.222 Y91.226 E.0024
G1 E-.64 F2100
;WIPE_START
G1 F5760
G1 X138.414 Y91.006 E-.10114
G3 X138.577 Y90.971 I0.122 J0.173 E-0.05886
;WIPE_END
G1 Z.48 F7200
G1 X123.67 Y91.226
G1 Z.28
G1 E.8 F1500
G1 F3000
G1 X123.67 Y126.955 E2.07925
G3 X123.080 Y128.451 I-2.763 J-0.225 E0.09480
G1 X122.473 Y129.043 E.04934
G1 X121.941 Y129.372 E.0364
G1 X122.044 Y129.735 E.02196
G1 X134.062 Y129.737 E.69939
G3 X136.627 Y132.352 I-0.348 J2.907 E0.23025
G1 X136.627 Y145.364 E.75723
G3 X136.125 Y146.746 I-2.847 J-0.252 E0.08644
G1 X135.548 Y147.355 E.04882
G3 X134.006 Y147.984 I-1.765 J-2.121 E0.09829
G1 X106.958 Y147.984 E1.57406
G3 X105.576 Y147.482 I0.252 J-2.847 E0.08645
G1 X104.967 Y146.905 E.04882
G3 X104.343 Y145.411 I2.119 J-1.762 E0.09549
G1 X104.338 Y132.352 E.75997
G3 X106.911 Y129.737 I2.915 J0.295 E0.23072
G1 X115.524 Y129.734 E.50123
G1 X115.632 Y129.38 E.02154
G3 X114.037 Y127.597 I1.501 J-2.948 E0.14248
G1 X113.906 Y126.956 E.03807
G1 X113.906 Y105.15 E1.269
G3 X114.021 Y104.565 I1.906 J0.071 E0.03479
G1 X114.021 Y89.859 E.85581
G3 X113.906 Y89.275 I1.792 J-0.656 E0.03473
G1 X113.906 Y83.044 E.36261
G3 X114.530 Y81.511 I2.733 J0.219 E0.09766
M73 P1 R113
G1 X115.145 Y80.926 E.0494
G3 X116.534 Y80.424 I1.591 J2.230 E0.08686
G1 X121.106 Y80.428 E.26607
G3 X123.670 Y83.044 I-0.349 J2.907 E0.23025
G1 X123.67 Y91.166 E.47266
G1 E-.64 F2100
;WIPE_START
G1 F5760
G1 X123.67 Y91.628 E-.16
;WIPE_END
G1 Z.48 F7200
G1 X123.663 Y130.235
G1 Z.28
G1 E.8 F1500
G1 F3000
G1 X134.034 Y130.237 E.60354
G3 X136.127 Y132.377 I-0.320 J2.407 E0.18769
G1 X136.127 Y145.339 E.75432
G3 X135.711 Y146.464 I-2.319 J-0.218 E0.07052
G3 X133.981 Y147.485 I-2.014 J-1.436 E0.12032
G1 X106.983 Y147.485 E1.57115
G3 X104.838 Y145.339 I0.268 J-2.413 E0.19078
G1 X104.838 Y132.378 E.75426
