; generated by PrusaSlicer 2.6.0+win64 on 2025-10-22 at 21:52:58 UTC
; Postprocessed by [ArcWelder](https://github.com/FormerLurker/ArcWelderLib)
; Copyright(C) 2021 - Brad Hochgesang
; Version: 1.2.0, Branch: HEAD, BuildDate: 2021-11-21T20:25:43Z
; resolution=0.05mm
; path_tolerance=5.0%
; max_radius=9999.00mm
; default_xyz_precision=3
; default_e_precision=5
; extrusion_rate_variance_percent=5.0%














; 

; external perimeters extrusion width = 0.42mm
; perimeters extrusion width = 0.45mm
; infill extrusion width = 0.45mm
; solid infill extrusion width = 0.50mm
; top infill extrusion width = 0.42mm
; support material extrusion width = 0.42mm
; first layer extrusion width = 0.56mm

; external perimeters extrusion width = 0.42mm
; perimeters extrusion width = 0.45mm
; infill extrusion width = 0.45mm
; solid infill extrusion width = 0.50mm
; top infill extrusion width = 0.42mm
; support material extrusion width = 0.42mm
; first layer extrusion width = 0.56mm

; external perimeters extrusion width = 0.42mm
; perimeters extrusion width = 0.45mm
; infill extrusion width = 0.45mm
; solid infill extrusion width = 0.50mm
; top infill extrusion width = 0.42mm
; support material extrusion width = 0.42mm
; first layer extrusion width = 0.56mm

; external perimeters extrusion width = 0.42mm
; perimeters extrusion width = 0.45mm
; infill extrusion width = 0.45mm
; solid infill extrusion width = 0.50mm
; top infill extrusion width = 0.42mm
; support material extrusion width = 0.42mm
; first layer extrusion width = 0.56mm

; external perimeters extrusion width = 0.42mm
; perimeters extrusion width = 0.45mm
; infill extrusion width = 0.45mm
; solid infill extrusion width = 0.50mm
; top infill extrusion width = 0.42mm
; support material extrusion width = 0.42mm
; first layer extrusion width = 0.56mm

; external perimeters extrusion width = 0.42mm
; perimeters extrusion width = 0.45mm
; infill extrusion width = 0.45mm
; solid infill extrusion width = 0.50mm
; top infill extrusion width = 0.42mm
; support material extrusion width = 0.42mm
; first layer extrusion width = 0.56mm

; external perimeters extrusion width = 0.42mm
; perimeters extrusion width = 0.45mm
; infill extrusion width = 0.45mm
; solid infill extrusion width = 0.50mm
; top infill extrusion width = 0.42mm
; support material extrusion width = 0.42mm
; first layer extrusion width = 0.56mm

M73 P0 R35
M201 X2500 Y2500 Z200 E2500 ; sets maximum accelerations, mm/sec^2
M203 X200 Y200 Z40 E100 ; sets maximum feedrates, mm / sec
M204 P2000 R1200 T2000 ; sets acceleration (P, T) and retract acceleration (R), mm/sec^2
M205 X8.00 Y8.00 Z2.00 E10.00 ; sets the jerk limits, mm/sec
M205 S0 T0 ; sets the minimum extruding and travel feed rate, mm/sec
;TYPE:Custom
M17 ; enable steppers
M862.3 P "MK4" ; printer model check
M862.1 P0.4 ; nozzle diameter check
M115 U5.0.1+12089

M555 X59.1102 Y80.9102 W118.989 H73.1825

G90 ; use absolute coordinates
M83 ; extruder relative mode

M140 S55 ; set bed temp

M104 S170 ; set extruder temp for bed leveling
M109 R170 ; wait for temp


M84 E ; turn off E motor

G28 ; home all without mesh bed level

G1 X42 Y-4 Z5 F4800

M302 S160 ; lower cold extrusion limit to 160C


G1 E-2 F2400 ; retraction


M84 E ; turn off E motor

G29 P9 X10 Y-4 W32 H4

M106 S100

G0 Z40 F10000

M190 S55 ; wait for bed temp

M107


; MBL

M84 E ; turn off E motor
G29 P1 ; invalidate mbl & probe print area
G29 P1 X0 Y0 W50 H20 C ; probe near purge place
G29 P3.2 ; interpolate mbl probes
G29 P3.13 ; extrapolate mbl outside probe area
G29 A ; activate mbl

; prepare for purge
M104 S205
G0 X0 Y-4 Z15 F4800 ; move away and ready for the purge
M109 S205

G92 E0
M569 S0 E ; set spreadcycle mode for extruder


; Extrude purge line

G92 E0 ; reset extruder position
G1 E2 F2400 ; deretraction after the initial one before nozzle cleaning
G0 E7 X15 Z0.2 F500 ; purge
G0 X25 E4 F500 ; purge
G0 X35 E4 F650 ; purge
G0 X45 E4 F800 ; purge
G0 X48 Z0.05 F8000 ; wipe, move close to the bed
G0 X51 Z0.2 F8000 ; wipe, move quickly away from the bed

G92 E0
M221 S100 ; set flow to 100%
G21 ; set units to millimeters
G90 ; use absolute coordinates
M83 ; use relative distances for extrusion
M900 K0.04 ; Filament gcode



M142 S40 ; set heatbreak target temp
M107
;LAYER_CHANGE
;Z:0.28
;HEIGHT:0.28
;BEFORE_LAYER_CHANGE
G92 E0.0
;0.28


G1 E-.8 F2100
G1 Z.2 F7200
G1 Z.28
;AFTER_LAYER_CHANGE
;0.28
G1 Z.48
G1 X62.577 Y89.118
G1 Z.28
G1 E.8 F1500
;TYPE:Skirt/Brim
;WIDTH:0.56
G1 F3000
G1 X63.795 Y88.498 E.07954
G1 X65.115 Y88.128 E.07978
G1 X66.436 Y88.023 E.07712
G1 X67.775 Y88.172 E.0784
G1 X69.077 Y88.585 E.07949
G1 X70.274 Y89.244 E.07952
G1 X71.207 Y90.02 E.07062
G3 X73.825 Y87.905 I2.891 J0.901 E0.20767
G1 X75.796 Y87.953 E.11474
G1 X94.11 Y87.953 E1.06578
G3 X95.636 Y88.569 I-0.223 J2.750 E0.09708
G1 X96.21 Y89.145 E.04732
G1 X107.123 Y89.148 E.63508
G3 X109.693 Y91.660 I-0.332 J2.911 E0.22511
G1 X109.701 Y98.074 E.37326
G1 X110.046 Y98.186 E.02111
G1 X112.342 Y95.046 E.22637
G1 X121.661 Y87.357 E.70309
G1 X121.826 Y87.253 E.01135
G1 X122.531 Y86.99 E.04379
G1 X134.081 Y85.184 E.68032
G1 X134.646 Y85.184 E.03288
G1 X147.499 Y88.291 E.76952
G1 X152.222 Y90.515 E.3038
G1 X152.771 Y90.904 E.03916
G1 X159.056 Y97.423 E.52697
G1 X159.06 Y89.794 E.44397
G3 X161.676 Y87.223 I2.896 J0.331 E0.23067
G1 X175.334 Y87.233 E.79483
G3 X177.849 Y89.843 I-0.393 J2.895 E0.22738
G1 X177.849 Y115.021 E1.46523
G3 X175.228 Y117.642 I-2.907 J-0.286 E0.23357
G1 X161.571 Y117.632 E.79477
G3 X160.149 Y117.025 I0.327 J-2.734 E0.09106
G1 X159.598 Y116.457 E.04605
G3 X159.034 Y115.016 I2.561 J-1.833 E0.09092
G1 X154.207 Y120.01 E.40419
G3 X152.528 Y120.698 I-1.884 J-2.205 E0.10719
G1 X151.604 Y120.703 E.05377
G1 X151.993 Y121.611 E.05749
G1 X152.101 Y122.184 E.03393
G1 X152.101 Y150.897 E1.67095
G3 X149.480 Y153.517 I-2.896 J-0.276 E0.23356
G1 X134.804 Y153.517 E.85407
G3 X133.554 Y153.125 I0.296 J-3.132 E0.07665
G3 X131.885 Y153.842 I-1.926 J-2.183 E0.10727
G1 X110.375 Y153.842 E1.25177
G3 X108.552 Y152.935 I0.213 J-2.714 E0.12127
G3 X106.831 Y153.729 I-1.944 J-1.952 E0.11245
G1 X73.506 Y153.729 E1.93935
G3 X72.046 Y153.167 I0.226 J-2.765 E0.09213
G1 X71.466 Y152.59 E.04761
G3 X70.890 Y151.157 I2.163 J-1.702 E0.09097
G1 X70.883 Y148.7 E.14299
G1 X69.833 Y149.879 E.09188
G1 X69.108 Y150.438 E.05328
G1 X68.158 Y150.914 E.06184
G3 X66.221 Y151.247 I-1.831 J-4.851 E0.11490
G1 X65.168 Y151.115 E.06176
G1 X64.21 Y150.793 E.05882
G1 X63.332 Y150.288 E.05894
G1 X62.534 Y149.585 E.06189
G3 X61.167 Y145.975 I3.801 J-3.503 E0.22988
G1 X61.298 Y144.923 E.06169
G3 X62.098 Y143.124 I5.017 J1.154 E0.11510
G1 X62.793 Y142.321 E.0618
G1 X63.637 Y141.677 E.06178
G3 X66.452 Y140.921 I2.691 J4.402 E0.17170
G1 X67.492 Y141.051 E.06099
G3 X70.094 Y142.546 I-1.167 J5.042 E0.17689
G1 X70.547 Y143.13 E.04301
G1 X70.885 Y143.015 E.02078
G1 X70.885 Y136.294 E.39113
G1 X70.157 Y137.108 E.06355
G1 X69.281 Y137.776 E.06411
G1 X68.294 Y138.26 E.06397
G1 X67.279 Y138.533 E.06117
G1 X66.181 Y138.612 E.06406
G1 X65.089 Y138.475 E.06405
G1 X64.043 Y138.127 E.06415
G1 X63.127 Y137.61 E.06121
G1 X62.255 Y136.862 E.06686
G1 X61.58 Y135.993 E.06404
G1 X61.087 Y135.008 E.0641
G1 X60.795 Y133.946 E.0641
G1 X60.716 Y132.896 E.06128
G1 X60.855 Y131.753 E.06701
G1 X61.183 Y130.754 E.06119
G1 X61.747 Y129.754 E.06681
G1 X62.505 Y128.887 E.06702
G3 X64.278 Y127.771 I3.827 J4.113 E0.12246
G1 X65.439 Y127.454 E.07004
G3 X67.527 Y127.511 I0.891 J5.615 E0.12207
G1 X68.62 Y127.871 E.06697
G1 X69.575 Y128.415 E.06396
G3 X70.885 Y129.703 I-3.397 J4.765 E0.10724
G1 X70.885 Y124.45 E.3057
G1 X69.536 Y125.486 E.09898
G1 X68.515 Y125.995 E.06639
G1 X67.368 Y126.313 E.06927
G1 X66.232 Y126.401 E.06631
G1 X65.051 Y126.266 E.06918
G1 X63.919 Y125.902 E.0692
G1 X62.84 Y125.297 E.07199
G1 X61.939 Y124.521 E.0692
G1 X61.233 Y123.625 E.06638
G1 X60.689 Y122.566 E.06928
G1 X60.353 Y121.373 E.07213
G1 X60.266 Y120.186 E.06926
G1 X60.411 Y119.006 E.06919
G1 X60.764 Y117.923 E.06629
G1 X61.341 Y116.884 E.06916
G1 X62.147 Y115.942 E.07215
G1 X63.085 Y115.21 E.06924
G1 X64.101 Y114.693 E.06634
G1 X64.964 Y114.448 E.05221
G1 X64.971 Y114.077 E.02159
G1 X63.756 Y113.685 E.0743
G1 X62.678 Y113.096 E.07149
G1 X61.624 Y112.206 E.08028
G1 X60.86 Y111.241 E.07163
G1 X60.274 Y110.105 E.07439
G1 X59.912 Y108.83 E.07713
G1 X59.814 Y107.556 E.07436
G1 X59.957 Y106.335 E.07154
G1 X60.385 Y105.026 E.08015
G1 X60.992 Y103.957 E.07154
G1 X61.825 Y102.987 E.07441
G1 X62.831 Y102.199 E.07437
G1 X63.974 Y101.612 E.07478
G1 X62.347 Y100.708 E.10832
G1 X61.273 Y99.785 E.08241
G1 X60.462 Y98.749 E.07657
G1 X59.86 Y97.578 E.07662
G1 X59.471 Y96.219 E.08226
G1 X59.362 Y94.904 E.07679
G1 X59.524 Y93.495 E.08254
G1 X59.927 Y92.239 E.07676
G1 X60.615 Y91.003 E.08232
G1 X61.538 Y89.93 E.08237
G1 X62.529 Y89.155 E.07321
G1 X62.837 Y89.549 F7200
G1 F3000
G1 X63.998 Y88.956 E.07587
G1 X65.224 Y88.616 E.07404
G1 X66.45 Y88.523 E.07155
G1 X67.693 Y88.666 E.07281
G1 X68.9 Y89.053 E.07376
G1 X70.009 Y89.669 E.07383
G1 X70.944 Y90.455 E.07108
G1 X71.62 Y91.28 E.06207
G1 X71.648 Y90.455 E.04804
G3 X73.837 Y88.406 I2.396 J0.366 E0.18805
G1 X75.79 Y88.453 E.11369
G1 X94.086 Y88.453 E1.06473
G3 X95.918 Y89.644 I-0.264 J2.410 E0.13183
G1 X107.06 Y89.644 E.64841
G3 X109.194 Y91.690 I-0.273 J2.421 E0.18489
G1 X109.203 Y99.607 E.46073
G1 X109.548 Y99.719 E.02111
G1 X112.685 Y95.412 E.31008
G1 X121.964 Y87.754 E.70014
G3 X122.633 Y87.480 I1.053 J1.618 E0.04218
G1 X134.137 Y85.681 E.67761
G1 X134.613 Y85.683 E.0277
G1 X147.357 Y88.77 E.76308
G1 X151.989 Y90.958 E.29812
G1 X152.428 Y91.268 E.03128
G1 X158.37 Y97.432 E.49825
G1 X158.748 Y98.147 E.04707
G1 X159.112 Y99.725 E.09424
G1 X159.555 Y99.675 E.02594
G1 X159.56 Y89.821 E.57345
G3 X161.701 Y87.723 I2.398 J0.306 E0.18807
G1 X175.256 Y87.728 E.78883
G3 X177.349 Y89.867 I-0.315 J2.402 E0.18768
M73 P1 R35
G1 X177.349 Y114.996 E1.46238
G3 X175.203 Y117.142 I-2.404 J-0.258 E0.19085
G1 X161.601 Y117.132 E.79157
G3 X159.555 Y114.998 I0.367 J-2.400 E0.18492
G1 X159.555 Y113.756 E.07228
G1 X153.904 Y119.611 E.47355
G3 X152.470 Y120.201 I-1.580 J-1.803 E0.09169
G1 X150.337 Y120.201 E.12413
G1 X151.112 Y120.991 E.0644
G3 X151.602 Y122.207 I-1.755 J1.414 E0.07728
G1 X151.602 Y150.872 E1.66816
G3 X149.456 Y153.018 I-2.400 J-0.254 E0.19081
G1 X134.83 Y153.018 E.85116
G3 X133.488 Y152.445 I0.272 J-2.495 E0.08607
G3 X131.860 Y153.342 I-1.837 J-1.408 E0.11102
G1 X110.399 Y153.342 E1.24892
G3 X109.192 Y152.861 I0.199 J-2.254 E0.07658
G1 X108.547 Y152.217 E.05304
G3 X107.691 Y152.962 I-2.316 J-1.797 E0.06632
G3 X106.807 Y153.229 I-1.094 J-2.024 E0.05402
G1 X73.531 Y153.229 E1.93649
G3 X72.344 Y152.765 I0.190 J-2.238 E0.07507
G1 X71.841 Y152.259 E.04152
G3 X71.385 Y151.084 I1.787 J-1.370 E0.07422
G1 X71.385 Y146.865 E.24552
G1 X70.927 Y146.826 E.02675
G1 X70.872 Y147.153 E.0193
G3 X69.745 Y142.905 I-4.529 J-1.072 E1.43698
G3 X70.685 Y144.409 I-3.438 J3.195 E0.10368
G1 X70.952 Y145.378 E.05849
G1 X71.385 Y145.319 E.02543
G1 X71.385 Y135.168 E.59074
G1 X71.014 Y135.069 E.02235
G1 X70.492 Y135.974 E.0608
G3 X61.216 Y132.884 I-4.161 J-2.977 E0.75597
G1 X61.348 Y131.841 E.06118
G3 X62.142 Y130.062 I4.941 J1.138 E0.11391
G1 X62.83 Y129.268 E.06114
G3 X64.479 Y128.230 I3.500 J3.731 E0.11391
G1 X65.498 Y127.951 E.06148
G3 X67.441 Y128.005 I0.831 J5.077 E0.11363
G1 X68.438 Y128.337 E.06115
G3 X71.002 Y130.948 I-2.067 J4.594 E0.21774
G1 X71.385 Y130.856 E.02292
G1 X71.385 Y123.418 E.43285
G1 X71.022 Y123.314 E.02197
G1 X70.873 Y123.555 E.01649
G1 X70.153 Y124.382 E.06381
G1 X69.291 Y125.05 E.06346
G1 X68.314 Y125.537 E.06353
G1 X67.261 Y125.824 E.06351
G1 X66.22 Y125.901 E.06075
G1 X65.136 Y125.772 E.06353
G1 X64.098 Y125.435 E.06351
G1 X63.146 Y124.901 E.06352
G1 X62.316 Y124.192 E.06353
G1 X61.641 Y123.335 E.06349
G1 X61.146 Y122.363 E.06348
G1 X60.842 Y121.265 E.0663
G1 X60.766 Y120.177 E.06347
G1 X60.904 Y119.094 E.06353
G1 X61.231 Y118.103 E.06073
G1 X61.764 Y117.151 E.06349
G1 X62.508 Y116.288 E.06631
G1 X63.371 Y115.62 E.06351
G1 X64.303 Y115.151 E.06072
G1 X65.407 Y114.846 E.06665
G1 X66.455 Y114.771 E.06114
G1 X67.525 Y114.898 E.06271
G1 X68.607 Y115.255 E.06631
G1 X69.515 Y115.769 E.06072
G1 X70.345 Y116.478 E.06353
G1 X71.021 Y117.336 E.06357
G1 X71.261 Y117.797 E.03025
G1 X71.642 Y117.704 E.02282
G1 X71.638 Y110.712 E.4069
G1 X70.511 Y112.026 E.10074
G1 X69.627 Y112.732 E.06584
G1 X68.49 Y113.315 E.07436
G1 X67.402 Y113.619 E.06574
G1 X66.274 Y113.715 E.06588
G1 X65.052 Y113.578 E.07156
G1 X63.974 Y113.235 E.06583
G1 X62.94 Y112.669 E.0686
G1 X62 Y111.876 E.07157
G1 X61.268 Y110.95 E.06869
G1 X60.73 Y109.9 E.06866
G1 X60.408 Y108.765 E.06866
G1 X60.314 Y107.589 E.06866
G1 X60.45 Y106.418 E.0686
G1 X60.832 Y105.251 E.07146
G1 X61.415 Y104.226 E.06862
G1 X62.187 Y103.333 E.0687
G1 X63.118 Y102.609 E.06863
G1 X64.128 Y102.097 E.0659
G1 X65.313 Y101.76 E.0717
G1 X65.286 Y101.357 E.02351
G1 X64.922 Y101.304 E.02141
G1 X63.804 Y100.945 E.06833
G1 X62.651 Y100.31 E.0766
G1 X61.65 Y99.455 E.07661
G1 X60.896 Y98.499 E.07086
G1 X60.316 Y97.371 E.07381
G1 X59.967 Y96.151 E.07385
G1 X59.862 Y94.936 E.07097
G1 X60.018 Y93.577 E.07961
G1 X60.395 Y92.417 E.07098
G1 X61.011 Y91.309 E.07378
G1 X61.866 Y90.308 E.07661
G1 X62.79 Y89.586 E.06824
G1 E-.64 F2100
;WIPE_START
G1 F5760
G1 X63.2 Y89.372 E-.16
;WIPE_END
G1 Z.48 F7200
G1 X73.219 Y121.338
G1 Z.28
G1 E.8 F1500
G1 F3000
G1 X73.555 Y121.272 E.01993
G1 X106.831 Y121.276 E1.93649
G3 X108.451 Y122.940 I-0.287 J1.900 E0.14503
G1 X108.451 Y123.8 E.05005
G1 X108.846 Y123.885 E.02351
G3 X110.425 Y122.627 I1.818 J0.662 E0.12348
G1 X131.885 Y122.631 E1.24886
G3 X132.539 Y122.851 I-0.247 J1.816 E0.04033
G1 X133.184 Y123.299 E.0457
G1 X133.184 Y122.231 E.06215
G3 X134.855 Y120.562 I1.901 J0.232 E0.14798
G1 X149.481 Y120.567 E.85116
G3 X151.102 Y122.233 I-0.293 J1.907 E0.14519
G1 X151.102 Y150.847 E1.66519
G3 X149.431 Y152.518 I-1.893 J-0.222 E0.14811
G1 X134.854 Y152.518 E.84831
G3 X133.913 Y152.127 I0.163 J-1.721 E0.06007
G1 X133.437 Y151.643 E.03951
G3 X132.173 Y152.775 I-1.983 J-0.942 E0.10111
G1 X131.836 Y152.842 E.02
G1 X110.425 Y152.842 E1.24601
G3 X108.980 Y151.877 I0.238 J-1.921 E0.10474
G1 X108.58 Y150.938 E.0594
G1 X108.227 Y151.764 E.05227
G3 X106.781 Y152.729 I-1.691 J-0.967 E0.10475
G1 X73.555 Y152.729 E1.93358
G3 X71.885 Y151.059 I0.233 J-1.903 E0.14802
G1 X71.885 Y122.942 E1.63627
G3 X73.163 Y121.361 I1.908 J0.236 E0.12457
G1 X73.355 Y121.823 F7200
G1 F3000
G1 X73.58 Y121.771 E.01344
G1 X106.802 Y121.776 E1.93335
G3 X107.951 Y122.966 I-0.267 J1.408 E0.10259
G1 X107.951 Y151.034 E1.63342
G3 X106.757 Y152.229 I-1.408 J-0.213 E0.10524
G1 X73.58 Y152.229 E1.93073
G3 X72.385 Y151.034 I0.215 J-1.410 E0.10530
G1 X72.385 Y122.966 E1.63342
G3 X73.299 Y121.846 I1.404 J0.213 E0.08828
G1 X73.49 Y122.308 F7200
G1 F3000
G1 X73.604 Y122.271 E.00697
G1 X106.732 Y122.271 E1.92788
G3 X107.452 Y122.991 I-0.190 J0.910 E0.06231
G1 X107.452 Y151.01 E1.63056
G3 X106.732 Y151.729 I-0.912 J-0.194 E0.06226
G1 X73.604 Y151.729 E1.92788
G3 X72.885 Y151.010 I0.192 J-0.911 E0.06222
G1 X72.885 Y122.991 E1.63056
G3 X73.435 Y122.331 I0.849 J0.148 E0.05186
G1 X73.626 Y122.793 F7200
G1 F3000
G1 X73.679 Y122.771 E.00334
G1 X106.658 Y122.771 E1.91921
G3 X106.952 Y123.065 I-0.115 J0.409 E0.02508
G1 X106.952 Y150.936 E1.62195
G3 X106.658 Y151.229 I-0.409 J-0.117 E0.02503
G1 X73.679 Y151.229 E1.91921
G3 X73.385 Y150.936 I0.117 J-0.411 E0.02503
G1 X73.385 Y123.065 E1.62195
G3 X73.575 Y122.821 I0.389 J0.107 E0.01830
G1 E-.64 F2100
;WIPE_START
G1 F5760
G1 X73.679 Y122.771 E-.03997
G1 X74.026 Y122.771 E-.12003
;WIPE_END
G1 Z.48 F7200
G1 X109.255 Y124.321
G1 Z.28
G1 E.8 F1500
G1 F3000
G3 X110.450 Y123.127 I1.408 J0.214 E0.10525
G1 X131.857 Y123.131 E1.24578
G3 X133.006 Y124.321 I-0.267 J1.408 E0.10257
G1 X133.006 Y151.148 E1.5612
G3 X131.811 Y152.343 I-1.411 J-0.216 E0.10526
G1 X110.45 Y152.343 E1.2431
G1 X110.257 Y152.304 E.01146
M73 P2 R35
G3 X109.255 Y151.148 I0.416 J-1.373 E0.09381
G1 X109.255 Y124.381 E1.5577
G1 X109.755 Y124.381 F7200
G1 F3000
