; generated by PrusaSlicer 2.6.0+win64 on 2025-10-22 at 09:11:55 UTC
; Postprocessed by [ArcWelder](https://github.com/FormerLurker/ArcWelderLib)
; Copyright(C) 2021 - Brad Hochgesang
; Version: 1.2.0, Branch: HEAD, BuildDate: 2021-11-21T20:25:43Z
; resolution=0.05mm
; path_tolerance=5.0%
; max_radius=9999.00mm
; default_xyz_precision=3
; default_e_precision=5
; extrusion_rate_variance_percent=5.0%














; 

; external perimeters extrusion width = 0.42mm
; perimeters extrusion width = 0.45mm
; infill extrusion width = 0.45mm
; solid infill extrusion width = 0.50mm
; top infill extrusion width = 0.42mm
; support material extrusion width = 0.42mm
; first layer extrusion width = 0.56mm

; external perimeters extrusion width = 0.42mm
; perimeters extrusion width = 0.45mm
; infill extrusion width = 0.45mm
; solid infill extrusion width = 0.50mm
; top infill extrusion width = 0.42mm
; support material extrusion width = 0.42mm
; first layer extrusion width = 0.56mm

; external perimeters extrusion width = 0.42mm
; perimeters extrusion width = 0.45mm
; infill extrusion width = 0.45mm
; solid infill extrusion width = 0.50mm
; top infill extrusion width = 0.42mm
; support material extrusion width = 0.42mm
; first layer extrusion width = 0.56mm

M73 P0 R140
M201 X2500 Y2500 Z200 E2500 ; sets maximum accelerations, mm/sec^2
M203 X200 Y200 Z40 E100 ; sets maximum feedrates, mm / sec
M204 P2000 R1200 T2000 ; sets acceleration (P, T) and retract acceleration (R), mm/sec^2
M205 X8.00 Y8.00 Z2.00 E10.00 ; sets the jerk limits, mm/sec
M205 S0 T0 ; sets the minimum extruding and travel feed rate, mm/sec
;TYPE:Custom
M17 ; enable steppers
M862.3 P "MK4" ; printer model check
M862.1 P0.4 ; nozzle diameter check
M115 U5.0.1+12089

M555 X53.5062 Y19.0895 W126.654 H167.821

G90 ; use absolute coordinates
M83 ; extruder relative mode

M140 S55 ; set bed temp

M104 S170 ; set extruder temp for bed leveling
M109 R170 ; wait for temp


M84 E ; turn off E motor

G28 ; home all without mesh bed level

G1 X42 Y-4 Z5 F4800

M302 S160 ; lower cold extrusion limit to 160C


G1 E-2 F2400 ; retraction


M84 E ; turn off E motor

G29 P9 X10 Y-4 W32 H4

M106 S100

G0 Z40 F10000

M190 S55 ; wait for bed temp

M107


; MBL

M84 E ; turn off E motor
G29 P1 ; invalidate mbl & probe print area
G29 P1 X0 Y0 W50 H20 C ; probe near purge place
G29 P3.2 ; interpolate mbl probes
G29 P3.13 ; extrapolate mbl outside probe area
G29 A ; activate mbl

; prepare for purge
M104 S205
G0 X0 Y-4 Z15 F4800 ; move away and ready for the purge
M109 S205

G92 E0
M569 S0 E ; set spreadcycle mode for extruder


; Extrude purge line

G92 E0 ; reset extruder position
G1 E2 F2400 ; deretraction after the initial one before nozzle cleaning
G0 E7 X15 Z0.2 F500 ; purge
G0 X25 E4 F500 ; purge
G0 X35 E4 F650 ; purge
G0 X45 E4 F800 ; purge
G0 X48 Z0.05 F8000 ; wipe, move close to the bed
G0 X51 Z0.2 F8000 ; wipe, move quickly away from the bed

G92 E0
M221 S100 ; set flow to 100%
G21 ; set units to millimeters
G90 ; use absolute coordinates
M83 ; use relative distances for extrusion
M900 K0.04 ; Filament gcode



M142 S40 ; set heatbreak target temp
M107
;LAYER_CHANGE
;Z:0.28
;HEIGHT:0.28
;BEFORE_LAYER_CHANGE
G92 E0.0
;0.28


G1 E-.8 F2100
G1 Z.2 F7200
G1 Z.28
;AFTER_LAYER_CHANGE
;0.28
G1 Z.48
G1 X65.545 Y25.39
G1 Z.28
G1 E.8 F1500
;TYPE:Skirt/Brim
;WIDTH:0.56
G1 F3000
G3 X65.892 Y24.687 I2.313 J0.704 E0.04577
G3 X66.888 Y23.789 I2.640 J1.926 E0.07845
G3 X67.899 Y23.459 I1.367 J2.476 E0.06216
G1 X74.809 Y23.466 E.40213
G3 X76.463 Y24.358 I-0.361 J2.648 E0.11153
G3 X78.400 Y23.340 I2.179 J1.795 E0.13053
G1 X177.344 Y23.345 E5.75804
G3 X179.909 Y25.960 I-0.346 J2.905 E0.23028
G1 X179.909 Y168.163 E8.27549
G3 X179.246 Y169.744 I-2.651 J-0.182 E0.10130
G1 X178.672 Y170.281 E.04574
G3 X177.289 Y170.784 I-1.611 J-2.277 E0.08651
G1 X114.923 Y170.784 E3.62939
G1 X108.656 Y179.69 E.63374
G1 X108.652 Y184.093 E.25623
G3 X107.998 Y185.614 I-2.748 J-0.280 E0.09769
G1 X107.419 Y186.157 E.04619
G3 X106.036 Y186.660 I-1.611 J-2.277 E0.08652
G1 X72.711 Y186.66 E1.93935
G3 X71.130 Y185.996 I0.191 J-2.670 E0.10129
G1 X70.593 Y185.422 E.04574
G3 X70.091 Y184.039 I2.280 J-1.610 E0.08650
G1 X70.091 Y155.722 E1.64791
G3 X71.229 Y153.660 I3.108 J0.370 E0.14061
G3 X68.944 Y153.075 I-0.319 J-3.510 E0.13989
G1 X64.044 Y148.619 E.38543
G1 X63.516 Y147.849 E.05433
G1 X63.314 Y147.287 E.03475
G1 X62.034 Y140.612 E.39553
G1 X62.006 Y135.503 E.29732
G1 X61.146 Y129.22 E.36905
G3 X58.665 Y126.609 I0.440 J-2.902 E0.22549
G1 X58.666 Y90.987 E2.07302
G3 X61.238 Y88.469 I2.907 J0.396 E0.22552
G1 X64.696 Y88.469 E.20124
G1 X65.39 Y88.599 E.04109
G1 X65.39 Y26.077 E3.63846
G3 X65.523 Y25.446 I1.670 J0.022 E0.03764
G1 X65.99 Y25.627 F7200
G1 F3000
G3 X66.306 Y24.969 I2.050 J0.580 E0.04263
G3 X67.928 Y23.959 I2.033 J1.457 E0.11403
G1 X74.777 Y23.965 E.39858
G3 X75.866 Y24.467 I-0.337 J2.164 E0.07052
G1 X76.505 Y25.126 E.05342
G3 X77.990 Y23.922 I2.493 J1.558 E0.11359
G1 X78.424 Y23.84 E.0257
G1 X177.316 Y23.845 E5.75501
G3 X179.410 Y25.984 I-0.317 J2.405 E0.18770
G1 X179.41 Y168.138 E8.27264
G3 X177.264 Y170.284 I-2.414 J-0.268 E0.19084
G1 X114.664 Y170.284 E3.643
G1 X108.156 Y179.532 E.65809
G1 X108.152 Y184.069 E.26403
G3 X106.011 Y186.160 I-2.410 J-0.326 E0.18762
G1 X72.736 Y186.16 E1.93644
G3 X70.590 Y184.014 I0.267 J-2.413 E0.19083
G1 X70.59 Y155.746 E1.64505
G3 X72.715 Y153.597 I2.417 J0.265 E0.18959
G1 X72.668 Y153.151 E.0261
G1 X70.501 Y153.146 E.12611
G1 X69.909 Y153.021 E.03521
G1 X69.256 Y152.683 E.04279
G1 X64.402 Y148.269 E.38181
G1 X63.974 Y147.647 E.04394
G1 X63.801 Y147.172 E.02942
G1 X62.529 Y140.541 E.39293
G1 X62.506 Y135.468 E.29523
G1 X61.584 Y128.732 E.39566
G3 X59.165 Y126.585 I-0.035 J-2.396 E0.20669
G1 X59.161 Y91.064 E2.06714
G3 X61.262 Y88.969 I2.396 J0.302 E0.18575
G1 X64.67 Y88.969 E.19833
G1 X65.09 Y89.052 E.02491
G1 X65.89 Y89.388 E.0505
G1 X65.89 Y26.097 E3.68322
G1 X65.968 Y25.683 E.02452
G1 X66.434 Y25.863 F7200
G1 F3000
G3 X67.958 Y24.458 I1.889 J0.520 E0.12703
G1 X74.691 Y24.458 E.39183
G3 X76.259 Y26.118 I-0.352 J1.903 E0.14211
G1 X76.259 Y52.504 E1.53553
G1 X98.196 Y52.532 E1.27662
G3 X99.323 Y53.214 I-0.370 J1.883 E0.07803
G1 X103.274 Y59.095 E.41231
G1 X150.088 Y59.095 E2.72434
G3 X151.758 Y60.763 I-0.241 J1.912 E0.14791
G1 X151.758 Y92.356 E1.83855
G1 X152.158 Y92.438 E.02376
G3 X153.835 Y90.929 I1.981 J0.515 E0.13910
G1 X157.25 Y90.934 E.19874
G3 X158.870 Y92.599 I-0.276 J1.890 E0.14509
G1 X158.87 Y101.68 E.52847
G3 X159.199 Y102.540 I-1.400 J1.029 E0.05417
G1 X159.194 Y114.011 E.66755
G3 X157.523 Y115.680 I-1.907 J-0.238 E0.14802
G1 X121.054 Y115.68 E2.12231
G1 X114.217 Y132.412 E1.05187
G1 X114.217 Y144.976 E.73116
G3 X113.790 Y146.062 I-2.022 J-0.168 E0.06864
G1 X107.91 Y152.162 E.49306
G3 X106.816 Y152.646 I-1.283 J-1.423 E0.07065
G1 X99.51 Y152.651 E.42517
G3 X98.369 Y152.018 I0.230 J-1.759 E0.07756
G3 X97.929 Y151.194 I1.751 J-1.464 E0.05461
G3 X97.929 Y150.310 I1.861 J-0.442 E0.05176
G1 X100.536 Y144.931 E.34786
G1 X101.043 Y140.724 E.2466
G1 X100.106 Y136.076 E.27593
G1 X97.562 Y132.493 E.25573
G1 X93.941 Y129.917 E.25861
G1 X88.658 Y128.954 E.31251
G1 X83.376 Y129.917 E.31245
G1 X79.754 Y132.493 E.25865
G1 X77.211 Y136.076 E.25569
G1 X76.274 Y140.724 E.27593
G1 X76.781 Y144.931 E.2466
G1 X79.388 Y150.31 E.34786
G3 X79.333 Y151.367 I-1.799 J0.436 E0.06236
G1 X78.948 Y152.016 E.04391
G3 X77.807 Y152.651 I-1.371 J-1.121 E0.07766
G1 X70.571 Y152.651 E.4211
G1 X70.106 Y152.56 E.02757
G1 X69.515 Y152.255 E.0387
G1 X64.76 Y147.918 E.37453
G3 X64.288 Y147.057 I1.469 J-1.365 E0.05757
G1 X63.025 Y140.469 E.39037
G1 X63.005 Y135.433 E.29307
G1 X62.02 Y128.229 E.42314
G1 X61.282 Y128.225 E.04295
G3 X59.665 Y126.560 I0.288 J-1.898 E0.14491
G1 X59.656 Y91.136 E2.0615
G3 X61.285 Y89.469 I1.904 J0.231 E0.14566
G1 X64.646 Y89.469 E.19559
G3 X65.745 Y90.002 I-0.236 J1.886 E0.07220
G1 X66.39 Y90.718 E.05608
G1 X66.39 Y26.116 E3.75951
G1 X66.421 Y25.922 E.01143
G1 X66.913 Y26.007 F7200
G1 F3000
G3 X68.039 Y24.952 I1.404 J0.370 E0.09459
G1 X74.61 Y24.952 E.3824
G3 X75.759 Y26.142 I-0.267 J1.408 E0.10257
G1 X75.759 Y53.004 E1.56323
G1 X98.088 Y53.021 E1.29944
G3 X98.925 Y53.518 I-0.265 J1.400 E0.05767
G1 X103.007 Y59.595 E.42603
G1 X150.063 Y59.595 E2.73842
G3 X151.258 Y60.786 I-0.201 J1.397 E0.10508
G1 X151.258 Y96.127 E2.05667
G3 X150.063 Y97.322 I-1.409 J-0.214 E0.10530
G1 X68.085 Y97.322 E4.7707
G1 X67.892 Y97.284 E.01145
G1 X67.21 Y97.001 E.04297
G1 X71.764 Y115.881 E1.13023
G1 X88.825 Y119.623 E1.01646
G1 X102.336 Y119.891 E.78643
G1 X112.687 Y101.949 E1.20543
G3 X113.695 Y101.369 I1.153 J0.838 E0.06950
M73 P0 R139
G1 X152.666 Y101.369 E2.26791
G1 X152.666 Y92.624 E.50891
G3 X153.860 Y91.429 I1.398 J0.203 E0.10523
G1 X157.221 Y91.434 E.19559
G3 X158.370 Y92.624 I-0.253 J1.394 E0.10263
G1 X158.37 Y101.838 E.53621
G3 X158.699 Y102.564 I-1.021 J0.900 E0.04696
G1 X158.694 Y113.986 E.6647
G3 X157.499 Y115.181 I-1.408 J-0.213 E0.10527
G1 X120.718 Y115.18 E2.14047
G1 X113.717 Y132.314 E1.07714
G1 X113.717 Y144.95 E.73535
G3 X113.406 Y145.740 I-1.506 J-0.137 E0.04991
G1 X107.566 Y151.798 E.48969
G3 X106.788 Y152.146 I-0.944 J-1.067 E0.05029
G1 X99.542 Y152.151 E.42168
G3 X98.777 Y151.727 I0.190 J-1.245 E0.05185
G3 X98.413 Y151.064 I1.260 J-1.123 E0.04423
G3 X98.414 Y150.431 I1.339 J-0.314 E0.03704
G1 X101.022 Y145.075 E.34668
G1 X101.549 Y140.704 E.25621
G1 X100.575 Y135.874 E.28674
G1 X97.921 Y132.135 E.26683
G1 X94.14 Y129.445 E.27004
G1 X88.658 Y128.446 E.32428
G1 X83.177 Y129.445 E.32422
G1 X79.396 Y132.135 E.27004
G1 X76.742 Y135.874 E.26683
G1 X75.768 Y140.704 E.28674
G1 X76.295 Y145.075 E.25621
G1 X78.903 Y150.431 E.34668
G3 X78.863 Y151.196 I-1.305 J0.315 E0.04511
G1 X78.537 Y151.731 E.03646
G3 X77.775 Y152.151 I-0.958 J-0.837 E0.05154
G1 X70.592 Y152.151 E.41801
G3 X69.825 Y151.861 I0.120 J-1.476 E0.04816
G1 X65.12 Y147.57 E.37058
G3 X64.775 Y146.944 I1.091 J-1.009 E0.04188
G1 X63.52 Y140.398 E.38788
G1 X63.505 Y135.398 E.29098
G1 X62.456 Y127.731 E.45034
G1 X61.314 Y127.725 E.06646
G3 X60.165 Y126.535 I0.253 J-1.394 E0.10262
G1 X60.156 Y91.161 E2.05859
G3 X61.347 Y89.965 I1.400 J0.203 E0.10511
G1 X64.583 Y89.965 E.18832
G3 X65.704 Y90.801 I-0.186 J1.418 E0.08488
G1 X66.45 Y93.847 E.1825
G1 X66.89 Y93.794 E.02579
G1 X66.89 Y26.139 E3.93718
G1 X66.903 Y26.066 E.00432
G1 E-.64 F2100
;WIPE_START
G1 F5760
G3 X67.067 Y25.635 I1.021 J0.142 E-0.16000
;WIPE_END
G1 Z.48 F7200
G1 X64.563 Y90.465
G1 Z.28
G1 E.8 F1500
G1 F3000
G3 X65.253 Y91.021 I-0.153 J0.896 E0.05354
G1 X71.352 Y116.303 E1.51349
G1 X88.766 Y120.122 E1.03749
G1 X102.622 Y120.397 E.80651
G1 X113.104 Y102.226 E1.22079
G3 X113.728 Y101.868 I0.736 J0.560 E0.04288
G1 X153.166 Y101.868 E2.29509
G1 X153.166 Y92.649 E.5365
G3 X153.885 Y91.929 I0.910 J0.190 E0.06229
G1 X157.151 Y91.929 E.19006
G3 X157.871 Y92.649 I-0.190 J0.910 E0.06231
G1 X157.871 Y102.081 E.54889
G3 X158.199 Y102.588 I-0.418 J0.630 E0.03589
G1 X158.184 Y114.01 E.6647
G3 X157.475 Y114.681 I-0.902 J-0.243 E0.05942
G1 X120.382 Y114.681 E2.15862
G1 X113.217 Y132.215 E1.1023
G1 X113.217 Y144.925 E.73966
G3 X113.020 Y145.420 I-0.962 J-0.096 E0.03129
G1 X107.225 Y151.432 E.48594
G3 X106.757 Y151.646 I-0.601 J-0.695 E0.03031
G1 X99.573 Y151.651 E.41807
G3 X99.184 Y151.435 I0.157 J-0.740 E0.02612
G1 X98.919 Y151.011 E.0291
G3 X98.896 Y150.566 I0.714 J-0.260 E0.02617
G1 X101.509 Y145.219 E.34634
G1 X102.055 Y140.684 E.26582
G1 X101.044 Y135.671 E.2976
G1 X98.28 Y131.776 E.27794
G1 X94.339 Y128.973 E.28144
G1 X88.658 Y127.938 E.33605
G1 X82.978 Y128.973 E.33599
G1 X79.037 Y131.776 E.28144
G1 X76.273 Y135.671 E.27794
G1 X75.262 Y140.684 E.2976
G1 X75.808 Y145.219 E.26582
G1 X78.421 Y150.566 E.34634
G3 X78.398 Y151.011 I-0.753 J0.184 E0.02617
G1 X78.133 Y151.435 E.0291
G3 X77.744 Y151.651 I-0.555 J-0.541 E0.02612
G1 X70.61 Y151.651 E.41516
G3 X70.133 Y151.465 I0.076 J-0.898 E0.03004
G1 X65.482 Y147.223 E.36633
G3 X65.263 Y146.835 I0.659 J-0.628 E0.02609
G1 X64.015 Y140.327 E.38563
G1 X64.005 Y135.364 E.28882
G1 X62.892 Y127.23 E.47777
G1 X61.336 Y127.22 E.09055
G3 X60.665 Y126.511 I0.243 J-0.902 E0.05942
G1 X60.656 Y91.185 E2.05579
G3 X61.375 Y90.465 I0.910 J0.190 E0.06229
G1 X64.503 Y90.465 E.18203
G1 X64.5 Y90.965 F7200
G1 F3000
G3 X64.778 Y91.184 I-0.094 J0.405 E0.02114
G1 X70.939 Y116.724 E1.52893
G1 X88.707 Y120.621 E1.05859
G1 X102.907 Y120.902 E.82653
G1 X113.519 Y102.508 E1.23581
G3 X113.760 Y102.368 I0.318 J0.269 E0.01639
G1 X153.665 Y102.368 E2.32227
G1 X153.665 Y92.723 E.56129
G3 X153.959 Y92.429 I0.413 J0.119 E0.02506
G1 X157.077 Y92.429 E.18145
G3 X157.371 Y92.723 I-0.115 J0.409 E0.02508
G1 X157.371 Y102.294 E.55698
G1 X157.662 Y102.573 E.02346
G1 X157.699 Y102.663 E.00566
G1 X157.694 Y113.887 E.65318
G3 X157.400 Y114.181 I-0.409 J-0.115 E0.02508
G1 X120.047 Y114.181 E2.17376
G1 X112.717 Y132.117 E1.12758
G1 X112.71 Y144.941 E.74629
G1 X112.63 Y145.104 E.01057
G1 X106.883 Y151.067 E.48195
G1 X106.685 Y151.151 E.01252
G1 X99.67 Y151.151 E.40824
G1 X99.557 Y151.088 E.00753
G1 X99.394 Y150.828 E.01786
G1 X99.388 Y150.699 E.00752
G1 X101.995 Y145.362 E.34566
G1 X102.561 Y140.664 E.27538
G1 X101.513 Y135.468 E.30847
G1 X98.639 Y131.418 E.289
G1 X94.538 Y128.501 E.29287
G1 X88.658 Y127.43 E.34782
G1 X82.779 Y128.501 E.34776
G1 X78.678 Y131.418 E.29287
G1 X75.804 Y135.468 E.289
G1 X74.756 Y140.664 E.30847
G1 X75.322 Y145.362 E.27538
G1 X77.929 Y150.699 E.34566
G1 X77.923 Y150.828 E.00752
G1 X77.76 Y151.088 E.01786
G1 X77.647 Y151.151 E.00753
G1 X70.599 Y151.144 E.41016
G1 X70.441 Y151.07 E.01015
G1 X65.843 Y146.877 E.36213
G1 X65.761 Y146.749 E.00885
G1 X64.511 Y140.256 E.3848
G1 X64.505 Y135.33 E.28667
G1 X63.328 Y126.73 E.50514
G1 X61.458 Y126.73 E.10882
G3 X61.165 Y126.436 I0.117 J-0.409 E0.02503
G1 X61.155 Y91.259 E2.04712
G3 X61.449 Y90.965 I0.413 J0.119 E0.02507
G1 X64.44 Y90.965 E.17406
G1 E-.64 F2100
;WIPE_START
G1 F5760
G3 X64.788 Y91.224 I0.001 J0.362 E-0.16000
;WIPE_END
G1 Z.48 F7200
G1 X67.39 Y90.965
G1 Z.28
G1 E.8 F1500
G1 F3000
G1 X67.39 Y26.167 E3.77092
G3 X68.061 Y25.457 I0.917 J0.195 E0.05947
G1 X74.54 Y25.447 E.37705
G3 X75.250 Y26.119 I-0.199 J0.921 E0.05950
G1 X75.259 Y53.504 E1.59367
G1 X97.987 Y53.511 E1.32265
G3 X98.528 Y53.822 I-0.163 J0.909 E0.03696
G1 X102.741 Y60.095 E.43975
G1 X150.039 Y60.095 E2.7525
G3 X150.749 Y60.766 I-0.200 J0.922 E0.05946
G1 X150.758 Y96.102 E2.05638
G3 X150.087 Y96.812 I-0.917 J-0.195 E0.05947
G1 X68.109 Y96.822 E4.7707
G3 X67.390 Y96.102 I0.191 J-0.910 E0.06227
G1 X67.39 Y91.025 E.29546
G1 X67.89 Y91.025 F7200
G1 F3000
G1 X67.89 Y26.241 E3.7701
G3 X68.184 Y25.947 I0.409 J0.115 E0.02508
G1 X74.465 Y25.947 E.36552
G3 X74.759 Y26.241 I-0.115 J0.409 E0.02508
G1 X74.759 Y54.004 E1.61567
G1 X97.9 Y54.004 E1.34669
G3 X98.130 Y54.126 I-0.075 J0.420 E0.01528
G1 X102.475 Y60.594 E.45345
G1 X149.964 Y60.594 E2.76362
G3 X150.258 Y60.888 I-0.119 J0.413 E0.02507
G1 X150.258 Y96.028 E2.04497
G3 X149.964 Y96.322 I-0.409 J-0.115 E0.02508
G1 X68.184 Y96.322 E4.75918
G3 X67.890 Y96.028 I0.115 J-0.409 E0.02508
G1 X67.89 Y91.085 E.28766
G1 E-.64 F2100
;WIPE_START
G1 F5760
G1 X67.89 Y90.623 E-.16
;WIPE_END
G1 Z.48 F7200
G1 X67.922 Y97.822
M73 P1 R139
G1 Z.28
G1 E.8 F1500
G1 F3000
G1 X150.088 Y97.822 E4.78164
G2 X151.763 Y96.314 I-0.299 J-2.016 E0.13902
G1 X152.166 Y96.394 E.02391
G1 X152.166 Y100.869 E.26042
G1 X113.662 Y100.869 E2.24074
G1 X113.015 Y101.047 E.03905
G2 X112.267 Y101.677 I0.799 J1.708 E0.05740
G1 X102.051 Y119.385 E1.18971
G1 X88.884 Y119.124 E.7664
G1 X72.177 Y115.46 E.99537
G1 X67.936 Y97.88 E1.05242
G1 X68.557 Y98.322 F7200
G1 F3000
G1 X150.114 Y98.322 E4.7462
G2 X150.999 Y98.054 I-0.208 J-2.281 E0.05409
G1 X151.666 Y97.621 E.04628
G1 X151.666 Y100.369 E.15992
G1 X113.628 Y100.369 E2.21362
G1 X112.843 Y100.576 E.04724
G2 X111.847 Y101.404 I0.980 J2.191 E0.07608
G1 X101.765 Y118.88 E1.17412
G1 X88.943 Y118.625 E.74632
G1 X72.589 Y115.039 E.97433
G1 X68.571 Y98.38 E.99727
G1 X69.192 Y98.822 F7200
G1 F3000
G1 X150.137 Y98.822 E4.71059
G2 X151.166 Y98.525 I-0.204 J-2.637 E0.06265
