; generated by PrusaSlicer 2.6.0+win64 on 2025-10-24 at 13:33:19 UTC
; Postprocessed by [ArcWelder](https://github.com/FormerLurker/ArcWelderLib)
; Copyright(C) 2021 - Brad Hochgesang
; Version: 1.2.0, Branch: HEAD, BuildDate: 2021-11-21T20:25:43Z
; resolution=0.05mm
; path_tolerance=5.0%
; max_radius=9999.00mm
; default_xyz_precision=3
; default_e_precision=5
; extrusion_rate_variance_percent=5.0%














; 

; external perimeters extrusion width = 0.42mm
; perimeters extrusion width = 0.45mm
; infill extrusion width = 0.45mm
; solid infill extrusion width = 0.50mm
; top infill extrusion width = 0.42mm
; support material extrusion width = 0.42mm
; first layer extrusion width = 0.56mm

M73 P0 R19
M201 X2500 Y2500 Z200 E2500 ; sets maximum accelerations, mm/sec^2
M203 X200 Y200 Z40 E100 ; sets maximum feedrates, mm / sec
M204 P2000 R1200 T2000 ; sets acceleration (P, T) and retract acceleration (R), mm/sec^2
M205 X8.00 Y8.00 Z2.00 E10.00 ; sets the jerk limits, mm/sec
M205 S0 T0 ; sets the minimum extruding and travel feed rate, mm/sec
;TYPE:Custom
M17 ; enable steppers
M862.3 P "MK4" ; printer model check
M862.1 P0.4 ; nozzle diameter check
M115 U5.0.1+12089

M555 X98.1911 Y65.2728 W53.6309 H75.4544

G90 ; use absolute coordinates
M83 ; extruder relative mode

M140 S55 ; set bed temp

M104 S170 ; set extruder temp for bed leveling
M109 R170 ; wait for temp


M84 E ; turn off E motor

G28 ; home all without mesh bed level

G1 X42 Y-4 Z5 F4800

M302 S160 ; lower cold extrusion limit to 160C


G1 E-2 F2400 ; retraction


M84 E ; turn off E motor

G29 P9 X10 Y-4 W32 H4

M106 S100

G0 Z40 F10000

M190 S55 ; wait for bed temp

M107


; MBL

M84 E ; turn off E motor
G29 P1 ; invalidate mbl & probe print area
G29 P1 X0 Y0 W50 H20 C ; probe near purge place
G29 P3.2 ; interpolate mbl probes
G29 P3.13 ; extrapolate mbl outside probe area
G29 A ; activate mbl

; prepare for purge
M104 S205
G0 X0 Y-4 Z15 F4800 ; move away and ready for the purge
M109 S205

G92 E0
M569 S0 E ; set spreadcycle mode for extruder


; Extrude purge line

G92 E0 ; reset extruder position
G1 E2 F2400 ; deretraction after the initial one before nozzle cleaning
G0 E7 X15 Z0.2 F500 ; purge
G0 X25 E4 F500 ; purge
G0 X35 E4 F650 ; purge
G0 X45 E4 F800 ; purge
G0 X48 Z0.05 F8000 ; wipe, move close to the bed
G0 X51 Z0.2 F8000 ; wipe, move quickly away from the bed

G92 E0
M221 S100 ; set flow to 100%
G21 ; set units to millimeters
G90 ; use absolute coordinates
M83 ; use relative distances for extrusion
M900 K0.04 ; Filament gcode



M142 S40 ; set heatbreak target temp
M107
;LAYER_CHANGE
;Z:0.28
;HEIGHT:0.28
;BEFORE_LAYER_CHANGE
G92 E0.0
;0.28


G1 E-.8 F2100
G1 Z.2 F7200
G1 Z.28
;AFTER_LAYER_CHANGE
;0.28
G1 Z.48
G1 X99.042 Y70.68
G1 Z.28
G1 E.8 F1500
;TYPE:Skirt/Brim
;WIDTH:0.56
G1 F3000
G3 X101.052 Y69.527 I2.278 J1.643 E0.13883
G1 X144.708 Y69.523 E2.54056
G3 X146.297 Y70.197 I-0.199 J2.678 E0.10200
G1 X146.834 Y70.776 E.04596
G3 X147.325 Y72.124 I-2.284 J1.595 E0.08431
G1 X147.302 Y74.817 E.15672
G3 X146.744 Y76.248 I-2.782 J-0.260 E0.09043
G1 X146.155 Y76.839 E.04856
G3 X144.626 Y77.442 I-1.905 J-2.590 E0.09666
G1 X144.626 Y79.855 E.14042
G1 X145.615 Y79.855 E.05755
G3 X147.057 Y80.398 I-0.239 J2.820 E0.09071
G1 X147.667 Y81.003 E.05
G3 X148.235 Y82.399 I-2.191 J1.705 E0.08870
G1 X148.199 Y85.314 E.16965
G3 X145.648 Y87.738 I-2.890 J-0.487 E0.21954
G1 X144.626 Y87.742 E.05948
G1 X144.626 Y88.937 E.06954
G1 X147.518 Y88.941 E.1683
G3 X150.066 Y91.353 I-0.359 J2.931 E0.21868
G1 X150.062 Y94.227 E.16725
G3 X149.463 Y95.712 I-2.748 J-0.245 E0.09439
G1 X148.903 Y96.262 E.04568
G3 X147.437 Y96.824 I-1.671 J-2.165 E0.09250
G1 X144.626 Y96.824 E.16359
G1 X144.626 Y132.59 E2.0814
G1 X149.097 Y132.606 E.26019
G3 X151.546 Y135.079 I-0.457 J2.901 E0.21670
G1 X151.529 Y137.938 E.16638
M73 P1 R19
G3 X150.862 Y139.449 I-2.635 J-0.260 E0.09747
G1 X150.289 Y139.98 E.04546
G3 X148.914 Y140.477 I-1.603 J-2.286 E0.08595
G1 X101.078 Y140.477 E2.78381
G3 X99.497 Y139.812 I0.200 J-2.688 E0.10134
G1 X98.961 Y139.239 E.04566
G3 X98.583 Y138.481 I2.397 J-1.669 E0.04942
G1 X98.442 Y137.673 E.04773
G1 X98.442 Y74.221 E3.69258
G1 X98.463 Y74.04 E.0106
G1 X98.463 Y72.143 E.1104
G3 X99.007 Y70.729 I2.649 J0.207 E0.08934
G1 X99.41 Y71.018 F7200
G1 F3000
G3 X101.112 Y70.023 I1.922 J1.335 E0.11827
G1 X144.682 Y70.023 E2.53555
G3 X146.829 Y72.192 I-0.270 J2.414 E0.19209
G1 X146.802 Y74.79 E.1512
G3 X146.340 Y75.953 I-2.268 J-0.228 E0.07368
G1 X145.823 Y76.464 E.0423
G3 X144.126 Y76.913 I-1.412 J-1.905 E0.10443
G1 X144.126 Y80.355 E.20031
G1 X145.594 Y80.355 E.08543
G3 X146.727 Y80.776 I-0.216 J2.318 E0.07110
G1 X147.294 Y81.336 E.04638
G3 X147.735 Y82.423 I-1.817 J1.370 E0.06895
G1 X147.706 Y85.229 E.1633
G3 X145.620 Y87.238 I-2.394 J-0.399 E0.18049
G1 X144.126 Y87.244 E.08694
G1 X144.126 Y89.436 E.12756
G1 X147.49 Y89.441 E.19577
G3 X149.573 Y91.439 I-0.328 J2.427 E0.17969
G1 X149.562 Y94.2 E.16068
G3 X147.415 Y96.324 I-2.404 J-0.283 E0.18978
G1 X144.126 Y96.324 E.1914
G1 X144.126 Y133.089 E2.13954
G1 X149.015 Y133.099 E.28452
G3 X151.051 Y135.157 I-0.376 J2.408 E0.18040
G1 X151.029 Y137.907 E.16004
G3 X148.890 Y139.977 I-2.408 J-0.348 E0.18644
G1 X101.104 Y139.977 E2.7809
G3 X98.941 Y137.652 I0.270 J-2.420 E0.20126
G1 X98.941 Y74.238 E3.69037
G1 X98.963 Y74.073 E.00969
G1 X98.963 Y72.169 E.1108
G3 X99.375 Y71.066 I1.904 J0.083 E0.06931
G1 X99.776 Y71.357 F7200
G1 F3000
G3 X101.131 Y70.523 I1.564 J1.024 E0.09543
G1 X144.657 Y70.523 E2.53299
G3 X146.329 Y72.211 I-0.226 J1.896 E0.14903
G1 X146.303 Y74.761 E.1484
G3 X144.679 Y76.407 I-1.903 J-0.254 E0.14430
G1 X143.627 Y76.413 E.06122
G1 X143.627 Y80.855 E.2585
G1 X145.574 Y80.855 E.11331
G3 X146.439 Y81.185 I-0.191 J1.800 E0.05442
G3 X147.048 Y81.879 I-1.256 J1.717 E0.05401
G3 X147.239 Y82.496 I-1.572 J0.825 E0.03774
G1 X147.206 Y85.192 E.15691
G3 X145.549 Y86.743 I-1.892 J-0.361 E0.14112
G1 X143.627 Y86.743 E.11185
G1 X143.627 Y89.936 E.18582
G1 X147.418 Y89.936 E.22062
G3 X149.079 Y91.522 I-0.250 J1.925 E0.14307
G1 X149.063 Y94.172 E.15422
G3 X147.393 Y95.824 I-1.889 J-0.240 E0.14706
G1 X143.627 Y95.824 E.21916
G1 X143.627 Y133.589 E2.19773
G1 X148.937 Y133.594 E.30902
G3 X150.556 Y135.230 I-0.292 J1.908 E0.14353
G1 X150.529 Y137.874 E.15388
G3 X148.865 Y139.477 I-1.886 J-0.293 E0.14421
G1 X101.129 Y139.477 E2.77799
G3 X99.441 Y137.632 I0.228 J-1.904 E0.15823
G1 X99.441 Y74.258 E3.68805
G1 X99.463 Y74.11 E.00871
M73 P2 R19
G1 X99.463 Y72.194 E.1115
G3 X99.741 Y71.406 I1.730 J0.167 E0.04897
G1 X100.149 Y71.693 F7200
G1 F3000
G3 X101.154 Y71.023 I1.200 J0.712 E0.07246
G1 X144.633 Y71.023 E2.53026
G3 X145.828 Y72.231 I-0.204 J1.397 E0.10597
G1 X145.803 Y74.729 E.14538
G3 X144.609 Y75.911 I-1.394 J-0.214 E0.10457
G1 X143.127 Y75.911 E.08624
G1 X143.127 Y81.355 E.31681
G1 X145.551 Y81.355 E.14106
G3 X146.744 Y82.563 I-0.220 J1.410 E0.10581
G1 X146.713 Y85.106 E.148
G3 X145.524 Y86.243 I-1.391 J-0.264 E0.10195
G1 X143.127 Y86.243 E.13949
G1 X143.127 Y90.436 E.24401
G1 X147.393 Y90.436 E.24826
G3 X148.584 Y91.598 I-0.219 J1.416 E0.10331
G1 X148.563 Y94.142 E.14805
G3 X147.372 Y95.324 I-1.398 J-0.218 E0.10440
G1 X143.127 Y95.324 E.24704
G1 X143.127 Y134.089 E2.25593
G1 X148.865 Y134.089 E.33392
G3 X150.061 Y135.296 I-0.215 J1.409 E0.10595
G1 X150.03 Y137.84 E.14806
G3 X148.841 Y138.977 I-1.394 J-0.268 E0.10196
G1 X101.153 Y138.977 E2.7752
G3 X99.941 Y137.613 I0.209 J-1.406 E0.11511
G1 X99.941 Y74.281 E3.6856
G1 X99.962 Y74.154 E.00749
G1 X99.962 Y72.218 E.11267
G3 X100.121 Y71.746 I1.186 J0.137 E0.02913
G1 X100.567 Y71.965 F7200
G1 F3000
G3 X101.182 Y71.523 I0.808 J0.475 E0.04503
G1 X144.608 Y71.523 E2.52717
G3 X145.328 Y72.250 I-0.191 J0.909 E0.06264
G1 X145.303 Y74.7 E.14259
G3 X144.584 Y75.411 I-0.906 J-0.198 E0.06186
G1 X142.627 Y75.411 E.11389
G1 X142.627 Y81.855 E.37501
G1 X145.523 Y81.855 E.16853
G3 X146.244 Y82.582 I-0.194 J0.913 E0.06270
G1 X146.219 Y85.032 E.14259
G3 X145.548 Y85.734 I-0.921 J-0.208 E0.05905
G1 X142.627 Y85.743 E.16999
G1 X142.627 Y90.936 E.30221
G1 X147.368 Y90.936 E.2759
G1 X147.648 Y91.042 E.01742
G3 X148.089 Y91.663 I-0.486 J0.812 E0.04528
G1 X148.064 Y94.113 E.14259
G3 X147.345 Y94.824 I-0.909 J-0.200 E0.06182
G1 X142.627 Y94.824 E.27456
G1 X142.627 Y134.589 E2.31412
G1 X148.84 Y134.589 E.36157
G1 X149.119 Y134.695 E.01737
G1 X149.43 Y134.995 E.02515
G1 X149.56 Y135.316 E.02015
G1 X149.535 Y137.766 E.14259
G3 X148.817 Y138.477 I-0.907 J-0.198 E0.06180
G1 X101.178 Y138.477 E2.77235
G1 X100.859 Y138.345 E.02009
M73 P2 R18
G3 X100.441 Y137.595 I0.502 J-0.771 E0.05173
G1 X100.441 Y74.312 E3.68275
G1 X100.462 Y74.211 E.006
G1 X100.462 Y72.242 E.11459
G1 X100.544 Y72.02 E.01377
G1 X101 Y72.225 F7200
G1 F3000
G3 X101.256 Y72.023 I0.371 J0.207 E0.01929
G1 X144.533 Y72.023 E2.5185
G1 X144.626 Y72.061 E.00585
M73 P3 R18
G3 X144.828 Y72.320 I-0.213 J0.374 E0.01943
G1 X144.804 Y74.621 E.13391
G3 X144.511 Y74.911 I-0.405 J-0.116 E0.02488
G1 X142.127 Y74.911 E.13874
G1 X142.127 Y82.355 E.4332
G1 X145.449 Y82.355 E.19332
G3 X145.743 Y82.652 I-0.118 J0.411 E0.02522
G1 X145.72 Y84.953 E.13391
G3 X145.426 Y85.243 I-0.407 J-0.119 E0.02490
G1 X142.127 Y85.243 E.19199
G1 X142.127 Y91.436 E.3604
G1 X147.294 Y91.436 E.30069
G3 X147.588 Y91.733 I-0.118 J0.411 E0.02522
G1 X147.564 Y94.034 E.13391
G3 X147.271 Y94.324 I-0.405 J-0.116 E0.02488
G1 X142.127 Y94.324 E.29935
G1 X142.127 Y135.089 E2.37232
G1 X148.766 Y135.089 E.38636
G3 X149.060 Y135.386 I-0.118 J0.411 E0.02522
G1 X149.036 Y137.687 E.13391
G3 X148.743 Y137.977 I-0.405 J-0.116 E0.02488
G1 X101.252 Y137.977 E2.76374
G3 X100.941 Y137.583 I0.118 J-0.413 E0.03101
G1 X100.941 Y74.385 E3.6778
G1 X100.962 Y74.334 E.00321
G1 X100.962 Y72.317 E.11738
G1 X100.977 Y72.28 E.00232
G1 E-.64 F2100
;WIPE_START
G1 F5760
G1 X101.164 Y72.061 E-.09974
G3 X101.330 Y72.023 I0.129 J0.182 E-0.06026
;WIPE_END
G1 Z.48 F7200
G1 X145.049 Y83.045
G1 Z.28
G1 E.8 F1500
;TYPE:External perimeter
G1 F3000
G1 X145.034 Y84.553 E.08776
G1 X101.631 Y84.553 E2.52583
G1 X101.631 Y83.045 E.08776
G1 X144.989 Y83.045 E2.52322
G1 X144.851 Y83.392 F7200
G1 X144.544 Y83.545
;TYPE:Perimeter
G1 F3000
G1 X144.539 Y84.054 E.02962
G1 X102.131 Y84.054 E2.46793
G1 X102.131 Y83.545 E.02962
G1 X144.484 Y83.545 E2.46473
G1 E-.64 F2100
;WIPE_START
G1 F5760
G1 X144.534 Y84.004 E-.16
;WIPE_END
G1 Z.48 F7200
G1 X146.894 Y92.126
G1 Z.28
G1 E.8 F1500
;TYPE:External perimeter
G1 F3000
G1 X146.879 Y93.634 E.08776
G1 X101.631 Y93.634 E2.6332
G1 X101.631 Y92.126 E.08776
G1 X146.834 Y92.126 E2.63059
G1 X146.695 Y92.473 F7200
G1 X146.389 Y92.626
;TYPE:Perimeter
G1 F3000
G1 X146.384 Y93.134 E.02956
G1 X102.131 Y93.134 E2.5753
G1 X102.131 Y92.626 E.02956
G1 X146.329 Y92.626 E2.5721
M73 P4 R18
G1 E-.64 F2100
;WIPE_START
G1 F5760
G1 X146.379 Y93.085 E-.16
;WIPE_END
G1 Z.48 F7200
G1 X141.401 Y91.846
G1 Z.28
G1 E.8 F1500
;TYPE:External perimeter
;WIDTH:0.691117
G1 F3000
G1 X141.401 Y84.833 E.51516
G1 E-.64 F2100
;WIPE_START
G1 F5760
G1 X141.401 Y85.295 E-.16
;WIPE_END
G1 Z.48 F7200
G1 X141.401 Y82.765
G1 Z.28
G1 E.8 F1500
G1 F3000
G1 X141.401 Y74.501 E.60706
G1 E-.64 F2100
;WIPE_START
G1 F5760
G1 X141.401 Y74.963 E-.16
;WIPE_END
G1 Z.48 F7200
G1 X101.652 Y74.221
G1 Z.28
G1 E.8 F1500
;WIDTH:0.56
G1 F3000
G1 X101.652 Y72.713 E.08776
G1 X144.134 Y72.713 E2.47224
G1 X144.118 Y74.221 E.08776
G1 X101.712 Y74.221 E2.46781
G1 X101.848 Y73.873 F7200
G1 X102.152 Y73.722
;TYPE:Perimeter
G1 F3000
G1 X102.152 Y73.213 E.02962
G1 X143.629 Y73.213 E2.41375
G1 X143.623 Y73.722 E.02962
G1 X102.212 Y73.722 E2.40991
G1 X101.667 Y74.501 F7200
;TYPE:External perimeter
;WIDTH:0.691114
G1 F3000
G1 X101.667 Y82.765 E.60706
G1 E-.64 F2100
;WIPE_START
G1 F5760
G1 X101.667 Y82.303 E-.16
;WIPE_END
G1 Z.48 F7200
G1 X101.667 Y84.833
G1 Z.28
G1 E.8 F1500
G1 F3000
G1 X101.667 Y91.846 E.51516
G1 E-.64 F2100
;WIPE_START
G1 F5760
G1 X101.667 Y91.384 E-.16
;WIPE_END
G1 Z.48 F7200
G1 X101.667 Y93.914
G1 Z.28
G1 E.8 F1500
G1 F3000
G1 X101.667 Y135.499 E3.05475
G1 X101.631 Y135.779 F7200
;WIDTH:0.56
G1 F3000
G1 X148.366 Y135.779 E2.71974
G1 X148.35 Y137.287 E.08776
G1 X101.648 Y137.287 E2.71782
G1 X101.648 Y137.153 E.0078
G1 X101.631 Y137.153 E.00099
G1 X101.631 Y135.839 E.07647
G1 X101.978 Y135.977 F7200
G1 X102.131 Y136.278
;TYPE:Perimeter
G1 F3000
G1 X147.861 Y136.278 E2.66125
G1 X147.856 Y136.787 E.02962
G1 X102.148 Y136.787 E2.65997
G1 X102.131 Y136.338 E.02615
G1 E-.64 F2100
;WIPE_START
G1 F5760
M73 P5 R18
G1 X102.593 Y136.337 E-.16
;WIPE_END
G1 Z.48 F7200
G1 X141.401 Y135.499
G1 Z.28
G1 E.8 F1500
;TYPE:External perimeter
;WIDTH:0.691117
G1 F3000
G1 X141.401 Y93.914 E3.05476
;LAYER_CHANGE
;Z:0.48
;HEIGHT:0.2
;BEFORE_LAYER_CHANGE
G92 E0.0
;0.48


G1 E-.64 F2100
;WIPE_START
G1 F5760
G1 X141.401 Y94.376 E-.16
;WIPE_END
G1 Z.48 F7200
;AFTER_LAYER_CHANGE
;0.48
G1 Z.68
G1 X101.626 Y74.291
G1 Z.48
G1 E.8 F1500
;WIDTH:0.42
G1 F2999
G1 X101.626 Y72.643 E.05167
G1 X144.204 Y72.643 E1.335
G1 X144.188 Y74.291 E.05167
G1 X101.686 Y74.291 E1.33262
G1 X101.822 Y73.943 F7200
G1 X102.018 Y73.899
;TYPE:Perimeter
;WIDTH:0.45
G1 F2999
G1 X102.018 Y73.035 E.02925
G1 X143.808 Y73.035 E1.41454
G1 X143.799 Y73.899 E.02925
G1 X102.078 Y73.899 E1.41221
G1 X102.222 Y73.467 F7200
;TYPE:Gap fill
;WIDTH:0.500356
G1 F2999
G1 X143.6 Y73.467 E1.57385
G1 E-.64 F2100
;WIPE_START
G1 F5760
G1 X143.138 Y73.467 E-.16
;WIPE_END
G1 Z.68 F7200
G1 X101.632 Y82.975
G1 Z.48
G1 E.8 F1500
;TYPE:External perimeter
;WIDTH:0.42
G1 F2999
G1 X145.12 Y82.975 E1.36354
G1 X145.103 Y84.623 E.05167
G1 X101.632 Y84.623 E1.363
G1 X101.632 Y83.035 E.04979
G1 X102.032 Y82.98 F7200
G1 X102.024 Y83.367
;TYPE:Perimeter
;WIDTH:0.45
G1 F2999
G1 X144.724 Y83.367 E1.44534
G1 X144.715 Y84.231 E.02925
G1 X102.024 Y84.231 E1.44504
G1 X102.024 Y83.427 E.02721
G1 X102.228 Y83.799 F7200
;TYPE:Gap fill
;WIDTH:0.500356
G1 F2999
G1 X144.516 Y83.799 E1.60846
G1 E-.64 F2100
;WIPE_START
G1 F5760
G1 X144.054 Y83.799 E-.16
;WIPE_END
M73 P6 R18
G1 Z.68 F7200
G1 X101.619 Y92.056
G1 Z.48
G1 E.8 F1500
;TYPE:External perimeter
;WIDTH:0.42
G1 F2999
G1 X146.965 Y92.056 E1.42179
G1 X146.948 Y93.704 E.05167
G1 X101.619 Y93.704 E1.42126
G1 X101.619 Y92.116 E.04979
G1 X102.019 Y92.061 F7200
G1 X102.011 Y92.448
;TYPE:Perimeter
;WIDTH:0.45
G1 F2999
G1 X146.569 Y92.448 E1.50824
G1 X146.56 Y93.312 E.02925
G1 X102.011 Y93.312 E1.50793
G1 X102.011 Y92.508 E.02721
G1 X102.215 Y92.88 F7200
;TYPE:Gap fill
;WIDTH:0.500356
G1 F2999
G1 X146.361 Y92.88 E1.67914
G1 E-.64 F2100
;WIPE_START
G1 F5760
G1 X145.899 Y92.88 E-.16
;WIPE_END
G1 Z.68 F7200
G1 X101.613 Y135.709
G1 Z.48
G1 E.8 F1500
;TYPE:External perimeter
;WIDTH:0.42
G1 F2999
G1 X148.437 Y135.709 E1.46813
G1 X148.42 Y137.357 E.05167
G1 X101.613 Y137.357 E1.4676
G1 X101.613 Y135.769 E.04979
G1 X102.013 Y135.713 F7200
G1 X102.005 Y136.101
;TYPE:Perimeter
;WIDTH:0.45
G1 F2999
G1 X148.041 Y136.101 E1.55826
G1 X148.032 Y136.965 E.02925
G1 X102.005 Y136.965 E1.55796
G1 X102.005 Y136.161 E.02721
G1 X102.209 Y136.533 F7200
;TYPE:Gap fill
;WIDTH:0.500356
G1 F2999
G1 X147.833 Y136.533 E1.73535
;LAYER_CHANGE
;Z:0.68
;HEIGHT:0.2
;BEFORE_LAYER_CHANGE
G92 E0.0
;0.68


G1 E-.64 F2100
;WIPE_START
G1 F5760
G1 X147.371 Y136.533 E-.16
;WIPE_END
G1 Z.68 F7200
;AFTER_LAYER_CHANGE
;0.68
G1 Z.88
M73 P7 R18
G1 X101.642 Y135.709
G1 Z.68
G1 E.8 F1500
;TYPE:External perimeter
;WIDTH:0.42
G1 F3006
G1 X148.437 Y135.709 E1.46722
G1 X148.42 Y137.357 E.05167
G1 X101.642 Y137.357 E1.46669
G1 X101.642 Y135.769 E.04979
G1 X102.042 Y135.713 F7200
G1 X102.034 Y136.101
;TYPE:Perimeter
;WIDTH:0.45
G1 F3006
G1 X148.041 Y136.101 E1.55728
G1 X148.032 Y136.965 E.02925
G1 X102.034 Y136.965 E1.55698
G1 X102.034 Y136.161 E.02721
G1 X102.238 Y136.533 F7200
;TYPE:Gap fill
;WIDTH:0.500356
G1 F3006
G1 X147.833 Y136.533 E1.73425
G1 E-.64 F2100
;WIPE_START
G1 F5760
G1 X147.371 Y136.533 E-.16
;WIPE_END
G1 Z.88 F7200
G1 X101.652 Y92.056
G1 Z.68
G1 E.8 F1500
;TYPE:External perimeter
;WIDTH:0.42
G1 F3006
G1 X146.965 Y92.056 E1.42076
G1 X146.948 Y93.704 E.05167
G1 X101.652 Y93.704 E1.42022
G1 X101.652 Y92.116 E.04979
G1 X102.052 Y92.061 F7200
