; generated by PrusaSlicer 2.6.0+win64 on 2025-09-22 at 10:56:22 UTC
; Postprocessed by [ArcWelder](https://github.com/FormerLurker/ArcWelderLib)
; Copyright(C) 2021 - Brad Hochgesang
; Version: 1.2.0, Branch: HEAD, BuildDate: 2021-11-21T20:25:43Z
; resolution=0.05mm
; path_tolerance=5.0%
; max_radius=9999.00mm
; default_xyz_precision=3
; default_e_precision=5
; extrusion_rate_variance_percent=5.0%














; 

; external perimeters extrusion width = 0.42mm
; perimeters extrusion width = 0.45mm
; infill extrusion width = 0.45mm
; solid infill extrusion width = 0.50mm
; top infill extrusion width = 0.42mm
; support material extrusion width = 0.42mm
; first layer extrusion width = 0.56mm

; external perimeters extrusion width = 0.42mm
; perimeters extrusion width = 0.45mm
; infill extrusion width = 0.45mm
; solid infill extrusion width = 0.50mm
; top infill extrusion width = 0.42mm
; support material extrusion width = 0.42mm
; first layer extrusion width = 0.56mm

M73 P0 R185
M201 X2500 Y2500 Z200 E2500 ; sets maximum accelerations, mm/sec^2
M203 X200 Y200 Z40 E100 ; sets maximum feedrates, mm / sec
M204 P2000 R1200 T2000 ; sets acceleration (P, T) and retract acceleration (R), mm/sec^2
M205 X8.00 Y8.00 Z2.00 E10.00 ; sets the jerk limits, mm/sec
M205 S0 T0 ; sets the minimum extruding and travel feed rate, mm/sec
;TYPE:Custom
M17 ; enable steppers
M862.3 P "MK4" ; printer model check
M862.1 P0.4 ; nozzle diameter check
M115 U5.0.1+12089

M555 X74.3665 Y-2.44421 W132.188 H210.888

G90 ; use absolute coordinates
M83 ; extruder relative mode

M140 S55 ; set bed temp

M104 S170 ; set extruder temp for bed leveling
M109 R170 ; wait for temp


M84 E ; turn off E motor

G28 ; home all without mesh bed level

G1 X42 Y-4 Z5 F4800

M302 S160 ; lower cold extrusion limit to 160C


G1 E-2 F2400 ; retraction


M84 E ; turn off E motor

G29 P9 X10 Y-4 W32 H4

M106 S100

G0 Z40 F10000

M190 S55 ; wait for bed temp

M107


; MBL

M84 E ; turn off E motor
G29 P1 ; invalidate mbl & probe print area
G29 P1 X0 Y0 W50 H20 C ; probe near purge place
G29 P3.2 ; interpolate mbl probes
G29 P3.13 ; extrapolate mbl outside probe area
G29 A ; activate mbl

; prepare for purge
M104 S205
G0 X0 Y-4 Z15 F4800 ; move away and ready for the purge
M109 S205

G92 E0
M569 S0 E ; set spreadcycle mode for extruder


; Extrude purge line

G92 E0 ; reset extruder position
G1 E2 F2400 ; deretraction after the initial one before nozzle cleaning
G0 E7 X15 Z0.2 F500 ; purge
G0 X25 E4 F500 ; purge
G0 X35 E4 F650 ; purge
G0 X45 E4 F800 ; purge
G0 X48 Z0.05 F8000 ; wipe, move close to the bed
G0 X51 Z0.2 F8000 ; wipe, move quickly away from the bed

G92 E0
M221 S100 ; set flow to 100%
G21 ; set units to millimeters
G90 ; use absolute coordinates
M83 ; use relative distances for extrusion
M900 K0.04 ; Filament gcode



M142 S40 ; set heatbreak target temp
M107
;LAYER_CHANGE
;Z:0.28
;HEIGHT:0.28
;BEFORE_LAYER_CHANGE
G92 E0.0
;0.28


G1 E-.8 F2100
G1 Z.2 F7200
G1 Z.28
;AFTER_LAYER_CHANGE
;0.28
G1 Z.48
G1 X74.617 Y6.327
G1 Z.28
G1 E.8 F1500
;TYPE:Skirt/Brim
;WIDTH:0.56
G1 F3000
G1 X74.849 Y5.16 E.06924
G1 X75.34 Y4.107 E.06761
G1 X75.86 Y3.437 E.04936
G1 X76.745 Y2.642 E.06923
G3 X77.937 Y2.046 I2.923 J4.356 E0.07772
G1 X79.14 Y1.807 E.07138
G1 X201.839 Y1.811 E7.14046
G1 X202.777 Y1.984 E.05551
G1 X203.71 Y2.362 E.05858
G3 X205.134 Y3.512 I-2.510 J4.564 E0.10693
G1 X205.836 Y4.572 E.07399
G3 X206.303 Y6.338 I-4.344 J2.093 E0.10679
G1 X206.303 Y203.673 E11.4839
G1 X206.072 Y204.84 E.06923
G1 X205.58 Y205.893 E.06764
G1 X205.061 Y206.563 E.04932
G1 X204.175 Y207.358 E.06927
G3 X202.984 Y207.954 I-2.909 J-4.325 E0.07767
G1 X201.781 Y208.193 E.07138
G1 X79.138 Y208.193 E7.1372
G1 X77.971 Y207.962 E.06923
M73 P0 R184
G1 X76.918 Y207.47 E.06764
G1 X76.248 Y206.951 E.04932
G1 X75.453 Y206.065 E.06927
G3 X74.857 Y204.874 I4.325 J-2.909 E0.07767
G1 X74.617 Y203.671 E.07139
G1 X74.617 Y6.387 E11.48093
G1 X75.117 Y6.387 F7200
G1 F3000
G1 X75.315 Y5.341 E.06195
G1 X75.755 Y4.388 E.06109
G1 X76.213 Y3.792 E.04374
G1 X77.02 Y3.06 E.06341
G3 X78.107 Y2.517 I2.595 J3.834 E0.07086
G1 X79.164 Y2.307 E.06271
G1 X201.815 Y2.311 E7.13767
G3 X204.766 Y3.852 I-0.378 J4.320 E0.19845
G1 X205.378 Y4.774 E.0644
G3 X205.803 Y6.359 I-3.867 J1.886 E0.09594
G1 X205.803 Y203.649 E11.48128
G1 X205.605 Y204.659 E.0599
G1 X205.166 Y205.612 E.06106
G1 X204.708 Y206.208 E.04374
G1 X203.9 Y206.94 E.06345
G3 X202.814 Y207.483 I-2.581 J-3.805 E0.07081
G1 X201.756 Y207.693 E.06277
G1 X79.162 Y207.693 E7.13435
G1 X78.152 Y207.495 E.0599
G1 X77.199 Y207.056 E.06106
G1 X76.602 Y206.598 E.04379
G1 X75.871 Y205.79 E.06341
G3 X75.328 Y204.704 I3.805 J-2.581 E0.07081
G1 X75.117 Y203.646 E.06278
G1 X75.117 Y6.447 E11.47598
G1 X75.617 Y6.447 F7200
G1 F3000
G1 X75.617 Y6.376 E.00413
G1 X75.799 Y5.471 E.05372
G1 X76.195 Y4.627 E.05425
G1 X76.566 Y4.146 E.03535
G1 X77.298 Y3.477 E.05771
G3 X78.277 Y2.988 I2.251 J3.282 E0.06384
G1 X79.189 Y2.806 E.05412
G1 X201.79 Y2.811 E7.13476
G3 X204.397 Y4.190 I-0.350 J3.815 E0.17582
G1 X204.921 Y4.978 E.05507
G3 X205.304 Y6.381 I-3.405 J1.683 E0.08503
G1 X205.304 Y203.624 E11.47854
G1 X205.122 Y204.529 E.05372
G1 X204.726 Y205.373 E.05425
G1 X204.354 Y205.854 E.03539
G1 X203.623 Y206.523 E.05767
G3 X202.644 Y207.012 I-2.272 J-3.324 E0.06383
G1 X201.732 Y207.194 E.05412
G1 X79.187 Y207.194 E7.1315
G1 X78.281 Y207.012 E.05378
G1 X77.437 Y206.616 E.05425
G1 X76.957 Y206.244 E.03534
G1 X76.288 Y205.513 E.05767
G3 X75.799 Y204.534 I3.324 J-2.272 E0.06383
G1 X75.617 Y203.622 E.05412
G1 X75.617 Y6.507 E11.47109
G1 X76.117 Y6.507 F7200
G1 F3000
G1 X76.117 Y6.402 E.00611
G1 X76.282 Y5.601 E.04759
G3 X76.922 Y4.497 I2.876 J0.930 E0.07467
G1 X77.575 Y3.894 E.05173
G3 X79.213 Y3.306 I1.894 J2.700 E0.10231
G1 X201.765 Y3.311 E7.13191
G3 X204.804 Y6.403 I-0.373 J3.406 E0.27300
G1 X204.804 Y203.598 E11.47575
G3 X204.312 Y205.092 I-3.361 J-0.279 E0.09217
G3 X201.707 Y206.694 I-3.008 J-1.973 E0.18415
G1 X79.213 Y206.694 E7.12853
G3 X77.719 Y206.202 I0.279 J-3.361 E0.09217
G3 X76.117 Y203.597 I1.973 J-3.008 E0.18415
G1 X76.117 Y6.567 E11.46615
G1 X76.617 Y6.567 F7200
G1 F3000
G1 X76.617 Y6.427 E.00815
G3 X77.281 Y4.846 I2.657 J0.186 E0.10130
G1 X77.855 Y4.309 E.04574
G3 X79.238 Y3.806 I1.608 J2.269 E0.08652
G1 X201.738 Y3.811 E7.12888
G3 X204.304 Y6.426 I-0.345 J2.905 E0.23032
G1 X204.304 Y203.573 E11.47296
G3 X203.640 Y205.154 I-2.657 J-0.186 E0.10130
G1 X203.066 Y205.691 E.04574
G3 X201.683 Y206.194 I-1.621 J-2.303 E0.08651
G1 X79.238 Y206.194 E7.12568
G3 X77.657 Y205.530 I0.186 J-2.657 E0.10131
G1 X77.12 Y204.956 E.04574
G3 X76.617 Y203.573 I2.277 J-1.611 E0.08652
G1 X76.617 Y6.627 E11.46126
G1 X77.117 Y6.627 F7200
G1 F3000
G3 X78.782 Y4.402 I2.411 J0.068 E0.17248
M73 P0 R183
G1 X79.263 Y4.306 E.02854
G1 X201.71 Y4.311 E7.1258
G3 X203.804 Y6.451 I-0.319 J2.407 E0.18775
G1 X203.804 Y203.548 E11.47005
G3 X201.658 Y205.694 I-2.411 J-0.265 E0.19084
G1 X79.263 Y205.694 E7.12277
G3 X77.117 Y203.548 I0.265 J-2.411 E0.19085
G1 X77.117 Y6.687 E11.45631
G1 X77.617 Y6.687 F7200
G1 F3000
G3 X79.287 Y4.806 I1.893 J-0.001 E0.16028
G1 X201.683 Y4.811 E7.12283
G3 X203.304 Y6.476 I-0.293 J1.907 E0.14513
G1 X203.304 Y203.523 E11.46714
G3 X201.634 Y205.194 I-1.893 J-0.222 E0.14805
G1 X79.287 Y205.194 E7.11998
G3 X77.617 Y203.524 I0.223 J-1.893 E0.14800
G1 X77.617 Y6.747 E11.45142
G1 X78.117 Y6.747 F7200
G1 F3000
G3 X79.312 Y5.306 I1.389 J-0.064 E0.11961
G1 X201.655 Y5.311 E7.11974
G3 X202.804 Y6.501 I-0.267 J1.408 E0.10259
G1 X202.804 Y203.499 E11.46429
G3 X201.609 Y204.694 I-1.400 J-0.205 E0.10528
G1 X79.312 Y204.694 E7.11707
G3 X78.117 Y203.499 I0.202 J-1.397 E0.10530
G1 X78.117 Y6.807 E11.44648
G1 X78.617 Y6.807 F7200
G1 F3000
G3 X79.336 Y5.806 I0.891 J-0.118 E0.07866
G1 X201.585 Y5.806 E7.11427
G3 X202.200 Y6.248 I-0.196 J0.922 E0.04502
M73 P1 R183
G1 X202.304 Y6.525 E.01722
G1 X202.304 Y203.475 E11.46149
G3 X201.585 Y204.194 I-0.911 J-0.192 E0.06224
G1 X79.336 Y204.194 E7.11427
G3 X78.617 Y203.475 I0.192 J-0.911 E0.06224
G1 X78.617 Y6.867 E11.44159
G1 X79.117 Y6.867 F7200
G1 F3000
G3 X79.411 Y6.306 I0.421 J-0.137 E0.04062
G1 X201.51 Y6.306 E7.10554
G3 X201.804 Y6.600 I-0.115 J0.409 E0.02508
G1 X201.804 Y203.4 E11.45276
G3 X201.510 Y203.694 I-0.409 J-0.115 E0.02508
G1 X79.411 Y203.694 E7.10554
G3 X79.117 Y203.400 I0.115 J-0.409 E0.02508
G1 X79.117 Y6.927 E11.43373
G1 E-.64 F2100
;WIPE_START
M73 P1 R182
G1 F5760
G3 X79.155 Y6.508 I0.526 J-0.164 E-0.14774
G1 X79.18 Y6.483 E-.01226
;WIPE_END
G1 Z.48 F7200
G1 X95.044 Y10.371
G1 Z.28
G1 E.8 F1500
;TYPE:Support material
G1 F3000
G1 X96.1 Y10.691 E.06421
G1 X97.075 Y11.213 E.06436
G1 X97.93 Y11.914 E.06434
G1 X98.631 Y12.769 E.06434
G1 X99.152 Y13.744 E.06433
G1 X99.473 Y14.802 E.06434
G1 X99.582 Y15.902 E.06433
G1 X99.473 Y17.002 E.06433
G1 X99.152 Y18.06 E.06434
G1 X98.631 Y19.035 E.06433
G1 X97.93 Y19.89 E.06434
G1 X97.075 Y20.591 E.06434
G1 X96.1 Y21.113 E.06436
G1 X95.042 Y21.434 E.06434
G1 X93.942 Y21.542 E.06432
G1 X92.841 Y21.434 E.06438
G1 X91.783 Y21.113 E.06434
G1 X90.808 Y20.591 E.06436
G1 X89.954 Y19.89 E.0643
G1 X89.252 Y19.035 E.06438
G1 X88.731 Y18.06 E.06433
G1 X88.41 Y17.002 E.06434
G1 X88.302 Y15.902 E.06432
G1 X88.41 Y14.802 E.06432
G1 X88.731 Y13.744 E.06434
G1 X89.252 Y12.769 E.06433
G1 X89.954 Y11.914 E.06438
G1 X90.808 Y11.213 E.0643
G1 X91.783 Y10.691 E.06436
G1 X92.841 Y10.37 E.06434
G1 X93.887 Y10.267 E.06117
G1 X94.969 Y10.364 E.06322
G1 X98.801 Y18.24 F7200
G1 F3000
G1 X98.801 Y14.136 E.23883
G1 X98.735 Y13.917 E.01331
G1 X98.246 Y13.008 E.06007
G1 X98.246 Y18.796 E.33683
G1 X97.69 Y19.473 E.05098
G1 X97.69 Y12.331 E.41563
G2 X97.135 Y11.844 I-1.519 J1.171 E0.04309
G1 X97.135 Y19.96 E.47231
G3 X96.579 Y20.346 I-1.226 J-1.172 E0.03958
G1 X96.579 Y11.458 E.51724
G1 X96.024 Y11.161 E.03663
G1 X96.024 Y20.643 E.5518
G3 X95.468 Y20.834 I-0.754 J-1.290 E0.03431
G1 X95.468 Y10.97 E.57403
G1 X94.913 Y10.811 E.0336
G1 X94.913 Y20.994 E.5926
G1 X94.357 Y21.049 E.03251
G1 X94.357 Y10.761 E.59871
G2 X93.802 Y10.728 I-0.362 J1.407 E0.03243
G1 X93.802 Y21.076 E.6022
G1 X93.247 Y21.021 E.03246
G1 X93.247 Y10.783 E.5958
G2 X92.691 Y10.886 I-0.017 J1.458 E0.03307
G1 X92.691 Y20.918 E.58381
G1 X92.136 Y20.749 E.03376
G1 X92.136 Y11.055 E.56414
G2 X91.580 Y11.310 I0.353 J1.503 E0.03575
G1 X91.58 Y20.494 E.53446
G1 X91.025 Y20.187 E.03691
G1 X91.025 Y11.617 E.49873
G1 X90.469 Y12.073 E.04185
G1 X90.469 Y19.731 E.44566
G3 X89.914 Y19.132 I1.227 J-1.693 E0.04772
G1 X89.914 Y12.672 E.37594
G2 X89.358 Y13.525 I1.860 J1.820 E0.05954
G1 X89.358 Y18.279 E.27666
G1 X89.149 Y17.887 E.02585
G1 X88.854 Y16.914 E.05917
G1 X88.803 Y16.399 E.03012
G1 X88.803 Y14.282 E.1232
G1 E-.64 F2100
;WIPE_START
G1 F5760
G1 X88.803 Y14.744 E-.16
;WIPE_END
G1 Z.48 F7200
G1 X192.215 Y9.846
G1 Z.28
G1 E.8 F1500
G1 F3000
G1 X193.271 Y10.167 E.06423
G1 X194.247 Y10.688 E.06438
G1 X195.101 Y11.389 E.0643
G1 X195.803 Y12.244 E.06438
G1 X196.324 Y13.219 E.06433
G1 X196.645 Y14.277 E.06434
G1 X196.753 Y15.377 E.06432
G1 X196.645 Y16.478 E.06438
G1 X196.324 Y17.536 E.06434
G1 X195.803 Y18.511 E.06433
G1 X195.101 Y19.365 E.06433
G1 X194.247 Y20.067 E.06433
G1 X193.271 Y20.588 E.06438
G1 X192.213 Y20.909 E.06434
G1 X191.113 Y21.017 E.06432
G1 X190.013 Y20.909 E.06432
G1 X188.955 Y20.588 E.06434
G1 X187.98 Y20.067 E.06433
G1 X187.125 Y19.365 E.06438
G1 X186.424 Y18.511 E.0643
G1 X185.903 Y17.536 E.06433
G1 X185.582 Y16.478 E.06434
G1 X185.473 Y15.377 E.06439
G1 X185.582 Y14.277 E.06433
G1 X185.903 Y13.219 E.06434
G1 X186.424 Y12.244 E.06433
G1 X187.125 Y11.389 E.06434
G1 X187.98 Y10.688 E.06434
G1 X188.955 Y10.167 E.06433
G1 X190.013 Y9.846 E.06434
G1 X191.062 Y9.742 E.06135
G1 X192.141 Y9.84 E.06305
G1 X196.006 Y17.653 F7200
G1 F3000
G1 X196.006 Y13.722 E.22876
G1 X195.906 Y13.392 E.02007
G1 X195.451 Y12.54 E.05621
G1 X195.451 Y18.215 E.33026
G1 X194.895 Y18.907 E.05166
G1 X194.895 Y11.847 E.41086
G2 X194.340 Y11.346 I-1.568 J1.180 E0.04366
G1 X194.34 Y19.408 E.46917
G3 X193.784 Y19.804 I-1.279 J-1.207 E0.03990
G1 X193.784 Y10.951 E.5152
G1 X193.229 Y10.654 E.03663
G1 X193.229 Y20.101 E.54977
G3 X192.673 Y20.299 I-0.792 J-1.346 E0.03447
G1 X192.673 Y10.455 E.57287
G1 X192.118 Y10.289 E.03371
G1 X192.118 Y20.466 E.59225
G1 X191.562 Y20.521 E.03251
G1 X191.562 Y10.239 E.59836
G1 X191.007 Y10.2 E.03238
G1 X191.007 Y20.555 E.60261
G1 X190.452 Y20.5 E.03246
G1 X190.452 Y10.255 E.59621
G2 X189.896 Y10.351 I-0.038 J1.440 E0.03298
G1 X189.896 Y20.403 E.58498
G1 X189.341 Y20.235 E.03375
G1 X189.341 Y10.52 E.56536
G2 X188.785 Y10.768 I0.332 J1.492 E0.03559
G1 X188.785 Y19.987 E.5365
G1 X188.23 Y19.69 E.03663
G1 X188.23 Y11.065 E.50193
G1 X187.674 Y11.521 E.04185
G1 X187.674 Y19.234 E.44886
G3 X187.119 Y18.648 I1.190 J-1.682 E0.04718
G1 X187.119 Y12.106 E.38071
G2 X186.563 Y12.937 I1.829 J1.826 E0.05847
G1 X186.563 Y17.817 E.28399
G1 X186.32 Y17.363 E.02997
G1 X186.025 Y16.389 E.05922
G1 X186.008 Y16.215 E.01017
G1 X186.008 Y13.647 E.14944
G1 E-.64 F2100
;WIPE_START
G1 F5760
G1 X186.008 Y14.109 E-.16
;WIPE_END
G1 Z.48 F7200
G1 X192.216 Y188.236
G1 Z.28
G1 E.8 F1500
G1 F3000
G1 X193.271 Y188.556 E.06416
G1 X194.247 Y189.077 E.06438
G1 X195.101 Y189.779 E.06433
G1 X195.803 Y190.633 E.06433
G1 X196.324 Y191.609 E.06438
G1 X196.645 Y192.667 E.06434
G1 X196.753 Y193.767 E.06432
G1 X196.645 Y194.867 E.06432
G1 X196.324 Y195.925 E.06434
G1 X195.803 Y196.9 E.06433
G1 X195.101 Y197.755 E.06438
G1 X194.247 Y198.456 E.0643
G1 X193.271 Y198.977 E.06438
G1 X192.213 Y199.298 E.06434
G1 X191.113 Y199.407 E.06433
G1 X190.013 Y199.298 E.06433
G1 X188.955 Y198.977 E.06434
G1 X187.98 Y198.456 E.06433
G1 X187.125 Y197.755 E.06434
G1 X186.424 Y196.9 E.06434
G1 X185.903 Y195.925 E.06433
G1 X185.582 Y194.867 E.06434
G1 X185.473 Y193.767 E.06433
G1 X185.582 Y192.667 E.06433
G1 X185.903 Y191.609 E.06434
G1 X186.424 Y190.633 E.06438
G1 X187.125 Y189.779 E.0643
G1 X187.98 Y189.077 E.06438
G1 X188.955 Y188.556 E.06433
G1 X190.013 Y188.235 E.06434
G1 X191.059 Y188.132 E.06117
G1 X192.141 Y188.229 E.06322
G1 X196.006 Y196.042 F7200
G1 F3000
G1 X196.006 Y192.111 E.22876
G1 X195.906 Y191.782 E.02001
G1 X195.451 Y190.929 E.05626
G1 X195.451 Y196.604 E.33026
G1 X194.895 Y197.297 E.0517
G1 X194.895 Y190.237 E.41086
G2 X194.340 Y189.736 I-1.535 J1.143 E0.04366
G1 X194.34 Y197.798 E.46917
G3 X193.784 Y198.193 I-1.285 J-1.221 E0.03986
G1 X193.784 Y189.34 E.5152
G1 X193.229 Y189.044 E.0366
G1 X193.229 Y198.49 E.54971
G3 X192.673 Y198.689 I-0.779 J-1.300 E0.03449
G1 X192.673 Y188.845 E.57287
G1 X192.118 Y188.679 E.03371
G1 X192.118 Y198.856 E.59225
G1 X191.562 Y198.91 E.03251
G1 X191.562 Y188.629 E.5983
G1 X191.007 Y188.589 E.03238
G1 X191.007 Y198.944 E.60261
G1 X190.451 Y198.89 E.03251
G1 X190.451 Y188.644 E.59627
G2 X189.896 Y188.741 I-0.031 J1.461 E0.03293
G1 X189.896 Y198.793 E.58498
G1 X189.341 Y198.624 E.03376
G1 X189.341 Y188.909 E.56536
G2 X188.785 Y189.157 I0.353 J1.540 E0.03558
G1 X188.785 Y198.377 E.53656
G1 X188.23 Y198.079 E.03666
G1 X188.23 Y189.454 E.50193
G1 X187.674 Y189.91 E.04185
G1 X187.674 Y197.623 E.44886
G3 X187.119 Y197.038 I1.197 J-1.691 E0.04713
G1 X187.119 Y190.496 E.38071
G2 X186.563 Y191.327 I1.829 J1.826 E0.05847
G1 X186.563 Y196.207 E.28399
G1 X186.32 Y195.752 E.03002
G1 X186.025 Y194.779 E.05917
G1 X186.008 Y194.605 E.01017
G1 X186.008 Y192.036 E.1495
G1 E-.64 F2100
;WIPE_START
G1 F5760
G1 X186.008 Y192.498 E-.16
;WIPE_END
G1 Z.48 F7200
G1 X95.044 Y188.235
G1 Z.28
G1 E.8 F1500
G1 F3000
G1 X96.1 Y188.556 E.06423
G1 X97.075 Y189.077 E.06433
G1 X97.93 Y189.778 E.06434
G1 X98.631 Y190.633 E.06434
G1 X99.152 Y191.608 E.06433
G1 X99.473 Y192.666 E.06434
G1 X99.582 Y193.766 E.06433
G1 X99.473 Y194.867 E.06439
G1 X99.152 Y195.925 E.06434
G1 X98.631 Y196.9 E.06433
G1 X97.93 Y197.754 E.0643
G1 X97.075 Y198.456 E.06438
G1 X96.1 Y198.977 E.06433
G1 X95.042 Y199.298 E.06434
G1 X93.942 Y199.406 E.06432
G1 X92.841 Y199.298 E.06438
G1 X91.783 Y198.977 E.06434
G1 X90.808 Y198.456 E.06433
G1 X89.954 Y197.754 E.06433
G1 X89.252 Y196.9 E.06433
G1 X88.731 Y195.925 E.06433
G1 X88.41 Y194.867 E.06434
